;FLAVOR:Marlin
;TIME:1718
;Filament used: 0.530882m
;Layer height: 0.2
;MINX:99.936
;MINY:99.448
;MINZ:0.2
;MAXX:135.066
;MAXY:135.553
;MAXZ:15
;Generated with Cura_SteamEngine 4.9.0
M140 S80
M105
M190 S80
M104 S240
M105
M109 S240
M82 ;absolute extrusion mode
M201 X500.00 Y500.00 Z100.00 E5000.00 ;Setup machine max acceleration
M203 X500.00 Y500.00 Z10.00 E50.00 ;Setup machine max feedrate
M204 P500.00 R1000.00 T500.00 ;Setup Print/Retract/Travel acceleration
M205 X8.00 Y8.00 Z0.40 E5.00 ;Setup Jerk
M220 S100 ;Reset Feedrate
M221 S100 ;Reset Flowrate

G28 ;Home

G92 E0 ;Reset Extruder
G1 Z2.0 F3000 ;Move Z Axis up
G1 X10.1 Y20 Z0.28 F5000.0 ;Move to start position
G1 X10.1 Y200.0 Z0.12 F1500.0 E15 ;Draw the first line
G1 X10.6 Y200.0 Z0.12 F5000.0 ;Move to side a little
G1 X10.6 Y20 Z0.12 F1500.0 E30 ;Draw the second line
G92 E0 ;Reset Extruder
G1 Z3.0 F3000 ;Move Z Axis up
G92 E0
G92 E0
G1 F3000 E-6
;LAYER_COUNT:75
;LAYER:0
M106 S25.5
G0 F6000 X105.03 Y104.639 Z0.2
;TYPE:SKIRT
G1 F3000 E0
G1 F900 X105.23 Y104.443 E0.00699
G1 X105.46 Y104.224 E0.01491
G1 X105.696 Y104.006 E0.02292
G1 X106.087 Y103.663 E0.0359
G1 X106.389 Y103.41 E0.04572
G1 X106.952 Y102.968 E0.06358
G1 X107.471 Y102.589 E0.07961
G1 X108.534 Y101.905 E0.11114
G1 X108.983 Y101.652 E0.124
G1 X109.325 Y101.468 E0.13369
G1 X109.654 Y101.298 E0.14292
G1 X110.421 Y100.939 E0.16405
G1 X110.963 Y100.711 E0.17872
G1 X111.288 Y100.58 E0.18746
G1 X111.497 Y100.5 E0.19304
G1 X112.101 Y100.29 E0.20899
G1 X112.313 Y100.223 E0.21454
G1 X112.932 Y100.047 E0.23059
G1 X113.497 Y99.905 E0.24512
G1 X114.332 Y99.73 E0.2664
G1 X114.522 Y99.698 E0.27121
G1 X114.853 Y99.648 E0.27956
G1 X115.256 Y99.593 E0.28971
G1 X115.681 Y99.543 E0.30038
G1 X116.128 Y99.5 E0.31158
G1 X116.958 Y99.453 E0.33232
G1 X117.228 Y99.448 E0.33906
G1 X117.626 Y99.448 E0.34899
G1 X117.95 Y99.454 E0.35707
G1 X118.396 Y99.471 E0.3682
G1 X118.662 Y99.487 E0.37485
G1 X119.033 Y99.516 E0.38413
G1 X119.391 Y99.55 E0.3931
G1 X120.236 Y99.664 E0.41437
G1 X120.805 Y99.764 E0.42878
G1 X121.577 Y99.929 E0.44848
G1 X122.052 Y100.049 E0.4607
G1 X122.39 Y100.141 E0.46944
G1 X122.616 Y100.206 E0.4753
G1 X123.329 Y100.438 E0.49401
G1 X123.658 Y100.558 E0.50274
G1 X124.174 Y100.762 E0.51658
G1 X124.591 Y100.939 E0.52788
G1 X125.323 Y101.282 E0.54805
G1 X125.538 Y101.393 E0.55408
G1 X125.91 Y101.595 E0.56464
G1 X126.46 Y101.907 E0.58042
G1 X126.709 Y102.052 E0.58761
G1 X126.83 Y102.125 E0.59113
G1 X127.621 Y102.651 E0.61483
G1 X128.067 Y102.977 E0.62861
G1 X128.676 Y103.457 E0.64795
G1 X129.071 Y103.792 E0.66087
G1 X129.469 Y104.147 E0.67417
G1 X129.785 Y104.451 E0.68511
G1 X130.09 Y104.757 E0.69589
G1 X130.342 Y105.018 E0.70494
G1 X130.712 Y105.427 E0.7187
G1 X130.894 Y105.639 E0.72567
G1 X131.153 Y105.951 E0.73578
G1 X131.505 Y106.404 E0.75009
G1 X131.793 Y106.796 E0.76223
G1 X132.112 Y107.255 E0.77617
G1 X132.281 Y107.512 E0.78384
G1 X132.592 Y108.015 E0.7986
G1 X132.717 Y108.23 E0.8048
G1 X132.955 Y108.661 E0.81708
G1 X133.148 Y109.031 E0.82749
G1 X133.325 Y109.385 E0.83736
G1 X133.462 Y109.673 E0.84532
G1 X133.77 Y110.386 E0.86469
G1 X133.963 Y110.881 E0.87795
G1 X134.239 Y111.681 E0.89906
G1 X134.309 Y111.913 E0.9051
G1 X134.426 Y112.332 E0.91595
G1 X134.563 Y112.863 E0.92963
G1 X134.641 Y113.184 E0.93787
G1 X134.694 Y113.419 E0.94388
G1 X134.849 Y114.266 E0.96536
G1 X134.929 Y114.827 E0.9795
G1 X135.016 Y115.681 E1.00091
G1 X135.046 Y116.166 E1.01303
G1 X135.066 Y116.978 E1.03329
G1 X135.062 Y117.269 E1.04055
G1 X135.049 Y117.677 E1.05074
G1 X135.03 Y118.044 E1.0599
G1 X135.005 Y118.405 E1.06893
G1 X134.977 Y118.732 E1.07712
G1 X134.935 Y119.136 E1.08725
G1 X134.896 Y119.451 E1.09517
G1 X134.826 Y119.928 E1.10719
G1 X134.643 Y120.838 E1.13035
G1 X134.461 Y121.576 E1.14931
G1 X134.117 Y122.703 E1.1787
G1 X133.967 Y123.112 E1.18957
G1 X133.804 Y123.53 E1.20076
G1 X133.619 Y123.976 E1.21281
G1 X133.431 Y124.401 E1.2244
G1 X133.285 Y124.714 E1.23301
G1 X133.003 Y125.276 E1.2487
G1 X132.874 Y125.515 E1.25547
G1 X132.614 Y125.969 E1.26853
G1 X132.446 Y126.247 E1.27663
G1 X132.001 Y126.926 E1.29688
G1 X131.639 Y127.434 E1.31244
G1 X131.403 Y127.752 E1.32232
G1 X131.143 Y128.079 E1.33274
G1 X130.973 Y128.285 E1.3394
G1 X130.647 Y128.663 E1.35185
G1 X130.424 Y128.909 E1.36014
G1 X129.86 Y129.486 E1.38026
G1 X129.388 Y129.934 E1.3965
G1 X129.078 Y130.217 E1.40697
G1 X128.882 Y130.389 E1.41347
G1 X128.63 Y130.603 E1.42172
G1 X128.094 Y131.026 E1.43875
G1 X127.922 Y131.153 E1.44408
G1 X127.628 Y131.363 E1.4531
G1 X127.247 Y131.625 E1.46463
G1 X126.585 Y132.046 E1.4842
G1 X126.329 Y132.196 E1.4916
G1 X124.484 Y133.323 E1.54553
G1 X123.567 Y133.872 E1.57219
G1 X122.589 Y134.391 E1.59981
G1 X122.336 Y134.509 E1.60678
G1 X121.48 Y134.865 E1.6299
G1 X120.596 Y135.145 E1.65303
G1 X120.081 Y135.27 E1.66625
G1 X119.925 Y135.304 E1.67024
G1 X119.012 Y135.463 E1.69335
G1 X117.843 Y135.549 E1.72259
G1 X117.635 Y135.553 E1.72778
G1 X116.708 Y135.531 E1.75091
G1 X115.492 Y135.379 E1.78148
G1 X115.279 Y135.34 E1.78689
G1 X114.375 Y135.134 E1.81001
G1 X113.492 Y134.851 E1.83314
G1 X112.813 Y134.573 E1.85145
G1 X112.559 Y134.459 E1.85839
G1 X111.336 Y133.813 E1.89289
G1 X110.482 Y133.289 E1.91789
G1 X110.152 Y133.105 E1.92731
G1 X108.478 Y132.081 E1.97626
G1 X107.732 Y131.606 E1.99832
G1 X106.996 Y131.092 E2.02072
G1 X106.77 Y130.92 E2.0278
G1 X106.54 Y130.74 E2.03509
G1 X106.335 Y130.575 E2.04165
G1 X105.675 Y129.999 E2.0635
G1 X105.224 Y129.571 E2.07901
G1 X104.639 Y128.971 E2.09992
G1 X104.383 Y128.687 E2.10946
G1 X104.112 Y128.374 E2.11978
G1 X103.866 Y128.079 E2.12937
G1 X103.651 Y127.813 E2.1379
G1 X103.483 Y127.598 E2.1447
G1 X102.984 Y126.903 E2.16605
G1 X102.702 Y126.476 E2.17881
G1 X102.372 Y125.945 E2.19441
G1 X102.205 Y125.657 E2.20271
G1 X101.743 Y124.767 E2.22773
G1 X101.469 Y124.173 E2.24404
G1 X101.298 Y123.78 E2.25473
G1 X101.226 Y123.606 E2.25943
G1 X101.081 Y123.237 E2.26932
G1 X100.947 Y122.876 E2.27893
G1 X100.691 Y122.096 E2.29941
G1 X100.593 Y121.754 E2.30828
G1 X100.484 Y121.344 E2.31886
G1 X100.398 Y120.992 E2.3279
G1 X100.314 Y120.62 E2.33741
G1 X100.261 Y120.364 E2.34394
G1 X100.175 Y119.897 E2.35578
G1 X100.111 Y119.466 E2.36665
G1 X100.036 Y118.884 E2.38129
G1 X99.965 Y118.114 E2.40058
G1 X99.956 Y117.954 E2.40458
G1 X99.94 Y117.467 E2.41673
G1 X99.936 Y117.099 E2.42591
G1 X99.939 Y116.695 E2.43599
G1 X99.949 Y116.321 E2.44532
G1 X100.003 Y115.495 E2.46597
G1 X100.056 Y114.986 E2.47874
G1 X100.123 Y114.464 E2.49186
G1 X100.178 Y114.127 E2.50038
G1 X100.261 Y113.664 E2.51212
G1 X100.351 Y113.217 E2.52349
G1 X100.414 Y112.935 E2.5307
G1 X100.611 Y112.182 E2.55011
G1 X100.759 Y111.69 E2.56293
G1 X101.02 Y110.927 E2.58305
G1 X101.197 Y110.467 E2.59534
G1 X101.341 Y110.111 E2.60492
G1 X101.425 Y109.914 E2.61026
G1 X101.644 Y109.433 E2.62345
G1 X101.806 Y109.109 E2.63248
G1 X101.957 Y108.818 E2.64066
G1 X102.152 Y108.458 E2.65087
G1 X102.252 Y108.282 E2.65592
G1 X102.484 Y107.893 E2.66722
G1 X102.731 Y107.498 E2.67884
G1 X103.223 Y106.779 E2.70058
G1 X103.523 Y106.376 E2.71311
G1 X103.752 Y106.08 E2.72244
G1 X103.968 Y105.81 E2.73107
G1 X104.242 Y105.48 E2.74177
G1 X104.585 Y105.099 E2.75456
G1 X104.735 Y104.94 E2.76001
G1 X105.03 Y104.639 E2.77052
G0 F6000 X105.24 Y104.853
G1 F900 X105.44 Y104.657 E2.77751
G1 X105.663 Y104.445 E2.78518
G1 X105.899 Y104.227 E2.7932
G1 X106.279 Y103.893 E2.80582
G1 X106.581 Y103.64 E2.81564
G1 X107.129 Y103.211 E2.83301
G1 X107.648 Y102.832 E2.84904
G1 X108.681 Y102.167 E2.87968
G1 X109.13 Y101.914 E2.89254
G1 X109.463 Y101.734 E2.90198
G1 X109.792 Y101.564 E2.91122
G1 X110.537 Y101.216 E2.93173
G1 X111.079 Y100.988 E2.9464
G1 X111.395 Y100.861 E2.95489
G1 X111.604 Y100.781 E2.96048
G1 X112.191 Y100.576 E2.97599
G1 X112.403 Y100.509 E2.98153
G1 X113.005 Y100.338 E2.99714
G1 X113.57 Y100.196 E3.01168
G1 X114.381 Y100.026 E3.03235
G1 X114.571 Y99.994 E3.03715
G1 X114.894 Y99.945 E3.0453
G1 X115.297 Y99.89 E3.05545
G1 X115.709 Y99.842 E3.06579
G1 X116.156 Y99.799 E3.077
G1 X116.964 Y99.753 E3.09718
G1 X117.234 Y99.748 E3.10392
G1 X117.62 Y99.748 E3.11355
G1 X117.944 Y99.754 E3.12163
G1 X118.378 Y99.771 E3.13247
G1 X118.644 Y99.787 E3.13912
G1 X119.005 Y99.815 E3.14815
G1 X119.363 Y99.849 E3.15712
G1 X120.184 Y99.96 E3.17778
G1 X120.753 Y100.06 E3.1922
G1 X121.504 Y100.22 E3.21135
G1 X121.979 Y100.34 E3.22357
G1 X122.307 Y100.429 E3.23205
G1 X122.533 Y100.494 E3.23792
G1 X123.226 Y100.72 E3.2561
G1 X123.555 Y100.84 E3.26483
G1 X124.057 Y101.038 E3.2783
G1 X124.474 Y101.215 E3.2896
G1 X125.185 Y101.548 E3.30918
G1 X125.4 Y101.659 E3.31522
G1 X125.762 Y101.856 E3.3255
G1 X126.312 Y102.168 E3.34127
G1 X126.554 Y102.309 E3.34826
G1 X126.675 Y102.382 E3.35178
G1 X127.444 Y102.893 E3.37481
G1 X127.89 Y103.219 E3.38859
G1 X128.482 Y103.686 E3.4074
G1 X128.877 Y104.021 E3.42032
G1 X129.265 Y104.367 E3.43329
G1 X129.572 Y104.663 E3.44393
G1 X129.877 Y104.969 E3.45471
G1 X130.124 Y105.224 E3.46356
G1 X130.484 Y105.622 E3.47695
G1 X130.666 Y105.834 E3.48392
G1 X130.921 Y106.141 E3.49388
G1 X131.263 Y106.582 E3.5078
G1 X131.551 Y106.974 E3.51993
G1 X131.861 Y107.419 E3.53346
G1 X132.03 Y107.676 E3.54113
G1 X132.333 Y108.166 E3.5555
G1 X132.458 Y108.381 E3.56171
G1 X132.689 Y108.8 E3.57364
G1 X132.882 Y109.17 E3.58405
G1 X133.054 Y109.514 E3.59365
G1 X133.191 Y109.802 E3.6016
G1 X133.49 Y110.495 E3.62043
G1 X133.683 Y110.99 E3.63368
G1 X133.952 Y111.767 E3.65419
G1 X134.022 Y111.999 E3.66024
G1 X134.136 Y112.407 E3.67081
G1 X134.273 Y112.938 E3.68449
G1 X134.348 Y113.25 E3.69249
G1 X134.401 Y113.485 E3.6985
G1 X134.552 Y114.309 E3.7194
G1 X134.632 Y114.87 E3.73353
G1 X134.717 Y115.7 E3.75434
G1 X134.747 Y116.185 E3.76647
G1 X134.766 Y116.974 E3.78615
G1 X134.762 Y117.265 E3.79341
G1 X134.749 Y117.661 E3.8033
G1 X134.73 Y118.028 E3.81246
G1 X134.706 Y118.38 E3.82126
G1 X134.678 Y118.707 E3.82945
G1 X134.637 Y119.099 E3.83928
G1 X134.598 Y119.414 E3.8472
G1 X134.551 Y119.748 E3.85562
G1 X134.53 Y119.882 E3.859
G1 X134.352 Y120.766 E3.88149
G1 X134.17 Y121.504 E3.90045
G1 X133.835 Y122.6 E3.92904
G1 X133.685 Y123.009 E3.93991
G1 X133.527 Y123.415 E3.95078
G1 X133.342 Y123.861 E3.96282
G1 X133.159 Y124.274 E3.97409
G1 X133.013 Y124.587 E3.98271
G1 X132.739 Y125.134 E3.99797
G1 X132.61 Y125.373 E4.00474
G1 X132.358 Y125.814 E4.01741
G1 X132.19 Y126.092 E4.02551
G1 X131.756 Y126.751 E4.0452
G1 X131.394 Y127.259 E4.06076
G1 X131.164 Y127.57 E4.07041
G1 X130.912 Y127.888 E4.08053
G1 X130.742 Y128.094 E4.08719
G1 X130.424 Y128.461 E4.0993
G1 X130.201 Y128.707 E4.10759
G1 X129.653 Y129.268 E4.12715
G1 X129.181 Y129.716 E4.14338
G1 X128.88 Y129.991 E4.15355
G1 X128.519 Y130.305 E4.16549
G1 X128.437 Y130.374 E4.16816
G1 X127.916 Y130.785 E4.18472
G1 X127.744 Y130.912 E4.19005
G1 X127.458 Y131.116 E4.19881
G1 X127.077 Y131.378 E4.21035
G1 X126.433 Y131.787 E4.22938
G1 X126.175 Y131.938 E4.23683
G1 X124.33 Y133.066 E4.29078
G1 X123.413 Y133.615 E4.31744
G1 X122.462 Y134.12 E4.3443
G1 X122.209 Y134.238 E4.35126
G1 X121.365 Y134.587 E4.37404
G1 X120.493 Y134.862 E4.39685
G1 X120.017 Y134.977 E4.40907
G1 X119.861 Y135.011 E4.41305
G1 X118.961 Y135.167 E4.43584
G1 X117.837 Y135.249 E4.46395
G1 X117.629 Y135.253 E4.46914
G1 X116.715 Y135.231 E4.49195
G1 X115.546 Y135.084 E4.52134
G1 X115.333 Y135.045 E4.52674
G1 X114.442 Y134.841 E4.54954
G1 X113.572 Y134.56 E4.57235
G1 X112.936 Y134.3 E4.58948
G1 X112.682 Y134.186 E4.59643
G1 X111.493 Y133.557 E4.62998
G1 X110.758 Y133.106 E4.65149
G1 X110.308 Y132.849 E4.66442
G1 X108.639 Y131.828 E4.71323
G1 X107.893 Y131.353 E4.73529
G1 X107.177 Y130.854 E4.75706
G1 X106.951 Y130.682 E4.76414
G1 X106.728 Y130.507 E4.77121
G1 X106.523 Y130.342 E4.77778
G1 X105.882 Y129.781 E4.79903
G1 X105.431 Y129.353 E4.81454
G1 X104.862 Y128.77 E4.83486
G1 X104.606 Y128.486 E4.8444
G1 X104.342 Y128.182 E4.85444
G1 X104.096 Y127.887 E4.86402
G1 X103.888 Y127.628 E4.87231
G1 X103.72 Y127.413 E4.87912
G1 X103.234 Y126.738 E4.89986
G1 X102.952 Y126.311 E4.91263
G1 X102.632 Y125.794 E4.9278
G1 X102.465 Y125.506 E4.9361
G1 X102.016 Y124.641 E4.96041
G1 X101.742 Y124.047 E4.97673
G1 X101.575 Y123.666 E4.98711
G1 X101.503 Y123.492 E4.9918
G1 X101.362 Y123.133 E5.00142
G1 X101.228 Y122.772 E5.01103
G1 X100.979 Y122.014 E5.03093
G1 X100.881 Y121.672 E5.03981
G1 X100.776 Y121.273 E5.0501
G1 X100.69 Y120.921 E5.05914
G1 X100.608 Y120.56 E5.06837
G1 X100.555 Y120.304 E5.07489
G1 X100.471 Y119.849 E5.08644
G1 X100.409 Y119.428 E5.09705
G1 X100.334 Y118.846 E5.11169
G1 X100.264 Y118.097 E5.13045
G1 X100.255 Y117.937 E5.13445
G1 X100.24 Y117.464 E5.14626
G1 X100.236 Y117.096 E5.15544
G1 X100.239 Y116.703 E5.16524
G1 X100.249 Y116.329 E5.17457
G1 X100.301 Y115.526 E5.19465
G1 X100.354 Y115.017 E5.20741
G1 X100.42 Y114.508 E5.22022
G1 X100.473 Y114.18 E5.2285
G1 X100.556 Y113.717 E5.24024
G1 X100.643 Y113.283 E5.25128
G1 X100.706 Y113.001 E5.25849
G1 X100.898 Y112.269 E5.27736
G1 X101.046 Y111.777 E5.29018
G1 X101.3 Y111.034 E5.30977
G1 X101.477 Y110.574 E5.32206
G1 X101.617 Y110.228 E5.33137
G1 X101.701 Y110.031 E5.33672
G1 X101.914 Y109.564 E5.34952
G1 X102.072 Y109.247 E5.35836
G1 X102.223 Y108.956 E5.36653
G1 X102.413 Y108.607 E5.37645
G1 X102.513 Y108.431 E5.3815
G1 X102.739 Y108.052 E5.3925
G1 X102.986 Y107.657 E5.40412
G1 X103.464 Y106.958 E5.42525
G1 X103.764 Y106.555 E5.43778
G1 X103.986 Y106.267 E5.44685
G1 X104.202 Y105.997 E5.45548
G1 X104.47 Y105.675 E5.46593
G1 X104.803 Y105.305 E5.47834
G1 X104.953 Y105.146 E5.4838
G1 X105.24 Y104.853 E5.49403
G0 F6000 X105.45 Y105.068
G1 F900 X105.65 Y104.872 E5.50101
G1 X105.867 Y104.665 E5.50849
G1 X106.103 Y104.447 E5.51651
G1 X106.472 Y104.122 E5.52877
G1 X106.774 Y103.869 E5.5386
G1 X107.306 Y103.453 E5.55545
G1 X107.825 Y103.074 E5.57148
G1 X108.828 Y102.428 E5.60124
G1 X109.277 Y102.175 E5.6141
G1 X109.601 Y102.001 E5.62327
G1 X109.93 Y101.831 E5.63251
G1 X110.653 Y101.492 E5.65243
G1 X111.195 Y101.264 E5.66709
G1 X111.503 Y101.141 E5.67537
G1 X111.712 Y101.061 E5.68095
G1 X112.281 Y100.862 E5.69599
G1 X112.493 Y100.795 E5.70153
G1 X113.078 Y100.629 E5.7167
G1 X113.643 Y100.487 E5.73123
G1 X114.431 Y100.322 E5.75132
G1 X114.621 Y100.29 E5.75612
G1 X114.934 Y100.242 E5.76402
G1 X115.337 Y100.187 E5.77417
G1 X115.738 Y100.141 E5.78424
G1 X116.185 Y100.098 E5.79544
G1 X116.969 Y100.053 E5.81503
G1 X117.239 Y100.048 E5.82176
G1 X117.615 Y100.048 E5.83114
G1 X117.939 Y100.054 E5.83923
G1 X118.36 Y100.07 E5.84974
G1 X118.626 Y100.086 E5.85638
G1 X118.977 Y100.113 E5.86517
G1 X119.335 Y100.147 E5.87414
G1 X120.132 Y100.255 E5.8942
G1 X120.701 Y100.355 E5.90861
G1 X121.43 Y100.511 E5.92721
G1 X121.905 Y100.631 E5.93943
G1 X122.225 Y100.717 E5.94769
G1 X122.451 Y100.782 E5.95356
G1 X123.123 Y101.001 E5.97119
G1 X123.452 Y101.121 E5.97993
G1 X123.94 Y101.314 E5.99302
G1 X124.357 Y101.491 E6.00432
G1 X125.047 Y101.815 E6.02333
G1 X125.262 Y101.926 E6.02937
G1 X125.614 Y102.117 E6.03936
G1 X126.164 Y102.429 E6.05513
G1 X126.52 Y102.639 E6.06544
G1 X127.267 Y103.136 E6.08783
G1 X127.713 Y103.462 E6.10161
G1 X128.288 Y103.915 E6.11987
G1 X128.683 Y104.25 E6.13279
G1 X129.061 Y104.587 E6.14542
G1 X129.36 Y104.875 E6.15577
G1 X129.665 Y105.181 E6.16655
G1 X129.907 Y105.431 E6.17523
G1 X130.256 Y105.817 E6.18821
G1 X130.438 Y106.029 E6.19518
G1 X130.689 Y106.332 E6.205
G1 X131.022 Y106.759 E6.2185
G1 X131.31 Y107.151 E6.23064
G1 X131.611 Y107.584 E6.24379
G1 X131.78 Y107.841 E6.25147
G1 X132.074 Y108.316 E6.2654
G1 X132.199 Y108.531 E6.2716
G1 X132.423 Y108.939 E6.28321
G1 X132.616 Y109.309 E6.29362
G1 X132.783 Y109.643 E6.30294
G1 X132.92 Y109.931 E6.3109
G1 X133.211 Y110.604 E6.32919
G1 X133.404 Y111.099 E6.34244
G1 X133.664 Y111.854 E6.36236
G1 X133.734 Y112.086 E6.3684
G1 X133.845 Y112.482 E6.37866
G1 X133.982 Y113.013 E6.39234
G1 X134.055 Y113.316 E6.40012
G1 X134.108 Y113.551 E6.40613
G1 X134.255 Y114.351 E6.42642
G1 X134.335 Y114.912 E6.44055
G1 X134.418 Y115.718 E6.46076
G1 X134.448 Y116.203 E6.47288
G1 X134.466 Y116.97 E6.49202
G1 X134.462 Y117.261 E6.49928
G1 X134.449 Y117.646 E6.50889
G1 X134.43 Y118.013 E6.51806
