;FLAVOR:Marlin
;TIME:1184
;Filament used: 0.428828m
;Layer height: 0.2
;MINX:99.941
;MINY:99.941
;MINZ:0.2
;MAXX:135.059
;MAXY:135.059
;MAXZ:15
;Generated with Cura_SteamEngine 4.9.0
M140 S80
M105
M190 S80
M104 S240
M105
M109 S240
M82 ;absolute extrusion mode
M201 X500.00 Y500.00 Z100.00 E5000.00 ;Setup machine max acceleration
M203 X500.00 Y500.00 Z10.00 E50.00 ;Setup machine max feedrate
M204 P500.00 R1000.00 T500.00 ;Setup Print/Retract/Travel acceleration
M205 X8.00 Y8.00 Z0.40 E5.00 ;Setup Jerk
M220 S100 ;Reset Feedrate
M221 S100 ;Reset Flowrate

G28 ;Home

G92 E0 ;Reset Extruder
G1 Z2.0 F3000 ;Move Z Axis up
G1 X10.1 Y20 Z0.28 F5000.0 ;Move to start position
G1 X10.1 Y200.0 Z0.12 F1500.0 E15 ;Draw the first line
G1 X10.6 Y200.0 Z0.12 F5000.0 ;Move to side a little
G1 X10.6 Y20 Z0.12 F1500.0 E30 ;Draw the second line
G92 E0 ;Reset Extruder
G1 Z3.0 F3000 ;Move Z Axis up
G92 E0
G92 E0
G1 F3000 E-6
;LAYER_COUNT:75
;LAYER:0
M106 S25.5
G0 F6000 X104.867 Y105.305 Z0.2
;TYPE:SKIRT
G1 F3000 E0
G1 F900 X105.379 Y104.793 E0.01806
G1 X105.627 Y104.561 E0.02653
G1 X106.15 Y104.103 E0.04388
G1 X106.597 Y103.736 E0.0583
G1 X107.188 Y103.283 E0.07688
G1 X107.458 Y103.091 E0.08514
G1 X108.054 Y102.697 E0.10296
G1 X108.522 Y102.409 E0.11667
G1 X109.111 Y102.071 E0.13361
G1 X109.429 Y101.902 E0.1426
G1 X110.092 Y101.579 E0.16099
G1 X110.596 Y101.354 E0.17476
G1 X111.278 Y101.077 E0.19312
G1 X111.649 Y100.941 E0.20298
G1 X112.351 Y100.71 E0.22141
G1 X112.809 Y100.577 E0.23331
G1 X113.457 Y100.411 E0.25
G1 X113.881 Y100.316 E0.26084
G1 X114.607 Y100.179 E0.27927
G1 X115.124 Y100.1 E0.29231
G1 X115.844 Y100.015 E0.3104
G1 X116.152 Y99.989 E0.31811
G1 X116.845 Y99.953 E0.33542
G1 X117.456 Y99.941 E0.35066
G1 X118.182 Y99.951 E0.36877
G1 X118.578 Y99.97 E0.37866
G1 X119.305 Y100.03 E0.39686
G1 X119.692 Y100.075 E0.40658
G1 X120.39 Y100.18 E0.42419
G1 X120.984 Y100.289 E0.43925
G1 X121.705 Y100.447 E0.45766
G1 X121.979 Y100.517 E0.46472
G1 X122.648 Y100.711 E0.4821
G1 X123.179 Y100.884 E0.49603
G1 X123.873 Y101.137 E0.51445
G1 X124.252 Y101.29 E0.52465
G1 X124.893 Y101.573 E0.54213
G1 X125.385 Y101.81 E0.55575
G1 X126.057 Y102.163 E0.57468
G1 X126.342 Y102.326 E0.58287
G1 X126.922 Y102.683 E0.59986
G1 X127.415 Y103.008 E0.61459
G1 X127.99 Y103.415 E0.63217
G1 X128.378 Y103.709 E0.64431
G1 X128.904 Y104.134 E0.66118
G1 X129.085 Y104.29 E0.66714
G1 X129.416 Y104.587 E0.67823
G1 X129.495 Y104.661 E0.68093
G1 X129.762 Y104.92 E0.69021
G1 X130.025 Y105.184 E0.69951
G1 X130.489 Y105.681 E0.71647
G1 X130.883 Y106.13 E0.73137
G1 X131.341 Y106.688 E0.74938
G1 X131.543 Y106.952 E0.75767
G1 X131.952 Y107.525 E0.77523
G1 X132.263 Y107.992 E0.78923
G1 X132.65 Y108.618 E0.80759
G1 X132.858 Y108.982 E0.81804
G1 X133.189 Y109.609 E0.83573
G1 X133.374 Y109.989 E0.84627
G1 X133.647 Y110.597 E0.8629
G1 X133.821 Y111.019 E0.87428
G1 X134.094 Y111.756 E0.89389
G1 X134.28 Y112.321 E0.90873
G1 X134.477 Y112.994 E0.92622
G1 X134.563 Y113.327 E0.9348
G1 X134.668 Y113.77 E0.94616
G1 X134.728 Y114.051 E0.95332
G1 X134.859 Y114.787 E0.97197
G1 X134.916 Y115.221 E0.98289
G1 X134.971 Y115.707 E0.99509
G1 X135.026 Y116.382 E1.01199
G1 X135.047 Y116.804 E1.02253
G1 X135.059 Y117.506 E1.04004
G1 X135.05 Y118.082 E1.05441
G1 X135.012 Y118.829 E1.07307
G1 X134.982 Y119.18 E1.08186
G1 X134.902 Y119.863 E1.09901
G1 X134.81 Y120.475 E1.11445
G1 X134.627 Y121.408 E1.13817
G1 X134.549 Y121.73 E1.14643
G1 X134.417 Y122.223 E1.15916
G1 X134.315 Y122.571 E1.16821
G1 X134.102 Y123.219 E1.18522
G1 X133.905 Y123.761 E1.19961
G1 X133.641 Y124.419 E1.21729
G1 X133.494 Y124.753 E1.2264
G1 X133.173 Y125.421 E1.24488
G1 X132.922 Y125.899 E1.25835
G1 X132.58 Y126.502 E1.27564
G1 X132.392 Y126.81 E1.28465
G1 X131.974 Y127.443 E1.30357
G1 X131.638 Y127.915 E1.31802
G1 X131.219 Y128.465 E1.33527
G1 X131.027 Y128.701 E1.34286
G1 X130.544 Y129.255 E1.36119
G1 X130.133 Y129.695 E1.37621
G1 X129.621 Y130.207 E1.39427
G1 X129.373 Y130.439 E1.40274
G1 X128.85 Y130.897 E1.42009
G1 X128.403 Y131.264 E1.43451
G1 X127.812 Y131.717 E1.45309
G1 X127.542 Y131.909 E1.46135
G1 X126.946 Y132.303 E1.47918
G1 X126.478 Y132.591 E1.49288
G1 X125.903 Y132.921 E1.50942
G1 X125.588 Y133.089 E1.51833
G1 X124.906 Y133.423 E1.53727
G1 X124.399 Y133.649 E1.55112
G1 X123.722 Y133.923 E1.56933
G1 X123.351 Y134.059 E1.57919
G1 X122.649 Y134.29 E1.59763
G1 X122.191 Y134.423 E1.60952
G1 X121.543 Y134.589 E1.62621
G1 X121.119 Y134.684 E1.63705
G1 X120.393 Y134.821 E1.65548
G1 X119.876 Y134.9 E1.66853
G1 X119.156 Y134.985 E1.68661
G1 X118.848 Y135.011 E1.69432
G1 X118.155 Y135.047 E1.71163
G1 X117.544 Y135.059 E1.72688
G1 X116.818 Y135.049 E1.74499
G1 X116.422 Y135.03 E1.75488
G1 X115.695 Y134.97 E1.77307
G1 X115.308 Y134.925 E1.78279
G1 X114.61 Y134.82 E1.8004
G1 X114.016 Y134.711 E1.81546
G1 X113.295 Y134.553 E1.83388
G1 X113.021 Y134.483 E1.84093
G1 X112.352 Y134.289 E1.85831
G1 X111.821 Y134.116 E1.87224
G1 X111.122 Y133.862 E1.89079
G1 X110.741 Y133.708 E1.90104
G1 X110.105 Y133.426 E1.9184
G1 X109.615 Y133.19 E1.93196
G1 X108.943 Y132.837 E1.9509
G1 X108.658 Y132.674 E1.95909
G1 X108.078 Y132.317 E1.97608
G1 X107.585 Y131.992 E1.99081
G1 X106.997 Y131.576 E2.00877
G1 X106.597 Y131.272 E2.02131
G1 X106.074 Y130.848 E2.0381
G1 X105.905 Y130.702 E2.04367
G1 X105.581 Y130.41 E2.05455
G1 X105.501 Y130.335 E2.05729
G1 X105.252 Y130.093 E2.06595
G1 X104.988 Y129.829 E2.07526
G1 X104.5 Y129.308 E2.09307
G1 X104.107 Y128.859 E2.10796
G1 X103.658 Y128.311 E2.12563
G1 X103.456 Y128.047 E2.13392
G1 X103.044 Y127.469 E2.15163
G1 X102.732 Y127 E2.16568
G1 X102.345 Y126.374 E2.18404
G1 X102.139 Y126.013 E2.19441
G1 X101.807 Y125.383 E2.21217
G1 X101.617 Y124.992 E2.22301
G1 X101.344 Y124.382 E2.23968
G1 X101.175 Y123.971 E2.25077
G1 X100.903 Y123.234 E2.27037
G1 X100.716 Y122.664 E2.28533
G1 X100.524 Y122.01 E2.30233
G1 X100.439 Y121.682 E2.31079
G1 X100.324 Y121.194 E2.32329
G1 X100.265 Y120.913 E2.33045
G1 X100.151 Y120.274 E2.34665
G1 X100.129 Y120.125 E2.3504
G1 X100.083 Y119.767 E2.35941
G1 X100.03 Y119.3 E2.37113
G1 X99.974 Y118.617 E2.38823
G1 X99.953 Y118.191 E2.39887
G1 X99.941 Y117.494 E2.41625
G1 X99.95 Y116.918 E2.43062
G1 X99.988 Y116.171 E2.44928
G1 X100.018 Y115.82 E2.45807
G1 X100.095 Y115.158 E2.4747
G1 X100.181 Y114.578 E2.48932
G1 X100.355 Y113.673 E2.51231
G1 X100.439 Y113.319 E2.52139
G1 X100.583 Y112.777 E2.53538
G1 X100.685 Y112.429 E2.54442
G1 X100.898 Y111.781 E2.56144
G1 X101.095 Y111.239 E2.57582
G1 X101.359 Y110.581 E2.59351
G1 X101.506 Y110.247 E2.60261
G1 X101.826 Y109.582 E2.62102
G1 X102.081 Y109.096 E2.63471
G1 X102.436 Y108.471 E2.65264
G1 X102.62 Y108.171 E2.66142
G1 X103.026 Y107.557 E2.67978
G1 X103.362 Y107.085 E2.69423
G1 X103.781 Y106.535 E2.71148
G1 X103.973 Y106.299 E2.71907
G1 X104.456 Y105.745 E2.73741
G1 X104.867 Y105.305 E2.75243
G0 F6000 X105.086 Y105.51
G1 F900 X105.584 Y105.012 E2.76999
G1 X105.832 Y104.78 E2.77846
G1 X106.34 Y104.334 E2.79533
G1 X106.787 Y103.967 E2.80976
G1 X107.362 Y103.528 E2.8278
G1 X107.632 Y103.336 E2.83607
G1 X108.211 Y102.952 E2.8534
G1 X108.679 Y102.664 E2.8671
G1 X109.252 Y102.336 E2.88357
G1 X109.57 Y102.167 E2.89256
G1 X110.214 Y101.853 E2.91043
G1 X110.718 Y101.628 E2.9242
G1 X111.381 Y101.358 E2.94206
G1 X111.752 Y101.222 E2.95191
G1 X112.435 Y100.999 E2.96983
G1 X112.893 Y100.866 E2.98173
G1 X113.522 Y100.704 E2.99793
G1 X113.946 Y100.609 E3.00877
G1 X114.653 Y100.476 E3.02672
G1 X115.17 Y100.397 E3.03976
G1 X115.869 Y100.314 E3.05732
G1 X116.177 Y100.288 E3.06503
G1 X116.851 Y100.253 E3.08187
G1 X117.462 Y100.241 E3.09711
G1 X118.168 Y100.251 E3.11473
G1 X118.564 Y100.27 E3.12462
G1 X119.27 Y100.328 E3.14229
G1 X119.657 Y100.373 E3.15201
G1 X120.336 Y100.475 E3.16913
G1 X120.93 Y100.584 E3.1842
G1 X121.631 Y100.737 E3.2021
G1 X121.905 Y100.807 E3.20915
G1 X122.555 Y100.996 E3.22604
G1 X123.086 Y101.169 E3.23997
G1 X123.761 Y101.415 E3.25789
G1 X124.14 Y101.568 E3.26809
G1 X124.763 Y101.843 E3.28507
G1 X125.255 Y102.08 E3.2987
G1 X125.908 Y102.424 E3.31711
G1 X126.193 Y102.587 E3.3253
G1 X126.757 Y102.933 E3.3418
G1 X127.25 Y103.258 E3.35653
G1 X127.809 Y103.654 E3.37362
G1 X128.197 Y103.948 E3.38576
G1 X128.708 Y104.361 E3.40215
G1 X128.889 Y104.517 E3.40811
G1 X129.211 Y104.806 E3.41891
G1 X129.29 Y104.88 E3.42161
G1 X129.549 Y105.132 E3.43062
G1 X129.812 Y105.396 E3.43992
G1 X130.264 Y105.878 E3.4564
G1 X130.658 Y106.327 E3.4713
G1 X131.102 Y106.87 E3.4888
G1 X131.304 Y107.134 E3.49709
G1 X131.703 Y107.692 E3.5142
G1 X132.014 Y108.159 E3.5282
G1 X132.389 Y108.766 E3.546
G1 X132.597 Y109.13 E3.55646
G1 X132.92 Y109.741 E3.5737
G1 X133.105 Y110.121 E3.58424
G1 X133.37 Y110.712 E3.60039
G1 X133.544 Y111.134 E3.61178
G1 X133.809 Y111.849 E3.6308
G1 X133.995 Y112.414 E3.64564
G1 X134.187 Y113.069 E3.66267
G1 X134.273 Y113.402 E3.67125
G1 X134.375 Y113.833 E3.68229
G1 X134.435 Y114.114 E3.68946
G1 X134.562 Y114.829 E3.70758
G1 X134.618 Y115.255 E3.7183
G1 X134.673 Y115.741 E3.7305
G1 X134.726 Y116.397 E3.74691
G1 X134.747 Y116.819 E3.75745
G1 X134.759 Y117.501 E3.77447
G1 X134.75 Y118.077 E3.78884
G1 X134.713 Y118.804 E3.807
G1 X134.683 Y119.155 E3.81578
G1 X134.605 Y119.818 E3.83244
G1 X134.513 Y120.43 E3.84788
G1 X134.335 Y121.337 E3.87093
G1 X134.257 Y121.659 E3.8792
G1 X134.129 Y122.138 E3.89156
G1 X134.027 Y122.486 E3.90061
G1 X133.82 Y123.117 E3.91718
G1 X133.623 Y123.659 E3.93156
G1 X133.367 Y124.299 E3.94876
G1 X133.22 Y124.633 E3.95786
G1 X132.907 Y125.281 E3.97581
G1 X132.656 Y125.759 E3.98928
G1 X132.324 Y126.345 E4.00608
G1 X132.136 Y126.653 E4.01508
G1 X131.729 Y127.269 E4.0335
G1 X131.393 Y127.741 E4.04795
G1 X130.986 Y128.276 E4.06472
G1 X130.794 Y128.512 E4.07231
G1 X130.325 Y129.05 E4.09011
G1 X129.914 Y129.49 E4.10513
G1 X129.416 Y129.988 E4.1227
G1 X129.168 Y130.22 E4.13117
G1 X128.66 Y130.666 E4.14803
G1 X128.213 Y131.033 E4.16246
G1 X127.638 Y131.472 E4.18051
G1 X127.368 Y131.664 E4.18877
G1 X126.789 Y132.048 E4.2061
G1 X126.321 Y132.336 E4.21981
G1 X125.762 Y132.657 E4.23589
G1 X125.447 Y132.825 E4.2448
G1 X124.784 Y133.149 E4.2632
G1 X124.277 Y133.375 E4.27705
G1 X123.619 Y133.642 E4.29476
G1 X123.248 Y133.778 E4.30462
G1 X122.565 Y134.001 E4.32254
G1 X122.107 Y134.134 E4.33444
G1 X121.478 Y134.296 E4.35064
G1 X121.054 Y134.391 E4.36148
G1 X120.347 Y134.524 E4.37943
G1 X119.83 Y134.603 E4.39247
G1 X119.131 Y134.686 E4.41003
G1 X118.823 Y134.712 E4.41774
G1 X118.149 Y134.747 E4.43458
G1 X117.538 Y134.759 E4.44982
G1 X116.832 Y134.749 E4.46744
G1 X116.436 Y134.73 E4.47733
G1 X115.73 Y134.672 E4.495
G1 X115.343 Y134.627 E4.50472
G1 X114.664 Y134.525 E4.52184
G1 X114.07 Y134.416 E4.53691
G1 X113.369 Y134.263 E4.55481
G1 X113.095 Y134.193 E4.56186
G1 X112.445 Y134.004 E4.57875
G1 X111.914 Y133.831 E4.59268
G1 X111.235 Y133.583 E4.61071
G1 X110.854 Y133.429 E4.62096
G1 X110.235 Y133.156 E4.63784
G1 X109.745 Y132.92 E4.6514
G1 X109.092 Y132.576 E4.66982
G1 X108.807 Y132.413 E4.67801
G1 X108.243 Y132.067 E4.69451
G1 X107.75 Y131.742 E4.70924
G1 X107.179 Y131.337 E4.7267
G1 X106.779 Y131.033 E4.73924
G1 X106.27 Y130.621 E4.75557
G1 X106.101 Y130.475 E4.76114
G1 X105.786 Y130.191 E4.77172
G1 X105.706 Y130.116 E4.77446
G1 X105.464 Y129.881 E4.78287
G1 X105.2 Y129.617 E4.79219
G1 X104.726 Y129.111 E4.80948
G1 X104.333 Y128.662 E4.82437
G1 X103.897 Y128.129 E4.84154
G1 X103.695 Y127.865 E4.84984
G1 X103.293 Y127.303 E4.86707
G1 X102.981 Y126.834 E4.88112
G1 X102.606 Y126.225 E4.89896
G1 X102.4 Y125.864 E4.90933
G1 X102.077 Y125.252 E4.92659
G1 X101.887 Y124.861 E4.93744
G1 X101.621 Y124.268 E4.95365
G1 X101.452 Y123.857 E4.96474
G1 X101.188 Y123.141 E4.98377
G1 X101.001 Y122.571 E4.99874
G1 X100.814 Y121.934 E5.0153
G1 X100.729 Y121.606 E5.02375
G1 X100.618 Y121.132 E5.03589
G1 X100.559 Y120.851 E5.04306
G1 X100.448 Y120.23 E5.05879
G1 X100.426 Y120.081 E5.06255
G1 X100.381 Y119.733 E5.0713
G1 X100.328 Y119.266 E5.08303
G1 X100.274 Y118.603 E5.09962
G1 X100.253 Y118.177 E5.11026
G1 X100.241 Y117.499 E5.12717
G1 X100.25 Y116.923 E5.14154
G1 X100.287 Y116.196 E5.1597
G1 X100.317 Y115.845 E5.16849
G1 X100.392 Y115.202 E5.18464
G1 X100.478 Y114.622 E5.19927
G1 X100.647 Y113.742 E5.22162
G1 X100.731 Y113.388 E5.23069
G1 X100.871 Y112.862 E5.24427
G1 X100.973 Y112.514 E5.25332
G1 X101.18 Y111.883 E5.26988
G1 X101.377 Y111.341 E5.28427
G1 X101.633 Y110.701 E5.30146
G1 X101.78 Y110.367 E5.31057
G1 X102.091 Y109.722 E5.32843
G1 X102.346 Y109.236 E5.34212
G1 X102.692 Y108.627 E5.35959
G1 X102.876 Y108.327 E5.36837
G1 X103.271 Y107.731 E5.38621
G1 X103.607 Y107.259 E5.40066
G1 X104.014 Y106.724 E5.41743
G1 X104.206 Y106.488 E5.42502
G1 X104.675 Y105.95 E5.44282
G1 X105.086 Y105.51 E5.45784
G0 F6000 X105.306 Y105.714
G1 F900 X105.789 Y105.231 E5.47488
G1 X106.037 Y104.999 E5.48335
G1 X106.53 Y104.566 E5.49972
G1 X106.977 Y104.199 E5.51415
G1 X107.536 Y103.772 E5.53169
G1 X107.806 Y103.58 E5.53996
G1 X108.368 Y103.208 E5.55677
G1 X108.836 Y102.92 E5.57048
G1 X109.393 Y102.601 E5.58649
G1 X109.711 Y102.432 E5.59547
G1 X110.336 Y102.127 E5.61282
G1 X110.84 Y101.902 E5.62659
G1 X111.485 Y101.64 E5.64396
G1 X111.856 Y101.504 E5.65381
G1 X112.518 Y101.287 E5.67119
G1 X112.976 Y101.154 E5.68309
G1 X113.588 Y100.997 E5.69885
G1 X114.012 Y100.902 E5.70969
G1 X114.698 Y100.772 E5.7271
G1 X115.215 Y100.693 E5.74015
G1 X115.894 Y100.613 E5.75721
G1 X116.202 Y100.587 E5.76492
G1 X116.857 Y100.553 E5.78128
G1 X117.468 Y100.541 E5.79652
G1 X118.153 Y100.551 E5.81361
G1 X118.549 Y100.57 E5.8235
G1 X119.235 Y100.626 E5.84067
G1 X119.622 Y100.671 E5.85039
G1 X120.282 Y100.77 E5.86704
G1 X120.876 Y100.879 E5.8821
G1 X121.556 Y101.028 E5.89947
G1 X121.83 Y101.098 E5.90652
G1 X122.462 Y101.281 E5.92293
G1 X122.993 Y101.454 E5.93686
G1 X123.649 Y101.693 E5.95428
G1 X124.028 Y101.846 E5.96448
G1 X124.633 Y102.114 E5.98098
G1 X125.125 Y102.351 E5.99461
G1 X125.759 Y102.684 E6.01247
G1 X126.044 Y102.847 E6.02066
G1 X126.591 Y103.184 E6.03669
G1 X127.084 Y103.509 E6.05142
G1 X127.628 Y103.893 E6.06803
G1 X128.016 Y104.187 E6.08017
G1 X128.512 Y104.589 E6.0961
G1 X128.693 Y104.745 E6.10206
G1 X129.006 Y105.025 E6.11253
G1 X129.337 Y105.343 E6.12398
G1 X129.6 Y105.607 E6.13328
G1 X130.038 Y106.076 E6.14929
G1 X130.432 Y106.525 E6.16419
G1 X130.864 Y107.052 E6.18119
G1 X131.066 Y107.316 E6.18948
G1 X131.453 Y107.858 E6.20609
G1 X131.764 Y108.325 E6.22009
G1 X132.129 Y108.915 E6.23739
G1 X132.337 Y109.279 E6.24785
G1 X132.65 Y109.872 E6.26458
G1 X132.835 Y110.252 E6.27512
G1 X133.093 Y110.826 E6.29082
G1 X133.267 Y111.248 E6.30221
G1 X133.524 Y111.943 E6.32069
G1 X133.71 Y112.508 E6.33553
G1 X133.897 Y113.144 E6.35206
G1 X133.983 Y113.477 E6.36064
G1 X134.081 Y113.896 E6.37138
G1 X134.141 Y114.177 E6.37855
G1 X134.264 Y114.871 E6.39613
G1 X134.32 Y115.289 E6.40665
G1 X134.375 Y115.775 E6.41885
G1 X134.426 Y116.412 E6.43479
G1 X134.447 Y116.834 E6.44533
G1 X134.459 Y117.497 E6.46187
G1 X134.45 Y118.073 E6.47624
G1 X134.414 Y118.778 E6.49385
G1 X134.384 Y119.129 E6.50264
G1 X134.308 Y119.774 E6.51884
G1 X134.216 Y120.386 E6.53428
G1 X134.044 Y121.267 E6.55667
G1 X133.966 Y121.589 E6.56493
G1 X133.841 Y122.054 E6.57694
G1 X133.739 Y122.402 E6.58599
G1 X133.538 Y123.014 E6.60206
G1 X133.341 Y123.556 E6.61644
G1 X133.092 Y124.178 E6.63316
G1 X132.945 Y124.512 E6.64226
G1 X132.641 Y125.142 E6.65971
G1 X132.39 Y125.62 E6.67318
G1 X132.068 Y126.189 E6.68949
G1 X131.88 Y126.497 E6.69849
G1 X131.485 Y127.095 E6.71636
G1 X131.149 Y127.567 E6.73082
G1 X130.753 Y128.087 E6.74712
G1 X130.561 Y128.323 E6.75471
G1 X130.105 Y128.846 E6.77202
G1 X129.694 Y129.286 E6.78704
G1 X129.211 Y129.769 E6.80408
G1 X128.963 Y130.001 E6.81255
G1 X128.47 Y130.434 E6.82892
G1 X128.023 Y130.801 E6.84334
G1 X127.464 Y131.228 E6.86089
G1 X127.194 Y131.42 E6.86916
G1 X126.632 Y131.792 E6.88597
G1 X126.164 Y132.08 E6.89968
G1 X125.62 Y132.392 E6.91532
G1 X125.305 Y132.56 E6.92422
G1 X124.661 Y132.875 E6.94211
G1 X124.154 Y133.101 E6.95595
G1 X123.515 Y133.36 E6.97315
G1 X123.144 Y133.496 E6.98301
G1 X122.482 Y133.713 E7.00039
G1 X122.024 Y133.846 E7.01229
G1 X121.412 Y134.003 E7.02805
