(G-CODE GENERATED BY FLATCAM v8.994 - www.flatcam.org - Version Date: 2020/11/7)

(Name: 160x11TB_Ф1_верх.gbr_cutout_cnc)
(Type: G-code from Geometry)
(Units: MM)

(Created on Tuesday, 25 November 2025 at 14:14)

(This preprocessor is the default preprocessor used by FlatCAM.)
(It is made to work with MACH3 compatible motion controllers.)

(TOOL DIAMETER: 2.0 mm)
(Feedrate_XY: 120.0 mm/min)
(Feedrate_Z: 60.0 mm/min)
(Feedrate rapids 1500.0 mm/min)

(Z_Cut: -1.8000000000000003 mm)
(DepthPerCut: 0.1 mm <=>18 passes)
(Z_Move: 2.0 mm)
(Z Start: None mm)
(Z End: 30.0 mm)
(X,Y End: None mm)
(Steps per circle: 64)
(Preprocessor Geometry: default)

(X range:   -1.1156 ...   76.1647  mm)
(Y range:  -67.1556 ...    1.1950  mm)

(Spindle Speed: 10000.0 RPM)
G21
G90
G94

G01 F120.00

M5
G00 Z30.0000
G00 X0.0000 Y0.0000
T1
M6    
(MSG, Change to Tool Dia = 2.0000)
M0
G00 Z30.0000

M03 S10000.0
G01 F120.00
G00 X-1.1156 Y-5.9250
G01 F60.00
G01 Z-0.1000
G01 F120.00
G01 X-1.1156 Y0.0950
G01 X-1.1103 Y0.2028
G01 X-1.0945 Y0.3096
G01 X-1.0682 Y0.4143
G01 X-1.0319 Y0.5160
G01 X-0.9857 Y0.6135
G01 X-0.9302 Y0.7061
G01 X-0.8659 Y0.7928
G01 X-0.7934 Y0.8728
G01 X-0.7134 Y0.9453
G01 X-0.6267 Y1.0096
G01 X-0.5341 Y1.0651
G01 X-0.4366 Y1.1113
G01 X-0.3349 Y1.1476
G01 X-0.2302 Y1.1739
G01 X-0.1234 Y1.1897
G01 X-0.0156 Y1.1950
G01 X75.0647 Y1.1950
G01 X75.1725 Y1.1897
G01 X75.2793 Y1.1739
G01 X75.3840 Y1.1476
G01 X75.4857 Y1.1113
G01 X75.5832 Y1.0651
G01 X75.6758 Y1.0096
G01 X75.7625 Y0.9453
G01 X75.8425 Y0.8728
G01 X75.9150 Y0.7928
G01 X75.9793 Y0.7061
G01 X76.0348 Y0.6135
G01 X76.0810 Y0.5160
G01 X76.1173 Y0.4143
G01 X76.1436 Y0.3096
G01 X76.1594 Y0.2028
G01 X76.1647 Y0.0950
G01 X76.1647 Y-5.9250
G00 X76.1647 Y-5.9250
G01 F60.00
G01 Z-0.2000
G01 F120.00
G01 X76.1647 Y0.0950
G01 X76.1594 Y0.2028
G01 X76.1436 Y0.3096
G01 X76.1173 Y0.4143
G01 X76.0810 Y0.5160
G01 X76.0348 Y0.6135
G01 X75.9793 Y0.7061
G01 X75.9150 Y0.7928
G01 X75.8425 Y0.8728
G01 X75.7625 Y0.9453
G01 X75.6758 Y1.0096
G01 X75.5832 Y1.0651
G01 X75.4857 Y1.1113
G01 X75.3840 Y1.1476
G01 X75.2793 Y1.1739
G01 X75.1725 Y1.1897
G01 X75.0647 Y1.1950
G01 X-0.0156 Y1.1950
G01 X-0.1234 Y1.1897
G01 X-0.2302 Y1.1739
G01 X-0.3349 Y1.1476
G01 X-0.4366 Y1.1113
G01 X-0.5341 Y1.0651
G01 X-0.6267 Y1.0096
G01 X-0.7134 Y0.9453
G01 X-0.7934 Y0.8728
G01 X-0.8659 Y0.7928
G01 X-0.9302 Y0.7061
G01 X-0.9857 Y0.6135
G01 X-1.0319 Y0.5160
G01 X-1.0682 Y0.4143
G01 X-1.0945 Y0.3096
G01 X-1.1103 Y0.2028
G01 X-1.1156 Y0.0950
G01 X-1.1156 Y-5.9250
G00 X-1.1156 Y-5.9250
G01 F60.00
G01 Z-0.3000
G01 F120.00
G01 X-1.1156 Y0.0950
G01 X-1.1103 Y0.2028
G01 X-1.0945 Y0.3096
G01 X-1.0682 Y0.4143
G01 X-1.0319 Y0.5160
G01 X-0.9857 Y0.6135
G01 X-0.9302 Y0.7061
G01 X-0.8659 Y0.7928
G01 X-0.7934 Y0.8728
G01 X-0.7134 Y0.9453
G01 X-0.6267 Y1.0096
G01 X-0.5341 Y1.0651
G01 X-0.4366 Y1.1113
G01 X-0.3349 Y1.1476
G01 X-0.2302 Y1.1739
G01 X-0.1234 Y1.1897
G01 X-0.0156 Y1.1950
G01 X75.0647 Y1.1950
G01 X75.1725 Y1.1897
G01 X75.2793 Y1.1739
G01 X75.3840 Y1.1476
G01 X75.4857 Y1.1113
G01 X75.5832 Y1.0651
G01 X75.6758 Y1.0096
G01 X75.7625 Y0.9453
G01 X75.8425 Y0.8728
G01 X75.9150 Y0.7928
G01 X75.9793 Y0.7061
G01 X76.0348 Y0.6135
G01 X76.0810 Y0.5160
G01 X76.1173 Y0.4143
G01 X76.1436 Y0.3096
G01 X76.1594 Y0.2028
G01 X76.1647 Y0.0950
G01 X76.1647 Y-5.9250
G00 X76.1647 Y-5.9250
G01 F60.00
G01 Z-0.4000
G01 F120.00
G01 X76.1647 Y0.0950
G01 X76.1594 Y0.2028
G01 X76.1436 Y0.3096
G01 X76.1173 Y0.4143
G01 X76.0810 Y0.5160
G01 X76.0348 Y0.6135
G01 X75.9793 Y0.7061
G01 X75.9150 Y0.7928
G01 X75.8425 Y0.8728
G01 X75.7625 Y0.9453
G01 X75.6758 Y1.0096
G01 X75.5832 Y1.0651
G01 X75.4857 Y1.1113
G01 X75.3840 Y1.1476
G01 X75.2793 Y1.1739
G01 X75.1725 Y1.1897
G01 X75.0647 Y1.1950
G01 X-0.0156 Y1.1950
G01 X-0.1234 Y1.1897
G01 X-0.2302 Y1.1739
G01 X-0.3349 Y1.1476
G01 X-0.4366 Y1.1113
G01 X-0.5341 Y1.0651
G01 X-0.6267 Y1.0096
G01 X-0.7134 Y0.9453
G01 X-0.7934 Y0.8728
G01 X-0.8659 Y0.7928
G01 X-0.9302 Y0.7061
G01 X-0.9857 Y0.6135
G01 X-1.0319 Y0.5160
G01 X-1.0682 Y0.4143
G01 X-1.0945 Y0.3096
G01 X-1.1103 Y0.2028
G01 X-1.1156 Y0.0950
G01 X-1.1156 Y-5.9250
G00 X-1.1156 Y-5.9250
G01 F60.00
G01 Z-0.5000
G01 F120.00
G01 X-1.1156 Y0.0950
G01 X-1.1103 Y0.2028
G01 X-1.0945 Y0.3096
G01 X-1.0682 Y0.4143
G01 X-1.0319 Y0.5160
G01 X-0.9857 Y0.6135
G01 X-0.9302 Y0.7061
G01 X-0.8659 Y0.7928
G01 X-0.7934 Y0.8728
G01 X-0.7134 Y0.9453
G01 X-0.6267 Y1.0096
G01 X-0.5341 Y1.0651
G01 X-0.4366 Y1.1113
G01 X-0.3349 Y1.1476
G01 X-0.2302 Y1.1739
G01 X-0.1234 Y1.1897
G01 X-0.0156 Y1.1950
G01 X75.0647 Y1.1950
G01 X75.1725 Y1.1897
G01 X75.2793 Y1.1739
G01 X75.3840 Y1.1476
G01 X75.4857 Y1.1113
G01 X75.5832 Y1.0651
G01 X75.6758 Y1.0096
G01 X75.7625 Y0.9453
G01 X75.8425 Y0.8728
G01 X75.9150 Y0.7928
G01 X75.9793 Y0.7061
G01 X76.0348 Y0.6135
G01 X76.0810 Y0.5160
G01 X76.1173 Y0.4143
G01 X76.1436 Y0.3096
G01 X76.1594 Y0.2028
G01 X76.1647 Y0.0950
G01 X76.1647 Y-5.9250
G00 X76.1647 Y-5.9250
G01 F60.00
G01 Z-0.6000
G01 F120.00
G01 X76.1647 Y0.0950
G01 X76.1594 Y0.2028
G01 X76.1436 Y0.3096
G01 X76.1173 Y0.4143
G01 X76.0810 Y0.5160
G01 X76.0348 Y0.6135
G01 X75.9793 Y0.7061
G01 X75.9150 Y0.7928
G01 X75.8425 Y0.8728
G01 X75.7625 Y0.9453
G01 X75.6758 Y1.0096
G01 X75.5832 Y1.0651
G01 X75.4857 Y1.1113
G01 X75.3840 Y1.1476
G01 X75.2793 Y1.1739
G01 X75.1725 Y1.1897
G01 X75.0647 Y1.1950
G01 X-0.0156 Y1.1950
G01 X-0.1234 Y1.1897
G01 X-0.2302 Y1.1739
G01 X-0.3349 Y1.1476
G01 X-0.4366 Y1.1113
G01 X-0.5341 Y1.0651
G01 X-0.6267 Y1.0096
G01 X-0.7134 Y0.9453
G01 X-0.7934 Y0.8728
G01 X-0.8659 Y0.7928
G01 X-0.9302 Y0.7061
G01 X-0.9857 Y0.6135
G01 X-1.0319 Y0.5160
G01 X-1.0682 Y0.4143
G01 X-1.0945 Y0.3096
G01 X-1.1103 Y0.2028
G01 X-1.1156 Y0.0950
G01 X-1.1156 Y-5.9250
G00 X-1.1156 Y-5.9250
G01 F60.00
G01 Z-0.7000
G01 F120.00
G01 X-1.1156 Y0.0950
G01 X-1.1103 Y0.2028
G01 X-1.0945 Y0.3096
G01 X-1.0682 Y0.4143
G01 X-1.0319 Y0.5160
G01 X-0.9857 Y0.6135
G01 X-0.9302 Y0.7061
G01 X-0.8659 Y0.7928
G01 X-0.7934 Y0.8728
G01 X-0.7134 Y0.9453
G01 X-0.6267 Y1.0096
G01 X-0.5341 Y1.0651
G01 X-0.4366 Y1.1113
G01 X-0.3349 Y1.1476
G01 X-0.2302 Y1.1739
G01 X-0.1234 Y1.1897
G01 X-0.0156 Y1.1950
G01 X75.0647 Y1.1950
G01 X75.1725 Y1.1897
G01 X75.2793 Y1.1739
G01 X75.3840 Y1.1476
G01 X75.4857 Y1.1113
G01 X75.5832 Y1.0651
G01 X75.6758 Y1.0096
G01 X75.7625 Y0.9453
G01 X75.8425 Y0.8728
G01 X75.9150 Y0.7928
G01 X75.9793 Y0.7061
G01 X76.0348 Y0.6135
G01 X76.0810 Y0.5160
G01 X76.1173 Y0.4143
G01 X76.1436 Y0.3096
G01 X76.1594 Y0.2028
G01 X76.1647 Y0.0950
G01 X76.1647 Y-5.9250
G00 X76.1647 Y-5.9250
G01 F60.00
G01 Z-0.8000
G01 F120.00
G01 X76.1647 Y0.0950
G01 X76.1594 Y0.2028
G01 X76.1436 Y0.3096
G01 X76.1173 Y0.4143
G01 X76.0810 Y0.5160
G01 X76.0348 Y0.6135
G01 X75.9793 Y0.7061
G01 X75.9150 Y0.7928
G01 X75.8425 Y0.8728
G01 X75.7625 Y0.9453
G01 X75.6758 Y1.0096
G01 X75.5832 Y1.0651
G01 X75.4857 Y1.1113
G01 X75.3840 Y1.1476
G01 X75.2793 Y1.1739
G01 X75.1725 Y1.1897
G01 X75.0647 Y1.1950
G01 X-0.0156 Y1.1950
G01 X-0.1234 Y1.1897
G01 X-0.2302 Y1.1739
G01 X-0.3349 Y1.1476
G01 X-0.4366 Y1.1113
G01 X-0.5341 Y1.0651
G01 X-0.6267 Y1.0096
G01 X-0.7134 Y0.9453
G01 X-0.7934 Y0.8728
G01 X-0.8659 Y0.7928
G01 X-0.9302 Y0.7061
G01 X-0.9857 Y0.6135
G01 X-1.0319 Y0.5160
G01 X-1.0682 Y0.4143
G01 X-1.0945 Y0.3096
G01 X-1.1103 Y0.2028
G01 X-1.1156 Y0.0950
G01 X-1.1156 Y-5.9250
G00 X-1.1156 Y-5.9250
G01 F60.00
G01 Z-0.9000
G01 F120.00
G01 X-1.1156 Y0.0950
G01 X-1.1103 Y0.2028
G01 X-1.0945 Y0.3096
G01 X-1.0682 Y0.4143
G01 X-1.0319 Y0.5160
G01 X-0.9857 Y0.6135
G01 X-0.9302 Y0.7061
G01 X-0.8659 Y0.7928
G01 X-0.7934 Y0.8728
G01 X-0.7134 Y0.9453
G01 X-0.6267 Y1.0096
G01 X-0.5341 Y1.0651
G01 X-0.4366 Y1.1113
G01 X-0.3349 Y1.1476
G01 X-0.2302 Y1.1739
G01 X-0.1234 Y1.1897
G01 X-0.0156 Y1.1950
G01 X75.0647 Y1.1950
G01 X75.1725 Y1.1897
G01 X75.2793 Y1.1739
G01 X75.3840 Y1.1476
G01 X75.4857 Y1.1113
G01 X75.5832 Y1.0651
G01 X75.6758 Y1.0096
G01 X75.7625 Y0.9453
G01 X75.8425 Y0.8728
G01 X75.9150 Y0.7928
G01 X75.9793 Y0.7061
G01 X76.0348 Y0.6135
G01 X76.0810 Y0.5160
G01 X76.1173 Y0.4143
G01 X76.1436 Y0.3096
G01 X76.1594 Y0.2028
G01 X76.1647 Y0.0950
G01 X76.1647 Y-5.9250
G00 X76.1647 Y-5.9250
G01 F60.00
G01 Z-1.0000
G01 F120.00
G01 X76.1647 Y0.0950
G01 X76.1594 Y0.2028
G01 X76.1436 Y0.3096
G01 X76.1173 Y0.4143
G01 X76.0810 Y0.5160
G01 X76.0348 Y0.6135
G01 X75.9793 Y0.7061
G01 X75.9150 Y0.7928
G01 X75.8425 Y0.8728
G01 X75.7625 Y0.9453
G01 X75.6758 Y1.0096
G01 X75.5832 Y1.0651
G01 X75.4857 Y1.1113
G01 X75.3840 Y1.1476
G01 X75.2793 Y1.1739
G01 X75.1725 Y1.1897
G01 X75.0647 Y1.1950
G01 X-0.0156 Y1.1950
G01 X-0.1234 Y1.1897
G01 X-0.2302 Y1.1739
G01 X-0.3349 Y1.1476
G01 X-0.4366 Y1.1113
G01 X-0.5341 Y1.0651
G01 X-0.6267 Y1.0096
G01 X-0.7134 Y0.9453
G01 X-0.7934 Y0.8728
G01 X-0.8659 Y0.7928
G01 X-0.9302 Y0.7061
G01 X-0.9857 Y0.6135
G01 X-1.0319 Y0.5160
G01 X-1.0682 Y0.4143
G01 X-1.0945 Y0.3096
G01 X-1.1103 Y0.2028
G01 X-1.1156 Y0.0950
G01 X-1.1156 Y-5.9250
G00 X-1.1156 Y-5.9250
G01 F60.00
G01 Z-1.1000
G01 F120.00
G01 X-1.1156 Y0.0950
G01 X-1.1103 Y0.2028
G01 X-1.0945 Y0.3096
G01 X-1.0682 Y0.4143
G01 X-1.0319 Y0.5160
G01 X-0.9857 Y0.6135
G01 X-0.9302 Y0.7061
G01 X-0.8659 Y0.7928
G01 X-0.7934 Y0.8728
G01 X-0.7134 Y0.9453
G01 X-0.6267 Y1.0096
G01 X-0.5341 Y1.0651
G01 X-0.4366 Y1.1113
G01 X-0.3349 Y1.1476
G01 X-0.2302 Y1.1739
G01 X-0.1234 Y1.1897
G01 X-0.0156 Y1.1950
G01 X75.0647 Y1.1950
G01 X75.1725 Y1.1897
G01 X75.2793 Y1.1739
G01 X75.3840 Y1.1476
G01 X75.4857 Y1.1113
G01 X75.5832 Y1.0651
G01 X75.6758 Y1.0096
G01 X75.7625 Y0.9453
G01 X75.8425 Y0.8728
G01 X75.9150 Y0.7928
G01 X75.9793 Y0.7061
G01 X76.0348 Y0.6135
G01 X76.0810 Y0.5160
G01 X76.1173 Y0.4143
G01 X76.1436 Y0.3096
G01 X76.1594 Y0.2028
G01 X76.1647 Y0.0950
G01 X76.1647 Y-5.9250
G00 X76.1647 Y-5.9250
G01 F60.00
G01 Z-1.2000
G01 F120.00
G01 X76.1647 Y0.0950
G01 X76.1594 Y0.2028
G01 X76.1436 Y0.3096
G01 X76.1173 Y0.4143
G01 X76.0810 Y0.5160
G01 X76.0348 Y0.6135
G01 X75.9793 Y0.7061
G01 X75.9150 Y0.7928
G01 X75.8425 Y0.8728
G01 X75.7625 Y0.9453
G01 X75.6758 Y1.0096
G01 X75.5832 Y1.0651
G01 X75.4857 Y1.1113
G01 X75.3840 Y1.1476
G01 X75.2793 Y1.1739
G01 X75.1725 Y1.1897
G01 X75.0647 Y1.1950
G01 X-0.0156 Y1.1950
G01 X-0.1234 Y1.1897
G01 X-0.2302 Y1.1739
G01 X-0.3349 Y1.1476
G01 X-0.4366 Y1.1113
G01 X-0.5341 Y1.0651
G01 X-0.6267 Y1.0096
G01 X-0.7134 Y0.9453
G01 X-0.7934 Y0.8728
G01 X-0.8659 Y0.7928
G01 X-0.9302 Y0.7061
G01 X-0.9857 Y0.6135
G01 X-1.0319 Y0.5160
G01 X-1.0682 Y0.4143
G01 X-1.0945 Y0.3096
G01 X-1.1103 Y0.2028
G01 X-1.1156 Y0.0950
G01 X-1.1156 Y-5.9250
G00 X-1.1156 Y-5.9250
G01 F60.00
G01 Z-1.3000
G01 F120.00
G01 X-1.1156 Y0.0950
G01 X-1.1103 Y0.2028
G01 X-1.0945 Y0.3096
G01 X-1.0682 Y0.4143
G01 X-1.0319 Y0.5160
G01 X-0.9857 Y0.6135
G01 X-0.9302 Y0.7061
G01 X-0.8659 Y0.7928
G01 X-0.7934 Y0.8728
G01 X-0.7134 Y0.9453
G01 X-0.6267 Y1.0096
G01 X-0.5341 Y1.0651
G01 X-0.4366 Y1.1113
G01 X-0.3349 Y1.1476
G01 X-0.2302 Y1.1739
G01 X-0.1234 Y1.1897
G01 X-0.0156 Y1.1950
G01 X75.0647 Y1.1950
G01 X75.1725 Y1.1897
G01 X75.2793 Y1.1739
G01 X75.3840 Y1.1476
G01 X75.4857 Y1.1113
G01 X75.5832 Y1.0651
G01 X75.6758 Y1.0096
G01 X75.7625 Y0.9453
G01 X75.8425 Y0.8728
G01 X75.9150 Y0.7928
G01 X75.9793 Y0.7061
G01 X76.0348 Y0.6135
G01 X76.0810 Y0.5160
G01 X76.1173 Y0.4143
G01 X76.1436 Y0.3096
G01 X76.1594 Y0.2028
G01 X76.1647 Y0.0950
G01 X76.1647 Y-5.9250
G00 X76.1647 Y-5.9250
G01 F60.00
G01 Z-1.4000
G01 F120.00
G01 X76.1647 Y0.0950
G01 X76.1594 Y0.2028
G01 X76.1436 Y0.3096
G01 X76.1173 Y0.4143
G01 X76.0810 Y0.5160
G01 X76.0348 Y0.6135
G01 X75.9793 Y0.7061
G01 X75.9150 Y0.7928
G01 X75.8425 Y0.8728
G01 X75.7625 Y0.9453
G01 X75.6758 Y1.0096
G01 X75.5832 Y1.0651
G01 X75.4857 Y1.1113
G01 X75.3840 Y1.1476
G01 X75.2793 Y1.1739
G01 X75.1725 Y1.1897
G01 X75.0647 Y1.1950
G01 X-0.0156 Y1.1950
G01 X-0.1234 Y1.1897
G01 X-0.2302 Y1.1739
G01 X-0.3349 Y1.1476
G01 X-0.4366 Y1.1113
G01 X-0.5341 Y1.0651
G01 X-0.6267 Y1.0096
G01 X-0.7134 Y0.9453
G01 X-0.7934 Y0.8728
G01 X-0.8659 Y0.7928
G01 X-0.9302 Y0.7061
G01 X-0.9857 Y0.6135
G01 X-1.0319 Y0.5160
G01 X-1.0682 Y0.4143
G01 X-1.0945 Y0.3096
G01 X-1.1103 Y0.2028
G01 X-1.1156 Y0.0950
G01 X-1.1156 Y-5.9250
G00 X-1.1156 Y-5.9250
G01 F60.00
G01 Z-1.5000
G01 F120.00
G01 X-1.1156 Y0.0950
G01 X-1.1103 Y0.2028
G01 X-1.0945 Y0.3096
G01 X-1.0682 Y0.4143
G01 X-1.0319 Y0.5160
G01 X-0.9857 Y0.6135
G01 X-0.9302 Y0.7061
G01 X-0.8659 Y0.7928
G01 X-0.7934 Y0.8728
G01 X-0.7134 Y0.9453
G01 X-0.6267 Y1.0096
G01 X-0.5341 Y1.0651
G01 X-0.4366 Y1.1113
G01 X-0.3349 Y1.1476
G01 X-0.2302 Y1.1739
G01 X-0.1234 Y1.1897
G01 X-0.0156 Y1.1950
G01 X75.0647 Y1.1950
G01 X75.1725 Y1.1897
G01 X75.2793 Y1.1739
G01 X75.3840 Y1.1476
G01 X75.4857 Y1.1113
G01 X75.5832 Y1.0651
G01 X75.6758 Y1.0096
G01 X75.7625 Y0.9453
G01 X75.8425 Y0.8728
G01 X75.9150 Y0.7928
G01 X75.9793 Y0.7061
G01 X76.0348 Y0.6135
G01 X76.0810 Y0.5160
G01 X76.1173 Y0.4143
G01 X76.1436 Y0.3096
G01 X76.1594 Y0.2028
G01 X76.1647 Y0.0950
G01 X76.1647 Y-5.9250
G00 X76.1647 Y-5.9250
G01 F60.00
G01 Z-1.6000
G01 F120.00
G01 X76.1647 Y0.0950
G01 X76.1594 Y0.2028
G01 X76.1436 Y0.3096
G01 X76.1173 Y0.4143
G01 X76.0810 Y0.5160
G01 X76.0348 Y0.6135
G01 X75.9793 Y0.7061
G01 X75.9150 Y0.7928
G01 X75.8425 Y0.8728
G01 X75.7625 Y0.9453
G01 X75.6758 Y1.0096
G01 X75.5832 Y1.0651
G01 X75.4857 Y1.1113
G01 X75.3840 Y1.1476
G01 X75.2793 Y1.1739
G01 X75.1725 Y1.1897
G01 X75.0647 Y1.1950
G01 X-0.0156 Y1.1950
G01 X-0.1234 Y1.1897
G01 X-0.2302 Y1.1739
G01 X-0.3349 Y1.1476
G01 X-0.4366 Y1.1113
G01 X-0.5341 Y1.0651
G01 X-0.6267 Y1.0096
G01 X-0.7134 Y0.9453
G01 X-0.7934 Y0.8728
G01 X-0.8659 Y0.7928
G01 X-0.9302 Y0.7061
G01 X-0.9857 Y0.6135
G01 X-1.0319 Y0.5160
G01 X-1.0682 Y0.4143
G01 X-1.0945 Y0.3096
G01 X-1.1103 Y0.2028
G01 X-1.1156 Y0.0950
G01 X-1.1156 Y-5.9250
G00 X-1.1156 Y-5.9250
G01 F60.00
G01 Z-1.7000
G01 F120.00
G01 X-1.1156 Y0.0950
G01 X-1.1103 Y0.2028
G01 X-1.0945 Y0.3096
G01 X-1.0682 Y0.4143
G01 X-1.0319 Y0.5160
G01 X-0.9857 Y0.6135
G01 X-0.9302 Y0.7061
G01 X-0.8659 Y0.7928
G01 X-0.7934 Y0.8728
G01 X-0.7134 Y0.9453
G01 X-0.6267 Y1.0096
G01 X-0.5341 Y1.0651
G01 X-0.4366 Y1.1113
G01 X-0.3349 Y1.1476
G01 X-0.2302 Y1.1739
G01 X-0.1234 Y1.1897
G01 X-0.0156 Y1.1950
G01 X75.0647 Y1.1950
G01 X75.1725 Y1.1897
G01 X75.2793 Y1.1739
G01 X75.3840 Y1.1476
G01 X75.4857 Y1.1113
G01 X75.5832 Y1.0651
G01 X75.6758 Y1.0096
G01 X75.7625 Y0.9453
G01 X75.8425 Y0.8728
G01 X75.9150 Y0.7928
G01 X75.9793 Y0.7061
G01 X76.0348 Y0.6135
G01 X76.0810 Y0.5160
G01 X76.1173 Y0.4143
G01 X76.1436 Y0.3096
G01 X76.1594 Y0.2028
G01 X76.1647 Y0.0950
G01 X76.1647 Y-5.9250
G00 X76.1647 Y-5.9250
G01 F60.00
G01 Z-1.8000
G01 F120.00
G01 X76.1647 Y0.0950
G01 X76.1594 Y0.2028
G01 X76.1436 Y0.3096
G01 X76.1173 Y0.4143
G01 X76.0810 Y0.5160
G01 X76.0348 Y0.6135
G01 X75.9793 Y0.7061
G01 X75.9150 Y0.7928
G01 X75.8425 Y0.8728
G01 X75.7625 Y0.9453
G01 X75.6758 Y1.0096
G01 X75.5832 Y1.0651
G01 X75.4857 Y1.1113
G01 X75.3840 Y1.1476
G01 X75.2793 Y1.1739
G01 X75.1725 Y1.1897
G01 X75.0647 Y1.1950
G01 X-0.0156 Y1.1950
G01 X-0.1234 Y1.1897
G01 X-0.2302 Y1.1739
G01 X-0.3349 Y1.1476
G01 X-0.4366 Y1.1113
G01 X-0.5341 Y1.0651
G01 X-0.6267 Y1.0096
G01 X-0.7134 Y0.9453
G01 X-0.7934 Y0.8728
G01 X-0.8659 Y0.7928
G01 X-0.9302 Y0.7061
G01 X-0.9857 Y0.6135
G01 X-1.0319 Y0.5160
G01 X-1.0682 Y0.4143
G01 X-1.0945 Y0.3096
G01 X-1.1103 Y0.2028
G01 X-1.1156 Y0.0950
G01 X-1.1156 Y-5.9250
G00 Z2.0000
G00 X76.1647 Y-8.0750
G01 F60.00
G01 Z-0.1000
G01 F120.00
G01 X76.1647 Y-55.9250
G00 X76.1647 Y-55.9250
G01 F60.00
G01 Z-0.2000
G01 F120.00
G01 X76.1647 Y-8.0750
G00 X76.1647 Y-8.0750
G01 F60.00
G01 Z-0.3000
G01 F120.00
G01 X76.1647 Y-55.9250
G00 X76.1647 Y-55.9250
G01 F60.00
G01 Z-0.4000
G01 F120.00
G01 X76.1647 Y-8.0750
G00 X76.1647 Y-8.0750
G01 F60.00
G01 Z-0.5000
G01 F120.00
G01 X76.1647 Y-55.9250
G00 X76.1647 Y-55.9250
G01 F60.00
G01 Z-0.6000
G01 F120.00
G01 X76.1647 Y-8.0750
G00 X76.1647 Y-8.0750
G01 F60.00
G01 Z-0.7000
G01 F120.00
G01 X76.1647 Y-55.9250
G00 X76.1647 Y-55.9250
G01 F60.00
G01 Z-0.8000
G01 F120.00
G01 X76.1647 Y-8.0750
G00 X76.1647 Y-8.0750
G01 F60.00
G01 Z-0.9000
G01 F120.00
G01 X76.1647 Y-55.9250
G00 X76.1647 Y-55.9250
G01 F60.00
G01 Z-1.0000
G01 F120.00
G01 X76.1647 Y-8.0750
G00 X76.1647 Y-8.0750
G01 F60.00
G01 Z-1.1000
G01 F120.00
G01 X76.1647 Y-55.9250
G00 X76.1647 Y-55.9250
G01 F60.00
G01 Z-1.2000
G01 F120.00
G01 X76.1647 Y-8.0750
G00 X76.1647 Y-8.0750
G01 F60.00
G01 Z-1.3000
G01 F120.00
G01 X76.1647 Y-55.9250
G00 X76.1647 Y-55.9250
G01 F60.00
G01 Z-1.4000
G01 F120.00
G01 X76.1647 Y-8.0750
G00 X76.1647 Y-8.0750
G01 F60.00
G01 Z-1.5000
G01 F120.00
G01 X76.1647 Y-55.9250
G00 X76.1647 Y-55.9250
G01 F60.00
G01 Z-1.6000
G01 F120.00
G01 X76.1647 Y-8.0750
G00 X76.1647 Y-8.0750
G01 F60.00
G01 Z-1.7000
G01 F120.00
G01 X76.1647 Y-55.9250
G00 X76.1647 Y-55.9250
G01 F60.00
G01 Z-1.8000
G01 F120.00
G01 X76.1647 Y-8.0750
G00 Z2.0000
G00 X76.1647 Y-58.0750
G01 F60.00
G01 Z-0.1000
G01 F120.00
G01 X76.1647 Y-66.0556
G01 X76.1594 Y-66.1634
G01 X76.1436 Y-66.2702
G01 X76.1173 Y-66.3749
G01 X76.0810 Y-66.4766
G01 X76.0348 Y-66.5741
G01 X75.9793 Y-66.6667
G01 X75.9150 Y-66.7534
G01 X75.8425 Y-66.8334
G01 X75.7625 Y-66.9059
G01 X75.6758 Y-66.9702
G01 X75.5832 Y-67.0257
G01 X75.4857 Y-67.0719
G01 X75.3840 Y-67.1082
G01 X75.2793 Y-67.1345
G01 X75.1725 Y-67.1503
G01 X75.0647 Y-67.1556
G01 X-0.0156 Y-67.1556
G01 X-0.1234 Y-67.1503
G01 X-0.2302 Y-67.1345
G01 X-0.3349 Y-67.1082
G01 X-0.4366 Y-67.0719
G01 X-0.5341 Y-67.0257
G01 X-0.6267 Y-66.9702
G01 X-0.7134 Y-66.9059
G01 X-0.7934 Y-66.8334
G01 X-0.8659 Y-66.7534
G01 X-0.9302 Y-66.6667
G01 X-0.9857 Y-66.5741
G01 X-1.0319 Y-66.4766
G01 X-1.0682 Y-66.3749
G01 X-1.0945 Y-66.2702
G01 X-1.1103 Y-66.1634
G01 X-1.1156 Y-66.0556
G01 X-1.1156 Y-58.0750
G00 X-1.1156 Y-58.0750
G01 F60.00
G01 Z-0.2000
G01 F120.00
G01 X-1.1156 Y-66.0556
G01 X-1.1103 Y-66.1634
G01 X-1.0945 Y-66.2702
G01 X-1.0682 Y-66.3749
G01 X-1.0319 Y-66.4766
G01 X-0.9857 Y-66.5741
G01 X-0.9302 Y-66.6667
G01 X-0.8659 Y-66.7534
G01 X-0.7934 Y-66.8334
G01 X-0.7134 Y-66.9059
G01 X-0.6267 Y-66.9702
G01 X-0.5341 Y-67.0257
G01 X-0.4366 Y-67.0719
G01 X-0.3349 Y-67.1082
G01 X-0.2302 Y-67.1345
G01 X-0.1234 Y-67.1503
G01 X-0.0156 Y-67.1556
G01 X75.0647 Y-67.1556
G01 X75.1725 Y-67.1503
G01 X75.2793 Y-67.1345
G01 X75.3840 Y-67.1082
G01 X75.4857 Y-67.0719
G01 X75.5832 Y-67.0257
G01 X75.6758 Y-66.9702
G01 X75.7625 Y-66.9059
G01 X75.8425 Y-66.8334
G01 X75.9150 Y-66.7534
G01 X75.9793 Y-66.6667
G01 X76.0348 Y-66.5741
G01 X76.0810 Y-66.4766
G01 X76.1173 Y-66.3749
G01 X76.1436 Y-66.2702
G01 X76.1594 Y-66.1634
G01 X76.1647 Y-66.0556
G01 X76.1647 Y-58.0750
G00 X76.1647 Y-58.0750
G01 F60.00
G01 Z-0.3000
G01 F120.00
G01 X76.1647 Y-66.0556
G01 X76.1594 Y-66.1634
G01 X76.1436 Y-66.2702
G01 X76.1173 Y-66.3749
G01 X76.0810 Y-66.4766
G01 X76.0348 Y-66.5741
G01 X75.9793 Y-66.6667
G01 X75.9150 Y-66.7534
G01 X75.8425 Y-66.8334
G01 X75.7625 Y-66.9059
G01 X75.6758 Y-66.9702
G01 X75.5832 Y-67.0257
G01 X75.4857 Y-67.0719
G01 X75.3840 Y-67.1082
G01 X75.2793 Y-67.1345
G01 X75.1725 Y-67.1503
G01 X75.0647 Y-67.1556
G01 X-0.0156 Y-67.1556
G01 X-0.1234 Y-67.1503
G01 X-0.2302 Y-67.1345
G01 X-0.3349 Y-67.1082
G01 X-0.4366 Y-67.0719
G01 X-0.5341 Y-67.0257
G01 X-0.6267 Y-66.9702
G01 X-0.7134 Y-66.9059
G01 X-0.7934 Y-66.8334
G01 X-0.8659 Y-66.7534
G01 X-0.9302 Y-66.6667
G01 X-0.9857 Y-66.5741
G01 X-1.0319 Y-66.4766
G01 X-1.0682 Y-66.3749
G01 X-1.0945 Y-66.2702
G01 X-1.1103 Y-66.1634
G01 X-1.1156 Y-66.0556
G01 X-1.1156 Y-58.0750
G00 X-1.1156 Y-58.0750
G01 F60.00
G01 Z-0.4000
G01 F120.00
G01 X-1.1156 Y-66.0556
G01 X-1.1103 Y-66.1634
G01 X-1.0945 Y-66.2702
G01 X-1.0682 Y-66.3749
G01 X-1.0319 Y-66.4766
G01 X-0.9857 Y-66.5741
G01 X-0.9302 Y-66.6667
G01 X-0.8659 Y-66.7534
G01 X-0.7934 Y-66.8334
G01 X-0.7134 Y-66.9059
G01 X-0.6267 Y-66.9702
G01 X-0.5341 Y-67.0257
G01 X-0.4366 Y-67.0719
G01 X-0.3349 Y-67.1082
G01 X-0.2302 Y-67.1345
G01 X-0.1234 Y-67.1503
G01 X-0.0156 Y-67.1556
G01 X75.0647 Y-67.1556
G01 X75.1725 Y-67.1503
G01 X75.2793 Y-67.1345
G01 X75.3840 Y-67.1082
G01 X75.4857 Y-67.0719
G01 X75.5832 Y-67.0257
G01 X75.6758 Y-66.9702
G01 X75.7625 Y-66.9059
G01 X75.8425 Y-66.8334
G01 X75.9150 Y-66.7534
G01 X75.9793 Y-66.6667
G01 X76.0348 Y-66.5741
G01 X76.0810 Y-66.4766
G01 X76.1173 Y-66.3749
G01 X76.1436 Y-66.2702
G01 X76.1594 Y-66.1634
G01 X76.1647 Y-66.0556
G01 X76.1647 Y-58.0750
G00 X76.1647 Y-58.0750
G01 F60.00
G01 Z-0.5000
G01 F120.00
G01 X76.1647 Y-66.0556
G01 X76.1594 Y-66.1634
G01 X76.1436 Y-66.2702
G01 X76.1173 Y-66.3749
G01 X76.0810 Y-66.4766
G01 X76.0348 Y-66.5741
G01 X75.9793 Y-66.6667
G01 X75.9150 Y-66.7534
G01 X75.8425 Y-66.8334
G01 X75.7625 Y-66.9059
G01 X75.6758 Y-66.9702
G01 X75.5832 Y-67.0257
G01 X75.4857 Y-67.0719
G01 X75.3840 Y-67.1082
G01 X75.2793 Y-67.1345
G01 X75.1725 Y-67.1503
G01 X75.0647 Y-67.1556
G01 X-0.0156 Y-67.1556
G01 X-0.1234 Y-67.1503
G01 X-0.2302 Y-67.1345
G01 X-0.3349 Y-67.1082
G01 X-0.4366 Y-67.0719
G01 X-0.5341 Y-67.0257
G01 X-0.6267 Y-66.9702
G01 X-0.7134 Y-66.9059
G01 X-0.7934 Y-66.8334
G01 X-0.8659 Y-66.7534
G01 X-0.9302 Y-66.6667
G01 X-0.9857 Y-66.5741
G01 X-1.0319 Y-66.4766
G01 X-1.0682 Y-66.3749
G01 X-1.0945 Y-66.2702
G01 X-1.1103 Y-66.1634
G01 X-1.1156 Y-66.0556
G01 X-1.1156 Y-58.0750
G00 X-1.1156 Y-58.0750
G01 F60.00
G01 Z-0.6000
G01 F120.00
G01 X-1.1156 Y-66.0556
G01 X-1.1103 Y-66.1634
G01 X-1.0945 Y-66.2702
G01 X-1.0682 Y-66.3749
G01 X-1.0319 Y-66.4766
G01 X-0.9857 Y-66.5741
G01 X-0.9302 Y-66.6667
G01 X-0.8659 Y-66.7534
G01 X-0.7934 Y-66.8334
G01 X-0.7134 Y-66.9059
G01 X-0.6267 Y-66.9702
G01 X-0.5341 Y-67.0257
G01 X-0.4366 Y-67.0719
G01 X-0.3349 Y-67.1082
G01 X-0.2302 Y-67.1345
G01 X-0.1234 Y-67.1503
G01 X-0.0156 Y-67.1556
G01 X75.0647 Y-67.1556
G01 X75.1725 Y-67.1503
G01 X75.2793 Y-67.1345
G01 X75.3840 Y-67.1082
G01 X75.4857 Y-67.0719
G01 X75.5832 Y-67.0257
G01 X75.6758 Y-66.9702
G01 X75.7625 Y-66.9059
G01 X75.8425 Y-66.8334
G01 X75.9150 Y-66.7534
G01 X75.9793 Y-66.6667
G01 X76.0348 Y-66.5741
G01 X76.0810 Y-66.4766
G01 X76.1173 Y-66.3749
G01 X76.1436 Y-66.2702
G01 X76.1594 Y-66.1634
G01 X76.1647 Y-66.0556
G01 X76.1647 Y-58.0750
G00 X76.1647 Y-58.0750
G01 F60.00
G01 Z-0.7000
G01 F120.00
G01 X76.1647 Y-66.0556
G01 X76.1594 Y-66.1634
G01 X76.1436 Y-66.2702
G01 X76.1173 Y-66.3749
G01 X76.0810 Y-66.4766
G01 X76.0348 Y-66.5741
G01 X75.9793 Y-66.6667
G01 X75.9150 Y-66.7534
G01 X75.8425 Y-66.8334
G01 X75.7625 Y-66.9059
G01 X75.6758 Y-66.9702
G01 X75.5832 Y-67.0257
G01 X75.4857 Y-67.0719
G01 X75.3840 Y-67.1082
G01 X75.2793 Y-67.1345
G01 X75.1725 Y-67.1503
G01 X75.0647 Y-67.1556
G01 X-0.0156 Y-67.1556
G01 X-0.1234 Y-67.1503
G01 X-0.2302 Y-67.1345
G01 X-0.3349 Y-67.1082
G01 X-0.4366 Y-67.0719
G01 X-0.5341 Y-67.0257
G01 X-0.6267 Y-66.9702
G01 X-0.7134 Y-66.9059
G01 X-0.7934 Y-66.8334
G01 X-0.8659 Y-66.7534
G01 X-0.9302 Y-66.6667
G01 X-0.9857 Y-66.5741
G01 X-1.0319 Y-66.4766
G01 X-1.0682 Y-66.3749
G01 X-1.0945 Y-66.2702
G01 X-1.1103 Y-66.1634
G01 X-1.1156 Y-66.0556
G01 X-1.1156 Y-58.0750
G00 X-1.1156 Y-58.0750
G01 F60.00
G01 Z-0.8000
G01 F120.00
G01 X-1.1156 Y-66.0556
G01 X-1.1103 Y-66.1634
G01 X-1.0945 Y-66.2702
G01 X-1.0682 Y-66.3749
G01 X-1.0319 Y-66.4766
G01 X-0.9857 Y-66.5741
G01 X-0.9302 Y-66.6667
G01 X-0.8659 Y-66.7534
G01 X-0.7934 Y-66.8334
G01 X-0.7134 Y-66.9059
G01 X-0.6267 Y-66.9702
G01 X-0.5341 Y-67.0257
G01 X-0.4366 Y-67.0719
G01 X-0.3349 Y-67.1082
G01 X-0.2302 Y-67.1345
G01 X-0.1234 Y-67.1503
G01 X-0.0156 Y-67.1556
G01 X75.0647 Y-67.1556
G01 X75.1725 Y-67.1503
G01 X75.2793 Y-67.1345
G01 X75.3840 Y-67.1082
G01 X75.4857 Y-67.0719
G01 X75.5832 Y-67.0257
G01 X75.6758 Y-66.9702
G01 X75.7625 Y-66.9059
G01 X75.8425 Y-66.8334
G01 X75.9150 Y-66.7534
G01 X75.9793 Y-66.6667
G01 X76.0348 Y-66.5741
G01 X76.0810 Y-66.4766
G01 X76.1173 Y-66.3749
G01 X76.1436 Y-66.2702
G01 X76.1594 Y-66.1634
G01 X76.1647 Y-66.0556
G01 X76.1647 Y-58.0750
G00 X76.1647 Y-58.0750
G01 F60.00
G01 Z-0.9000
G01 F120.00
G01 X76.1647 Y-66.0556
G01 X76.1594 Y-66.1634
G01 X76.1436 Y-66.2702
G01 X76.1173 Y-66.3749
G01 X76.0810 Y-66.4766
G01 X76.0348 Y-66.5741
G01 X75.9793 Y-66.6667
G01 X75.9150 Y-66.7534
G01 X75.8425 Y-66.8334
G01 X75.7625 Y-66.9059
G01 X75.6758 Y-66.9702
G01 X75.5832 Y-67.0257
G01 X75.4857 Y-67.0719
G01 X75.3840 Y-67.1082
G01 X75.2793 Y-67.1345
G01 X75.1725 Y-67.1503
G01 X75.0647 Y-67.1556
G01 X-0.0156 Y-67.1556
G01 X-0.1234 Y-67.1503
G01 X-0.2302 Y-67.1345
G01 X-0.3349 Y-67.1082
G01 X-0.4366 Y-67.0719
G01 X-0.5341 Y-67.0257
G01 X-0.6267 Y-66.9702
G01 X-0.7134 Y-66.9059
G01 X-0.7934 Y-66.8334
G01 X-0.8659 Y-66.7534
G01 X-0.9302 Y-66.6667
G01 X-0.9857 Y-66.5741
G01 X-1.0319 Y-66.4766
G01 X-1.0682 Y-66.3749
G01 X-1.0945 Y-66.2702
G01 X-1.1103 Y-66.1634
G01 X-1.1156 Y-66.0556
G01 X-1.1156 Y-58.0750
G00 X-1.1156 Y-58.0750
G01 F60.00
G01 Z-1.0000
G01 F120.00
G01 X-1.1156 Y-66.0556
G01 X-1.1103 Y-66.1634
G01 X-1.0945 Y-66.2702
G01 X-1.0682 Y-66.3749
G01 X-1.0319 Y-66.4766
G01 X-0.9857 Y-66.5741
G01 X-0.9302 Y-66.6667
G01 X-0.8659 Y-66.7534
G01 X-0.7934 Y-66.8334
G01 X-0.7134 Y-66.9059
G01 X-0.6267 Y-66.9702
G01 X-0.5341 Y-67.0257
G01 X-0.4366 Y-67.0719
G01 X-0.3349 Y-67.1082
G01 X-0.2302 Y-67.1345
G01 X-0.1234 Y-67.1503
G01 X-0.0156 Y-67.1556
G01 X75.0647 Y-67.1556
G01 X75.1725 Y-67.1503
G01 X75.2793 Y-67.1345
G01 X75.3840 Y-67.1082
G01 X75.4857 Y-67.0719
G01 X75.5832 Y-67.0257
G01 X75.6758 Y-66.9702
G01 X75.7625 Y-66.9059
G01 X75.8425 Y-66.8334
G01 X75.9150 Y-66.7534
G01 X75.9793 Y-66.6667
G01 X76.0348 Y-66.5741
G01 X76.0810 Y-66.4766
G01 X76.1173 Y-66.3749
G01 X76.1436 Y-66.2702
G01 X76.1594 Y-66.1634
G01 X76.1647 Y-66.0556
G01 X76.1647 Y-58.0750
G00 X76.1647 Y-58.0750
G01 F60.00
G01 Z-1.1000
G01 F120.00
G01 X76.1647 Y-66.0556
G01 X76.1594 Y-66.1634
G01 X76.1436 Y-66.2702
G01 X76.1173 Y-66.3749
G01 X76.0810 Y-66.4766
G01 X76.0348 Y-66.5741
G01 X75.9793 Y-66.6667
G01 X75.9150 Y-66.7534
G01 X75.8425 Y-66.8334
G01 X75.7625 Y-66.9059
G01 X75.6758 Y-66.9702
G01 X75.5832 Y-67.0257
G01 X75.4857 Y-67.0719
G01 X75.3840 Y-67.1082
G01 X75.2793 Y-67.1345
G01 X75.1725 Y-67.1503
G01 X75.0647 Y-67.1556
G01 X-0.0156 Y-67.1556
G01 X-0.1234 Y-67.1503
G01 X-0.2302 Y-67.1345
G01 X-0.3349 Y-67.1082
G01 X-0.4366 Y-67.0719
G01 X-0.5341 Y-67.0257
G01 X-0.6267 Y-66.9702
G01 X-0.7134 Y-66.9059
G01 X-0.7934 Y-66.8334
G01 X-0.8659 Y-66.7534
G01 X-0.9302 Y-66.6667
G01 X-0.9857 Y-66.5741
G01 X-1.0319 Y-66.4766
G01 X-1.0682 Y-66.3749
G01 X-1.0945 Y-66.2702
G01 X-1.1103 Y-66.1634
G01 X-1.1156 Y-66.0556
G01 X-1.1156 Y-58.0750
G00 X-1.1156 Y-58.0750
G01 F60.00
G01 Z-1.2000
G01 F120.00
G01 X-1.1156 Y-66.0556
G01 X-1.1103 Y-66.1634
G01 X-1.0945 Y-66.2702
G01 X-1.0682 Y-66.3749
G01 X-1.0319 Y-66.4766
G01 X-0.9857 Y-66.5741
G01 X-0.9302 Y-66.6667
G01 X-0.8659 Y-66.7534
G01 X-0.7934 Y-66.8334
G01 X-0.7134 Y-66.9059
G01 X-0.6267 Y-66.9702
G01 X-0.5341 Y-67.0257
G01 X-0.4366 Y-67.0719
G01 X-0.3349 Y-67.1082
G01 X-0.2302 Y-67.1345
G01 X-0.1234 Y-67.1503
G01 X-0.0156 Y-67.1556
G01 X75.0647 Y-67.1556
G01 X75.1725 Y-67.1503
G01 X75.2793 Y-67.1345
G01 X75.3840 Y-67.1082
G01 X75.4857 Y-67.0719
G01 X75.5832 Y-67.0257
G01 X75.6758 Y-66.9702
G01 X75.7625 Y-66.9059
G01 X75.8425 Y-66.8334
G01 X75.9150 Y-66.7534
G01 X75.9793 Y-66.6667
G01 X76.0348 Y-66.5741
G01 X76.0810 Y-66.4766
G01 X76.1173 Y-66.3749
G01 X76.1436 Y-66.2702
G01 X76.1594 Y-66.1634
G01 X76.1647 Y-66.0556
G01 X76.1647 Y-58.0750
G00 X76.1647 Y-58.0750
G01 F60.00
G01 Z-1.3000
G01 F120.00
G01 X76.1647 Y-66.0556
G01 X76.1594 Y-66.1634
G01 X76.1436 Y-66.2702
G01 X76.1173 Y-66.3749
G01 X76.0810 Y-66.4766
G01 X76.0348 Y-66.5741
G01 X75.9793 Y-66.6667
G01 X75.9150 Y-66.7534
G01 X75.8425 Y-66.8334
G01 X75.7625 Y-66.9059
G01 X75.6758 Y-66.9702
G01 X75.5832 Y-67.0257
G01 X75.4857 Y-67.0719
G01 X75.3840 Y-67.1082
G01 X75.2793 Y-67.1345
G01 X75.1725 Y-67.1503
G01 X75.0647 Y-67.1556
G01 X-0.0156 Y-67.1556
G01 X-0.1234 Y-67.1503
G01 X-0.2302 Y-67.1345
G01 X-0.3349 Y-67.1082
G01 X-0.4366 Y-67.0719
G01 X-0.5341 Y-67.0257
G01 X-0.6267 Y-66.9702
G01 X-0.7134 Y-66.9059
G01 X-0.7934 Y-66.8334
G01 X-0.8659 Y-66.7534
G01 X-0.9302 Y-66.6667
G01 X-0.9857 Y-66.5741
G01 X-1.0319 Y-66.4766
G01 X-1.0682 Y-66.3749
G01 X-1.0945 Y-66.2702
G01 X-1.1103 Y-66.1634
G01 X-1.1156 Y-66.0556
G01 X-1.1156 Y-58.0750
G00 X-1.1156 Y-58.0750
G01 F60.00
G01 Z-1.4000
G01 F120.00
G01 X-1.1156 Y-66.0556
G01 X-1.1103 Y-66.1634
G01 X-1.0945 Y-66.2702
G01 X-1.0682 Y-66.3749
G01 X-1.0319 Y-66.4766
G01 X-0.9857 Y-66.5741
G01 X-0.9302 Y-66.6667
G01 X-0.8659 Y-66.7534
G01 X-0.7934 Y-66.8334
G01 X-0.7134 Y-66.9059
G01 X-0.6267 Y-66.9702
G01 X-0.5341 Y-67.0257
G01 X-0.4366 Y-67.0719
G01 X-0.3349 Y-67.1082
G01 X-0.2302 Y-67.1345
G01 X-0.1234 Y-67.1503
G01 X-0.0156 Y-67.1556
G01 X75.0647 Y-67.1556
G01 X75.1725 Y-67.1503
G01 X75.2793 Y-67.1345
G01 X75.3840 Y-67.1082
G01 X75.4857 Y-67.0719
G01 X75.5832 Y-67.0257
G01 X75.6758 Y-66.9702
G01 X75.7625 Y-66.9059
G01 X75.8425 Y-66.8334
G01 X75.9150 Y-66.7534
G01 X75.9793 Y-66.6667
G01 X76.0348 Y-66.5741
G01 X76.0810 Y-66.4766
G01 X76.1173 Y-66.3749
G01 X76.1436 Y-66.2702
G01 X76.1594 Y-66.1634
G01 X76.1647 Y-66.0556
G01 X76.1647 Y-58.0750
G00 X76.1647 Y-58.0750
G01 F60.00
G01 Z-1.5000
G01 F120.00
G01 X76.1647 Y-66.0556
G01 X76.1594 Y-66.1634
G01 X76.1436 Y-66.2702
G01 X76.1173 Y-66.3749
G01 X76.0810 Y-66.4766
G01 X76.0348 Y-66.5741
G01 X75.9793 Y-66.6667
G01 X75.9150 Y-66.7534
G01 X75.8425 Y-66.8334
G01 X75.7625 Y-66.9059
G01 X75.6758 Y-66.9702
G01 X75.5832 Y-67.0257
G01 X75.4857 Y-67.0719
G01 X75.3840 Y-67.1082
G01 X75.2793 Y-67.1345
G01 X75.1725 Y-67.1503
G01 X75.0647 Y-67.1556
G01 X-0.0156 Y-67.1556
G01 X-0.1234 Y-67.1503
G01 X-0.2302 Y-67.1345
G01 X-0.3349 Y-67.1082
G01 X-0.4366 Y-67.0719
G01 X-0.5341 Y-67.0257
G01 X-0.6267 Y-66.9702
G01 X-0.7134 Y-66.9059
G01 X-0.7934 Y-66.8334
G01 X-0.8659 Y-66.7534
G01 X-0.9302 Y-66.6667
G01 X-0.9857 Y-66.5741
G01 X-1.0319 Y-66.4766
G01 X-1.0682 Y-66.3749
G01 X-1.0945 Y-66.2702
G01 X-1.1103 Y-66.1634
G01 X-1.1156 Y-66.0556
G01 X-1.1156 Y-58.0750
G00 X-1.1156 Y-58.0750
G01 F60.00
G01 Z-1.6000
G01 F120.00
G01 X-1.1156 Y-66.0556
G01 X-1.1103 Y-66.1634
G01 X-1.0945 Y-66.2702
G01 X-1.0682 Y-66.3749
G01 X-1.0319 Y-66.4766
G01 X-0.9857 Y-66.5741
G01 X-0.9302 Y-66.6667
G01 X-0.8659 Y-66.7534
G01 X-0.7934 Y-66.8334
G01 X-0.7134 Y-66.9059
G01 X-0.6267 Y-66.9702
G01 X-0.5341 Y-67.0257
G01 X-0.4366 Y-67.0719
G01 X-0.3349 Y-67.1082
G01 X-0.2302 Y-67.1345
G01 X-0.1234 Y-67.1503
G01 X-0.0156 Y-67.1556
G01 X75.0647 Y-67.1556
G01 X75.1725 Y-67.1503
G01 X75.2793 Y-67.1345
G01 X75.3840 Y-67.1082
G01 X75.4857 Y-67.0719
G01 X75.5832 Y-67.0257
G01 X75.6758 Y-66.9702
G01 X75.7625 Y-66.9059
G01 X75.8425 Y-66.8334
G01 X75.9150 Y-66.7534
G01 X75.9793 Y-66.6667
G01 X76.0348 Y-66.5741
G01 X76.0810 Y-66.4766
G01 X76.1173 Y-66.3749
G01 X76.1436 Y-66.2702
G01 X76.1594 Y-66.1634
G01 X76.1647 Y-66.0556
G01 X76.1647 Y-58.0750
G00 X76.1647 Y-58.0750
G01 F60.00
G01 Z-1.7000
G01 F120.00
G01 X76.1647 Y-66.0556
G01 X76.1594 Y-66.1634
G01 X76.1436 Y-66.2702
G01 X76.1173 Y-66.3749
G01 X76.0810 Y-66.4766
G01 X76.0348 Y-66.5741
G01 X75.9793 Y-66.6667
G01 X75.9150 Y-66.7534
G01 X75.8425 Y-66.8334
G01 X75.7625 Y-66.9059
G01 X75.6758 Y-66.9702
G01 X75.5832 Y-67.0257
G01 X75.4857 Y-67.0719
G01 X75.3840 Y-67.1082
G01 X75.2793 Y-67.1345
G01 X75.1725 Y-67.1503
G01 X75.0647 Y-67.1556
G01 X-0.0156 Y-67.1556
G01 X-0.1234 Y-67.1503
G01 X-0.2302 Y-67.1345
G01 X-0.3349 Y-67.1082
G01 X-0.4366 Y-67.0719
G01 X-0.5341 Y-67.0257
G01 X-0.6267 Y-66.9702
G01 X-0.7134 Y-66.9059
G01 X-0.7934 Y-66.8334
G01 X-0.8659 Y-66.7534
G01 X-0.9302 Y-66.6667
G01 X-0.9857 Y-66.5741
G01 X-1.0319 Y-66.4766
G01 X-1.0682 Y-66.3749
G01 X-1.0945 Y-66.2702
G01 X-1.1103 Y-66.1634
G01 X-1.1156 Y-66.0556
G01 X-1.1156 Y-58.0750
G00 X-1.1156 Y-58.0750
G01 F60.00
G01 Z-1.8000
G01 F120.00
G01 X-1.1156 Y-66.0556
G01 X-1.1103 Y-66.1634
G01 X-1.0945 Y-66.2702
G01 X-1.0682 Y-66.3749
G01 X-1.0319 Y-66.4766
G01 X-0.9857 Y-66.5741
G01 X-0.9302 Y-66.6667
G01 X-0.8659 Y-66.7534
G01 X-0.7934 Y-66.8334
G01 X-0.7134 Y-66.9059
G01 X-0.6267 Y-66.9702
G01 X-0.5341 Y-67.0257
G01 X-0.4366 Y-67.0719
G01 X-0.3349 Y-67.1082
G01 X-0.2302 Y-67.1345
G01 X-0.1234 Y-67.1503
G01 X-0.0156 Y-67.1556
G01 X75.0647 Y-67.1556
G01 X75.1725 Y-67.1503
G01 X75.2793 Y-67.1345
G01 X75.3840 Y-67.1082
G01 X75.4857 Y-67.0719
G01 X75.5832 Y-67.0257
G01 X75.6758 Y-66.9702
G01 X75.7625 Y-66.9059
G01 X75.8425 Y-66.8334
G01 X75.9150 Y-66.7534
G01 X75.9793 Y-66.6667
G01 X76.0348 Y-66.5741
G01 X76.0810 Y-66.4766
G01 X76.1173 Y-66.3749
G01 X76.1436 Y-66.2702
G01 X76.1594 Y-66.1634
G01 X76.1647 Y-66.0556
G01 X76.1647 Y-58.0750
G00 Z2.0000
G00 X-1.1156 Y-55.9250
G01 F60.00
G01 Z-0.1000
G01 F120.00
G01 X-1.1156 Y-8.0750
G00 X-1.1156 Y-8.0750
G01 F60.00
G01 Z-0.2000
G01 F120.00
G01 X-1.1156 Y-55.9250
G00 X-1.1156 Y-55.9250
G01 F60.00
G01 Z-0.3000
G01 F120.00
G01 X-1.1156 Y-8.0750
G00 X-1.1156 Y-8.0750
G01 F60.00
G01 Z-0.4000
G01 F120.00
G01 X-1.1156 Y-55.9250
G00 X-1.1156 Y-55.9250
G01 F60.00
G01 Z-0.5000
G01 F120.00
G01 X-1.1156 Y-8.0750
G00 X-1.1156 Y-8.0750
G01 F60.00
G01 Z-0.6000
G01 F120.00
G01 X-1.1156 Y-55.9250
G00 X-1.1156 Y-55.9250
G01 F60.00
G01 Z-0.7000
G01 F120.00
G01 X-1.1156 Y-8.0750
G00 X-1.1156 Y-8.0750
G01 F60.00
G01 Z-0.8000
G01 F120.00
G01 X-1.1156 Y-55.9250
G00 X-1.1156 Y-55.9250
G01 F60.00
G01 Z-0.9000
G01 F120.00
G01 X-1.1156 Y-8.0750
G00 X-1.1156 Y-8.0750
G01 F60.00
G01 Z-1.0000
G01 F120.00
G01 X-1.1156 Y-55.9250
G00 X-1.1156 Y-55.9250
G01 F60.00
G01 Z-1.1000
G01 F120.00
G01 X-1.1156 Y-8.0750
G00 X-1.1156 Y-8.0750
G01 F60.00
G01 Z-1.2000
G01 F120.00
G01 X-1.1156 Y-55.9250
G00 X-1.1156 Y-55.9250
G01 F60.00
G01 Z-1.3000
G01 F120.00
G01 X-1.1156 Y-8.0750
G00 X-1.1156 Y-8.0750
G01 F60.00
G01 Z-1.4000
G01 F120.00
G01 X-1.1156 Y-55.9250
G00 X-1.1156 Y-55.9250
G01 F60.00
G01 Z-1.5000
G01 F120.00
G01 X-1.1156 Y-8.0750
G00 X-1.1156 Y-8.0750
G01 F60.00
G01 Z-1.6000
G01 F120.00
G01 X-1.1156 Y-55.9250
G00 X-1.1156 Y-55.9250
G01 F60.00
G01 Z-1.7000
G01 F120.00
G01 X-1.1156 Y-8.0750
G00 X-1.1156 Y-8.0750
G01 F60.00
G01 Z-1.8000
G01 F120.00
G01 X-1.1156 Y-55.9250
G00 Z2.0000
M05
G00 Z2.0000
G00 Z30.00


