(G-CODE GENERATED BY FLATCAM v8.994 - www.flatcam.org - Version Date: 2020/11/7)

(Name: 160x11TB.drl_edit_1_mill_cnc)
(Type: G-code from Geometry)
(Units: MM)

(Created on Tuesday, 25 November 2025 at 14:05)

(This preprocessor is the default preprocessor used by FlatCAM.)
(It is made to work with MACH3 compatible motion controllers.)

(TOOL DIAMETER: 2.0 mm)
(Feedrate_XY: 120.0 mm/min)
(Feedrate_Z: 60.0 mm/min)
(Feedrate rapids 1500.0 mm/min)

(Z_Cut: -1.8000000000000005 mm)
(DepthPerCut: 0.10000000000000014 mm <=>18 passes)
(Z_Move: 2.0 mm)
(Z Start: None mm)
(Z End: 30.0 mm)
(X,Y End: None mm)
(Steps per circle: 64)
(Preprocessor Geometry: default)

(X range:    3.9400 ...   71.7800  mm)
(Y range:  -59.5600 ...   -3.3100  mm)

(Spindle Speed: 10000.0 RPM)
G21
G90
G94

G01 F120.00

M5
G00 Z30.0000
G00 X0.0000 Y0.0000
T1
M6    
(MSG, Change to Tool Dia = 2.0000)
M0
G00 Z30.0000

M03 S10000.0
G01 F120.00
G00 X6.5300 Y-3.8100
G01 F60.00
G01 Z-0.1000
G01 F120.00
G01 X6.5276 Y-3.8590
G01 X6.5204 Y-3.9075
G01 X6.5085 Y-3.9551
G01 X6.4919 Y-4.0013
G01 X6.4710 Y-4.0457
G01 X6.4457 Y-4.0878
G01 X6.4165 Y-4.1272
G01 X6.3836 Y-4.1636
G01 X6.3472 Y-4.1965
G01 X6.3078 Y-4.2257
G01 X6.2657 Y-4.2510
G01 X6.2213 Y-4.2719
G01 X6.1751 Y-4.2885
G01 X6.1275 Y-4.3004
G01 X6.0790 Y-4.3076
G01 X6.0300 Y-4.3100
G01 X5.9810 Y-4.3076
G01 X5.9325 Y-4.3004
G01 X5.8849 Y-4.2885
G01 X5.8387 Y-4.2719
G01 X5.7943 Y-4.2510
G01 X5.7522 Y-4.2257
G01 X5.7128 Y-4.1965
G01 X5.6764 Y-4.1636
G01 X5.6435 Y-4.1272
G01 X5.6143 Y-4.0878
G01 X5.5890 Y-4.0457
G01 X5.5681 Y-4.0013
G01 X5.5515 Y-3.9551
G01 X5.5396 Y-3.9075
G01 X5.5324 Y-3.8590
G01 X5.5300 Y-3.8100
G01 X5.5324 Y-3.7610
G01 X5.5396 Y-3.7125
G01 X5.5515 Y-3.6649
G01 X5.5681 Y-3.6187
G01 X5.5890 Y-3.5743
G01 X5.6143 Y-3.5322
G01 X5.6435 Y-3.4928
G01 X5.6764 Y-3.4564
G01 X5.7128 Y-3.4235
G01 X5.7522 Y-3.3943
G01 X5.7943 Y-3.3690
G01 X5.8387 Y-3.3481
G01 X5.8849 Y-3.3315
G01 X5.9325 Y-3.3196
G01 X5.9810 Y-3.3124
G01 X6.0300 Y-3.3100
G01 X6.0790 Y-3.3124
G01 X6.1275 Y-3.3196
G01 X6.1751 Y-3.3315
G01 X6.2213 Y-3.3481
G01 X6.2657 Y-3.3690
G01 X6.3078 Y-3.3943
G01 X6.3472 Y-3.4235
G01 X6.3836 Y-3.4564
G01 X6.4165 Y-3.4928
G01 X6.4457 Y-3.5322
G01 X6.4710 Y-3.5743
G01 X6.4919 Y-3.6187
G01 X6.5085 Y-3.6649
G01 X6.5204 Y-3.7125
G01 X6.5276 Y-3.7610
G01 X6.5300 Y-3.8100
G00 X6.5300 Y-3.8100
G01 F60.00
G01 Z-0.2000
G01 F120.00
G01 X6.5276 Y-3.8590
G01 X6.5204 Y-3.9075
G01 X6.5085 Y-3.9551
G01 X6.4919 Y-4.0013
G01 X6.4710 Y-4.0457
G01 X6.4457 Y-4.0878
G01 X6.4165 Y-4.1272
G01 X6.3836 Y-4.1636
G01 X6.3472 Y-4.1965
G01 X6.3078 Y-4.2257
G01 X6.2657 Y-4.2510
G01 X6.2213 Y-4.2719
G01 X6.1751 Y-4.2885
G01 X6.1275 Y-4.3004
G01 X6.0790 Y-4.3076
G01 X6.0300 Y-4.3100
G01 X5.9810 Y-4.3076
G01 X5.9325 Y-4.3004
G01 X5.8849 Y-4.2885
G01 X5.8387 Y-4.2719
G01 X5.7943 Y-4.2510
G01 X5.7522 Y-4.2257
G01 X5.7128 Y-4.1965
G01 X5.6764 Y-4.1636
G01 X5.6435 Y-4.1272
G01 X5.6143 Y-4.0878
G01 X5.5890 Y-4.0457
G01 X5.5681 Y-4.0013
G01 X5.5515 Y-3.9551
G01 X5.5396 Y-3.9075
G01 X5.5324 Y-3.8590
G01 X5.5300 Y-3.8100
G01 X5.5324 Y-3.7610
G01 X5.5396 Y-3.7125
G01 X5.5515 Y-3.6649
G01 X5.5681 Y-3.6187
G01 X5.5890 Y-3.5743
G01 X5.6143 Y-3.5322
G01 X5.6435 Y-3.4928
G01 X5.6764 Y-3.4564
G01 X5.7128 Y-3.4235
G01 X5.7522 Y-3.3943
G01 X5.7943 Y-3.3690
G01 X5.8387 Y-3.3481
G01 X5.8849 Y-3.3315
G01 X5.9325 Y-3.3196
G01 X5.9810 Y-3.3124
G01 X6.0300 Y-3.3100
G01 X6.0790 Y-3.3124
G01 X6.1275 Y-3.3196
G01 X6.1751 Y-3.3315
G01 X6.2213 Y-3.3481
G01 X6.2657 Y-3.3690
G01 X6.3078 Y-3.3943
G01 X6.3472 Y-3.4235
G01 X6.3836 Y-3.4564
G01 X6.4165 Y-3.4928
G01 X6.4457 Y-3.5322
G01 X6.4710 Y-3.5743
G01 X6.4919 Y-3.6187
G01 X6.5085 Y-3.6649
G01 X6.5204 Y-3.7125
G01 X6.5276 Y-3.7610
G01 X6.5300 Y-3.8100
G00 X6.5300 Y-3.8100
G01 F60.00
G01 Z-0.3000
G01 F120.00
G01 X6.5276 Y-3.8590
G01 X6.5204 Y-3.9075
G01 X6.5085 Y-3.9551
G01 X6.4919 Y-4.0013
G01 X6.4710 Y-4.0457
G01 X6.4457 Y-4.0878
G01 X6.4165 Y-4.1272
G01 X6.3836 Y-4.1636
G01 X6.3472 Y-4.1965
G01 X6.3078 Y-4.2257
G01 X6.2657 Y-4.2510
G01 X6.2213 Y-4.2719
G01 X6.1751 Y-4.2885
G01 X6.1275 Y-4.3004
G01 X6.0790 Y-4.3076
G01 X6.0300 Y-4.3100
G01 X5.9810 Y-4.3076
G01 X5.9325 Y-4.3004
G01 X5.8849 Y-4.2885
G01 X5.8387 Y-4.2719
G01 X5.7943 Y-4.2510
G01 X5.7522 Y-4.2257
G01 X5.7128 Y-4.1965
G01 X5.6764 Y-4.1636
G01 X5.6435 Y-4.1272
G01 X5.6143 Y-4.0878
G01 X5.5890 Y-4.0457
G01 X5.5681 Y-4.0013
G01 X5.5515 Y-3.9551
G01 X5.5396 Y-3.9075
G01 X5.5324 Y-3.8590
G01 X5.5300 Y-3.8100
G01 X5.5324 Y-3.7610
G01 X5.5396 Y-3.7125
G01 X5.5515 Y-3.6649
G01 X5.5681 Y-3.6187
G01 X5.5890 Y-3.5743
G01 X5.6143 Y-3.5322
G01 X5.6435 Y-3.4928
G01 X5.6764 Y-3.4564
G01 X5.7128 Y-3.4235
G01 X5.7522 Y-3.3943
G01 X5.7943 Y-3.3690
G01 X5.8387 Y-3.3481
G01 X5.8849 Y-3.3315
G01 X5.9325 Y-3.3196
G01 X5.9810 Y-3.3124
G01 X6.0300 Y-3.3100
G01 X6.0790 Y-3.3124
G01 X6.1275 Y-3.3196
G01 X6.1751 Y-3.3315
G01 X6.2213 Y-3.3481
G01 X6.2657 Y-3.3690
G01 X6.3078 Y-3.3943
G01 X6.3472 Y-3.4235
G01 X6.3836 Y-3.4564
G01 X6.4165 Y-3.4928
G01 X6.4457 Y-3.5322
G01 X6.4710 Y-3.5743
G01 X6.4919 Y-3.6187
G01 X6.5085 Y-3.6649
G01 X6.5204 Y-3.7125
G01 X6.5276 Y-3.7610
G01 X6.5300 Y-3.8100
G00 X6.5300 Y-3.8100
G01 F60.00
G01 Z-0.4000
G01 F120.00
G01 X6.5276 Y-3.8590
G01 X6.5204 Y-3.9075
G01 X6.5085 Y-3.9551
G01 X6.4919 Y-4.0013
G01 X6.4710 Y-4.0457
G01 X6.4457 Y-4.0878
G01 X6.4165 Y-4.1272
G01 X6.3836 Y-4.1636
G01 X6.3472 Y-4.1965
G01 X6.3078 Y-4.2257
G01 X6.2657 Y-4.2510
G01 X6.2213 Y-4.2719
G01 X6.1751 Y-4.2885
G01 X6.1275 Y-4.3004
G01 X6.0790 Y-4.3076
G01 X6.0300 Y-4.3100
G01 X5.9810 Y-4.3076
G01 X5.9325 Y-4.3004
G01 X5.8849 Y-4.2885
G01 X5.8387 Y-4.2719
G01 X5.7943 Y-4.2510
G01 X5.7522 Y-4.2257
G01 X5.7128 Y-4.1965
G01 X5.6764 Y-4.1636
G01 X5.6435 Y-4.1272
G01 X5.6143 Y-4.0878
G01 X5.5890 Y-4.0457
G01 X5.5681 Y-4.0013
G01 X5.5515 Y-3.9551
G01 X5.5396 Y-3.9075
G01 X5.5324 Y-3.8590
G01 X5.5300 Y-3.8100
G01 X5.5324 Y-3.7610
G01 X5.5396 Y-3.7125
G01 X5.5515 Y-3.6649
G01 X5.5681 Y-3.6187
G01 X5.5890 Y-3.5743
G01 X5.6143 Y-3.5322
G01 X5.6435 Y-3.4928
G01 X5.6764 Y-3.4564
G01 X5.7128 Y-3.4235
G01 X5.7522 Y-3.3943
G01 X5.7943 Y-3.3690
G01 X5.8387 Y-3.3481
G01 X5.8849 Y-3.3315
G01 X5.9325 Y-3.3196
G01 X5.9810 Y-3.3124
G01 X6.0300 Y-3.3100
G01 X6.0790 Y-3.3124
G01 X6.1275 Y-3.3196
G01 X6.1751 Y-3.3315
G01 X6.2213 Y-3.3481
G01 X6.2657 Y-3.3690
G01 X6.3078 Y-3.3943
G01 X6.3472 Y-3.4235
G01 X6.3836 Y-3.4564
G01 X6.4165 Y-3.4928
G01 X6.4457 Y-3.5322
G01 X6.4710 Y-3.5743
G01 X6.4919 Y-3.6187
G01 X6.5085 Y-3.6649
G01 X6.5204 Y-3.7125
G01 X6.5276 Y-3.7610
G01 X6.5300 Y-3.8100
G00 X6.5300 Y-3.8100
G01 F60.00
G01 Z-0.5000
G01 F120.00
G01 X6.5276 Y-3.8590
G01 X6.5204 Y-3.9075
G01 X6.5085 Y-3.9551
G01 X6.4919 Y-4.0013
G01 X6.4710 Y-4.0457
G01 X6.4457 Y-4.0878
G01 X6.4165 Y-4.1272
G01 X6.3836 Y-4.1636
G01 X6.3472 Y-4.1965
G01 X6.3078 Y-4.2257
G01 X6.2657 Y-4.2510
G01 X6.2213 Y-4.2719
G01 X6.1751 Y-4.2885
G01 X6.1275 Y-4.3004
G01 X6.0790 Y-4.3076
G01 X6.0300 Y-4.3100
G01 X5.9810 Y-4.3076
G01 X5.9325 Y-4.3004
G01 X5.8849 Y-4.2885
G01 X5.8387 Y-4.2719
G01 X5.7943 Y-4.2510
G01 X5.7522 Y-4.2257
G01 X5.7128 Y-4.1965
G01 X5.6764 Y-4.1636
G01 X5.6435 Y-4.1272
G01 X5.6143 Y-4.0878
G01 X5.5890 Y-4.0457
G01 X5.5681 Y-4.0013
G01 X5.5515 Y-3.9551
G01 X5.5396 Y-3.9075
G01 X5.5324 Y-3.8590
G01 X5.5300 Y-3.8100
G01 X5.5324 Y-3.7610
G01 X5.5396 Y-3.7125
G01 X5.5515 Y-3.6649
G01 X5.5681 Y-3.6187
G01 X5.5890 Y-3.5743
G01 X5.6143 Y-3.5322
G01 X5.6435 Y-3.4928
G01 X5.6764 Y-3.4564
G01 X5.7128 Y-3.4235
G01 X5.7522 Y-3.3943
G01 X5.7943 Y-3.3690
G01 X5.8387 Y-3.3481
G01 X5.8849 Y-3.3315
G01 X5.9325 Y-3.3196
G01 X5.9810 Y-3.3124
G01 X6.0300 Y-3.3100
G01 X6.0790 Y-3.3124
G01 X6.1275 Y-3.3196
G01 X6.1751 Y-3.3315
G01 X6.2213 Y-3.3481
G01 X6.2657 Y-3.3690
G01 X6.3078 Y-3.3943
G01 X6.3472 Y-3.4235
G01 X6.3836 Y-3.4564
G01 X6.4165 Y-3.4928
G01 X6.4457 Y-3.5322
G01 X6.4710 Y-3.5743
G01 X6.4919 Y-3.6187
G01 X6.5085 Y-3.6649
G01 X6.5204 Y-3.7125
G01 X6.5276 Y-3.7610
G01 X6.5300 Y-3.8100
G00 X6.5300 Y-3.8100
G01 F60.00
G01 Z-0.6000
G01 F120.00
G01 X6.5276 Y-3.8590
G01 X6.5204 Y-3.9075
G01 X6.5085 Y-3.9551
G01 X6.4919 Y-4.0013
G01 X6.4710 Y-4.0457
G01 X6.4457 Y-4.0878
G01 X6.4165 Y-4.1272
G01 X6.3836 Y-4.1636
G01 X6.3472 Y-4.1965
G01 X6.3078 Y-4.2257
G01 X6.2657 Y-4.2510
G01 X6.2213 Y-4.2719
G01 X6.1751 Y-4.2885
G01 X6.1275 Y-4.3004
G01 X6.0790 Y-4.3076
G01 X6.0300 Y-4.3100
G01 X5.9810 Y-4.3076
G01 X5.9325 Y-4.3004
G01 X5.8849 Y-4.2885
G01 X5.8387 Y-4.2719
G01 X5.7943 Y-4.2510
G01 X5.7522 Y-4.2257
G01 X5.7128 Y-4.1965
G01 X5.6764 Y-4.1636
G01 X5.6435 Y-4.1272
G01 X5.6143 Y-4.0878
G01 X5.5890 Y-4.0457
G01 X5.5681 Y-4.0013
G01 X5.5515 Y-3.9551
G01 X5.5396 Y-3.9075
G01 X5.5324 Y-3.8590
G01 X5.5300 Y-3.8100
G01 X5.5324 Y-3.7610
G01 X5.5396 Y-3.7125
G01 X5.5515 Y-3.6649
G01 X5.5681 Y-3.6187
G01 X5.5890 Y-3.5743
G01 X5.6143 Y-3.5322
G01 X5.6435 Y-3.4928
G01 X5.6764 Y-3.4564
G01 X5.7128 Y-3.4235
G01 X5.7522 Y-3.3943
G01 X5.7943 Y-3.3690
G01 X5.8387 Y-3.3481
G01 X5.8849 Y-3.3315
G01 X5.9325 Y-3.3196
G01 X5.9810 Y-3.3124
G01 X6.0300 Y-3.3100
G01 X6.0790 Y-3.3124
G01 X6.1275 Y-3.3196
G01 X6.1751 Y-3.3315
G01 X6.2213 Y-3.3481
G01 X6.2657 Y-3.3690
G01 X6.3078 Y-3.3943
G01 X6.3472 Y-3.4235
G01 X6.3836 Y-3.4564
G01 X6.4165 Y-3.4928
G01 X6.4457 Y-3.5322
G01 X6.4710 Y-3.5743
G01 X6.4919 Y-3.6187
G01 X6.5085 Y-3.6649
G01 X6.5204 Y-3.7125
G01 X6.5276 Y-3.7610
G01 X6.5300 Y-3.8100
G00 X6.5300 Y-3.8100
G01 F60.00
G01 Z-0.7000
G01 F120.00
G01 X6.5276 Y-3.8590
G01 X6.5204 Y-3.9075
G01 X6.5085 Y-3.9551
G01 X6.4919 Y-4.0013
G01 X6.4710 Y-4.0457
G01 X6.4457 Y-4.0878
G01 X6.4165 Y-4.1272
G01 X6.3836 Y-4.1636
G01 X6.3472 Y-4.1965
G01 X6.3078 Y-4.2257
G01 X6.2657 Y-4.2510
G01 X6.2213 Y-4.2719
G01 X6.1751 Y-4.2885
G01 X6.1275 Y-4.3004
G01 X6.0790 Y-4.3076
G01 X6.0300 Y-4.3100
G01 X5.9810 Y-4.3076
G01 X5.9325 Y-4.3004
G01 X5.8849 Y-4.2885
G01 X5.8387 Y-4.2719
G01 X5.7943 Y-4.2510
G01 X5.7522 Y-4.2257
G01 X5.7128 Y-4.1965
G01 X5.6764 Y-4.1636
G01 X5.6435 Y-4.1272
G01 X5.6143 Y-4.0878
G01 X5.5890 Y-4.0457
G01 X5.5681 Y-4.0013
G01 X5.5515 Y-3.9551
G01 X5.5396 Y-3.9075
G01 X5.5324 Y-3.8590
G01 X5.5300 Y-3.8100
G01 X5.5324 Y-3.7610
G01 X5.5396 Y-3.7125
G01 X5.5515 Y-3.6649
G01 X5.5681 Y-3.6187
G01 X5.5890 Y-3.5743
G01 X5.6143 Y-3.5322
G01 X5.6435 Y-3.4928
G01 X5.6764 Y-3.4564
G01 X5.7128 Y-3.4235
G01 X5.7522 Y-3.3943
G01 X5.7943 Y-3.3690
G01 X5.8387 Y-3.3481
G01 X5.8849 Y-3.3315
G01 X5.9325 Y-3.3196
G01 X5.9810 Y-3.3124
G01 X6.0300 Y-3.3100
G01 X6.0790 Y-3.3124
G01 X6.1275 Y-3.3196
G01 X6.1751 Y-3.3315
G01 X6.2213 Y-3.3481
G01 X6.2657 Y-3.3690
G01 X6.3078 Y-3.3943
G01 X6.3472 Y-3.4235
G01 X6.3836 Y-3.4564
G01 X6.4165 Y-3.4928
G01 X6.4457 Y-3.5322
G01 X6.4710 Y-3.5743
G01 X6.4919 Y-3.6187
G01 X6.5085 Y-3.6649
G01 X6.5204 Y-3.7125
G01 X6.5276 Y-3.7610
G01 X6.5300 Y-3.8100
G00 X6.5300 Y-3.8100
G01 F60.00
G01 Z-0.8000
G01 F120.00
G01 X6.5276 Y-3.8590
G01 X6.5204 Y-3.9075
G01 X6.5085 Y-3.9551
G01 X6.4919 Y-4.0013
G01 X6.4710 Y-4.0457
G01 X6.4457 Y-4.0878
G01 X6.4165 Y-4.1272
G01 X6.3836 Y-4.1636
G01 X6.3472 Y-4.1965
G01 X6.3078 Y-4.2257
G01 X6.2657 Y-4.2510
G01 X6.2213 Y-4.2719
G01 X6.1751 Y-4.2885
G01 X6.1275 Y-4.3004
G01 X6.0790 Y-4.3076
G01 X6.0300 Y-4.3100
G01 X5.9810 Y-4.3076
G01 X5.9325 Y-4.3004
G01 X5.8849 Y-4.2885
G01 X5.8387 Y-4.2719
G01 X5.7943 Y-4.2510
G01 X5.7522 Y-4.2257
G01 X5.7128 Y-4.1965
G01 X5.6764 Y-4.1636
G01 X5.6435 Y-4.1272
G01 X5.6143 Y-4.0878
G01 X5.5890 Y-4.0457
G01 X5.5681 Y-4.0013
G01 X5.5515 Y-3.9551
G01 X5.5396 Y-3.9075
G01 X5.5324 Y-3.8590
G01 X5.5300 Y-3.8100
G01 X5.5324 Y-3.7610
G01 X5.5396 Y-3.7125
G01 X5.5515 Y-3.6649
G01 X5.5681 Y-3.6187
G01 X5.5890 Y-3.5743
G01 X5.6143 Y-3.5322
G01 X5.6435 Y-3.4928
G01 X5.6764 Y-3.4564
G01 X5.7128 Y-3.4235
G01 X5.7522 Y-3.3943
G01 X5.7943 Y-3.3690
G01 X5.8387 Y-3.3481
G01 X5.8849 Y-3.3315
G01 X5.9325 Y-3.3196
G01 X5.9810 Y-3.3124
G01 X6.0300 Y-3.3100
G01 X6.0790 Y-3.3124
G01 X6.1275 Y-3.3196
G01 X6.1751 Y-3.3315
G01 X6.2213 Y-3.3481
G01 X6.2657 Y-3.3690
G01 X6.3078 Y-3.3943
G01 X6.3472 Y-3.4235
G01 X6.3836 Y-3.4564
G01 X6.4165 Y-3.4928
G01 X6.4457 Y-3.5322
G01 X6.4710 Y-3.5743
G01 X6.4919 Y-3.6187
G01 X6.5085 Y-3.6649
G01 X6.5204 Y-3.7125
G01 X6.5276 Y-3.7610
G01 X6.5300 Y-3.8100
G00 X6.5300 Y-3.8100
G01 F60.00
G01 Z-0.9000
G01 F120.00
G01 X6.5276 Y-3.8590
G01 X6.5204 Y-3.9075
G01 X6.5085 Y-3.9551
G01 X6.4919 Y-4.0013
G01 X6.4710 Y-4.0457
G01 X6.4457 Y-4.0878
G01 X6.4165 Y-4.1272
G01 X6.3836 Y-4.1636
G01 X6.3472 Y-4.1965
G01 X6.3078 Y-4.2257
G01 X6.2657 Y-4.2510
G01 X6.2213 Y-4.2719
G01 X6.1751 Y-4.2885
G01 X6.1275 Y-4.3004
G01 X6.0790 Y-4.3076
G01 X6.0300 Y-4.3100
G01 X5.9810 Y-4.3076
G01 X5.9325 Y-4.3004
G01 X5.8849 Y-4.2885
G01 X5.8387 Y-4.2719
G01 X5.7943 Y-4.2510
G01 X5.7522 Y-4.2257
G01 X5.7128 Y-4.1965
G01 X5.6764 Y-4.1636
G01 X5.6435 Y-4.1272
G01 X5.6143 Y-4.0878
G01 X5.5890 Y-4.0457
G01 X5.5681 Y-4.0013
G01 X5.5515 Y-3.9551
G01 X5.5396 Y-3.9075
G01 X5.5324 Y-3.8590
G01 X5.5300 Y-3.8100
G01 X5.5324 Y-3.7610
G01 X5.5396 Y-3.7125
G01 X5.5515 Y-3.6649
G01 X5.5681 Y-3.6187
G01 X5.5890 Y-3.5743
G01 X5.6143 Y-3.5322
G01 X5.6435 Y-3.4928
G01 X5.6764 Y-3.4564
G01 X5.7128 Y-3.4235
G01 X5.7522 Y-3.3943
G01 X5.7943 Y-3.3690
G01 X5.8387 Y-3.3481
G01 X5.8849 Y-3.3315
G01 X5.9325 Y-3.3196
G01 X5.9810 Y-3.3124
G01 X6.0300 Y-3.3100
G01 X6.0790 Y-3.3124
G01 X6.1275 Y-3.3196
G01 X6.1751 Y-3.3315
G01 X6.2213 Y-3.3481
G01 X6.2657 Y-3.3690
G01 X6.3078 Y-3.3943
G01 X6.3472 Y-3.4235
G01 X6.3836 Y-3.4564
G01 X6.4165 Y-3.4928
G01 X6.4457 Y-3.5322
G01 X6.4710 Y-3.5743
G01 X6.4919 Y-3.6187
G01 X6.5085 Y-3.6649
G01 X6.5204 Y-3.7125
G01 X6.5276 Y-3.7610
G01 X6.5300 Y-3.8100
G00 X6.5300 Y-3.8100
G01 F60.00
G01 Z-1.0000
G01 F120.00
G01 X6.5276 Y-3.8590
G01 X6.5204 Y-3.9075
G01 X6.5085 Y-3.9551
G01 X6.4919 Y-4.0013
G01 X6.4710 Y-4.0457
G01 X6.4457 Y-4.0878
G01 X6.4165 Y-4.1272
G01 X6.3836 Y-4.1636
G01 X6.3472 Y-4.1965
G01 X6.3078 Y-4.2257
G01 X6.2657 Y-4.2510
G01 X6.2213 Y-4.2719
G01 X6.1751 Y-4.2885
G01 X6.1275 Y-4.3004
G01 X6.0790 Y-4.3076
G01 X6.0300 Y-4.3100
G01 X5.9810 Y-4.3076
G01 X5.9325 Y-4.3004
G01 X5.8849 Y-4.2885
G01 X5.8387 Y-4.2719
G01 X5.7943 Y-4.2510
G01 X5.7522 Y-4.2257
G01 X5.7128 Y-4.1965
G01 X5.6764 Y-4.1636
G01 X5.6435 Y-4.1272
G01 X5.6143 Y-4.0878
G01 X5.5890 Y-4.0457
G01 X5.5681 Y-4.0013
G01 X5.5515 Y-3.9551
G01 X5.5396 Y-3.9075
G01 X5.5324 Y-3.8590
G01 X5.5300 Y-3.8100
G01 X5.5324 Y-3.7610
G01 X5.5396 Y-3.7125
G01 X5.5515 Y-3.6649
G01 X5.5681 Y-3.6187
G01 X5.5890 Y-3.5743
G01 X5.6143 Y-3.5322
G01 X5.6435 Y-3.4928
G01 X5.6764 Y-3.4564
G01 X5.7128 Y-3.4235
G01 X5.7522 Y-3.3943
G01 X5.7943 Y-3.3690
G01 X5.8387 Y-3.3481
G01 X5.8849 Y-3.3315
G01 X5.9325 Y-3.3196
G01 X5.9810 Y-3.3124
G01 X6.0300 Y-3.3100
G01 X6.0790 Y-3.3124
G01 X6.1275 Y-3.3196
G01 X6.1751 Y-3.3315
G01 X6.2213 Y-3.3481
G01 X6.2657 Y-3.3690
G01 X6.3078 Y-3.3943
G01 X6.3472 Y-3.4235
G01 X6.3836 Y-3.4564
G01 X6.4165 Y-3.4928
G01 X6.4457 Y-3.5322
G01 X6.4710 Y-3.5743
G01 X6.4919 Y-3.6187
G01 X6.5085 Y-3.6649
G01 X6.5204 Y-3.7125
G01 X6.5276 Y-3.7610
G01 X6.5300 Y-3.8100
G00 X6.5300 Y-3.8100
G01 F60.00
G01 Z-1.1000
G01 F120.00
G01 X6.5276 Y-3.8590
G01 X6.5204 Y-3.9075
G01 X6.5085 Y-3.9551
G01 X6.4919 Y-4.0013
G01 X6.4710 Y-4.0457
G01 X6.4457 Y-4.0878
G01 X6.4165 Y-4.1272
G01 X6.3836 Y-4.1636
G01 X6.3472 Y-4.1965
G01 X6.3078 Y-4.2257
G01 X6.2657 Y-4.2510
G01 X6.2213 Y-4.2719
G01 X6.1751 Y-4.2885
G01 X6.1275 Y-4.3004
G01 X6.0790 Y-4.3076
G01 X6.0300 Y-4.3100
G01 X5.9810 Y-4.3076
G01 X5.9325 Y-4.3004
G01 X5.8849 Y-4.2885
G01 X5.8387 Y-4.2719
G01 X5.7943 Y-4.2510
G01 X5.7522 Y-4.2257
G01 X5.7128 Y-4.1965
G01 X5.6764 Y-4.1636
G01 X5.6435 Y-4.1272
G01 X5.6143 Y-4.0878
G01 X5.5890 Y-4.0457
G01 X5.5681 Y-4.0013
G01 X5.5515 Y-3.9551
G01 X5.5396 Y-3.9075
G01 X5.5324 Y-3.8590
G01 X5.5300 Y-3.8100
G01 X5.5324 Y-3.7610
G01 X5.5396 Y-3.7125
G01 X5.5515 Y-3.6649
G01 X5.5681 Y-3.6187
G01 X5.5890 Y-3.5743
G01 X5.6143 Y-3.5322
G01 X5.6435 Y-3.4928
G01 X5.6764 Y-3.4564
G01 X5.7128 Y-3.4235
G01 X5.7522 Y-3.3943
G01 X5.7943 Y-3.3690
G01 X5.8387 Y-3.3481
G01 X5.8849 Y-3.3315
G01 X5.9325 Y-3.3196
G01 X5.9810 Y-3.3124
G01 X6.0300 Y-3.3100
G01 X6.0790 Y-3.3124
G01 X6.1275 Y-3.3196
G01 X6.1751 Y-3.3315
G01 X6.2213 Y-3.3481
G01 X6.2657 Y-3.3690
G01 X6.3078 Y-3.3943
G01 X6.3472 Y-3.4235
G01 X6.3836 Y-3.4564
G01 X6.4165 Y-3.4928
G01 X6.4457 Y-3.5322
G01 X6.4710 Y-3.5743
G01 X6.4919 Y-3.6187
G01 X6.5085 Y-3.6649
G01 X6.5204 Y-3.7125
G01 X6.5276 Y-3.7610
G01 X6.5300 Y-3.8100
G00 X6.5300 Y-3.8100
G01 F60.00
G01 Z-1.2000
G01 F120.00
G01 X6.5276 Y-3.8590
G01 X6.5204 Y-3.9075
G01 X6.5085 Y-3.9551
G01 X6.4919 Y-4.0013
G01 X6.4710 Y-4.0457
G01 X6.4457 Y-4.0878
G01 X6.4165 Y-4.1272
G01 X6.3836 Y-4.1636
G01 X6.3472 Y-4.1965
G01 X6.3078 Y-4.2257
G01 X6.2657 Y-4.2510
G01 X6.2213 Y-4.2719
G01 X6.1751 Y-4.2885
G01 X6.1275 Y-4.3004
G01 X6.0790 Y-4.3076
G01 X6.0300 Y-4.3100
G01 X5.9810 Y-4.3076
G01 X5.9325 Y-4.3004
G01 X5.8849 Y-4.2885
G01 X5.8387 Y-4.2719
G01 X5.7943 Y-4.2510
G01 X5.7522 Y-4.2257
G01 X5.7128 Y-4.1965
G01 X5.6764 Y-4.1636
G01 X5.6435 Y-4.1272
G01 X5.6143 Y-4.0878
G01 X5.5890 Y-4.0457
G01 X5.5681 Y-4.0013
G01 X5.5515 Y-3.9551
G01 X5.5396 Y-3.9075
G01 X5.5324 Y-3.8590
G01 X5.5300 Y-3.8100
G01 X5.5324 Y-3.7610
G01 X5.5396 Y-3.7125
G01 X5.5515 Y-3.6649
G01 X5.5681 Y-3.6187
G01 X5.5890 Y-3.5743
G01 X5.6143 Y-3.5322
G01 X5.6435 Y-3.4928
G01 X5.6764 Y-3.4564
G01 X5.7128 Y-3.4235
G01 X5.7522 Y-3.3943
G01 X5.7943 Y-3.3690
G01 X5.8387 Y-3.3481
G01 X5.8849 Y-3.3315
G01 X5.9325 Y-3.3196
G01 X5.9810 Y-3.3124
G01 X6.0300 Y-3.3100
G01 X6.0790 Y-3.3124
G01 X6.1275 Y-3.3196
G01 X6.1751 Y-3.3315
G01 X6.2213 Y-3.3481
G01 X6.2657 Y-3.3690
G01 X6.3078 Y-3.3943
G01 X6.3472 Y-3.4235
G01 X6.3836 Y-3.4564
G01 X6.4165 Y-3.4928
G01 X6.4457 Y-3.5322
G01 X6.4710 Y-3.5743
G01 X6.4919 Y-3.6187
G01 X6.5085 Y-3.6649
G01 X6.5204 Y-3.7125
G01 X6.5276 Y-3.7610
G01 X6.5300 Y-3.8100
G00 X6.5300 Y-3.8100
G01 F60.00
G01 Z-1.3000
G01 F120.00
G01 X6.5276 Y-3.8590
G01 X6.5204 Y-3.9075
G01 X6.5085 Y-3.9551
G01 X6.4919 Y-4.0013
G01 X6.4710 Y-4.0457
G01 X6.4457 Y-4.0878
G01 X6.4165 Y-4.1272
G01 X6.3836 Y-4.1636
G01 X6.3472 Y-4.1965
G01 X6.3078 Y-4.2257
G01 X6.2657 Y-4.2510
G01 X6.2213 Y-4.2719
G01 X6.1751 Y-4.2885
G01 X6.1275 Y-4.3004
G01 X6.0790 Y-4.3076
G01 X6.0300 Y-4.3100
G01 X5.9810 Y-4.3076
G01 X5.9325 Y-4.3004
G01 X5.8849 Y-4.2885
G01 X5.8387 Y-4.2719
G01 X5.7943 Y-4.2510
G01 X5.7522 Y-4.2257
G01 X5.7128 Y-4.1965
G01 X5.6764 Y-4.1636
G01 X5.6435 Y-4.1272
G01 X5.6143 Y-4.0878
G01 X5.5890 Y-4.0457
G01 X5.5681 Y-4.0013
G01 X5.5515 Y-3.9551
G01 X5.5396 Y-3.9075
G01 X5.5324 Y-3.8590
G01 X5.5300 Y-3.8100
G01 X5.5324 Y-3.7610
G01 X5.5396 Y-3.7125
G01 X5.5515 Y-3.6649
G01 X5.5681 Y-3.6187
G01 X5.5890 Y-3.5743
G01 X5.6143 Y-3.5322
G01 X5.6435 Y-3.4928
G01 X5.6764 Y-3.4564
G01 X5.7128 Y-3.4235
G01 X5.7522 Y-3.3943
G01 X5.7943 Y-3.3690
G01 X5.8387 Y-3.3481
G01 X5.8849 Y-3.3315
G01 X5.9325 Y-3.3196
G01 X5.9810 Y-3.3124
G01 X6.0300 Y-3.3100
G01 X6.0790 Y-3.3124
G01 X6.1275 Y-3.3196
G01 X6.1751 Y-3.3315
G01 X6.2213 Y-3.3481
G01 X6.2657 Y-3.3690
G01 X6.3078 Y-3.3943
G01 X6.3472 Y-3.4235
G01 X6.3836 Y-3.4564
G01 X6.4165 Y-3.4928
G01 X6.4457 Y-3.5322
G01 X6.4710 Y-3.5743
G01 X6.4919 Y-3.6187
G01 X6.5085 Y-3.6649
G01 X6.5204 Y-3.7125
G01 X6.5276 Y-3.7610
G01 X6.5300 Y-3.8100
G00 X6.5300 Y-3.8100
G01 F60.00
G01 Z-1.4000
G01 F120.00
G01 X6.5276 Y-3.8590
G01 X6.5204 Y-3.9075
G01 X6.5085 Y-3.9551
G01 X6.4919 Y-4.0013
G01 X6.4710 Y-4.0457
G01 X6.4457 Y-4.0878
G01 X6.4165 Y-4.1272
G01 X6.3836 Y-4.1636
G01 X6.3472 Y-4.1965
G01 X6.3078 Y-4.2257
G01 X6.2657 Y-4.2510
G01 X6.2213 Y-4.2719
G01 X6.1751 Y-4.2885
G01 X6.1275 Y-4.3004
G01 X6.0790 Y-4.3076
G01 X6.0300 Y-4.3100
G01 X5.9810 Y-4.3076
G01 X5.9325 Y-4.3004
G01 X5.8849 Y-4.2885
G01 X5.8387 Y-4.2719
G01 X5.7943 Y-4.2510
G01 X5.7522 Y-4.2257
G01 X5.7128 Y-4.1965
G01 X5.6764 Y-4.1636
G01 X5.6435 Y-4.1272
G01 X5.6143 Y-4.0878
G01 X5.5890 Y-4.0457
G01 X5.5681 Y-4.0013
G01 X5.5515 Y-3.9551
G01 X5.5396 Y-3.9075
G01 X5.5324 Y-3.8590
G01 X5.5300 Y-3.8100
G01 X5.5324 Y-3.7610
G01 X5.5396 Y-3.7125
G01 X5.5515 Y-3.6649
G01 X5.5681 Y-3.6187
G01 X5.5890 Y-3.5743
G01 X5.6143 Y-3.5322
G01 X5.6435 Y-3.4928
G01 X5.6764 Y-3.4564
G01 X5.7128 Y-3.4235
G01 X5.7522 Y-3.3943
G01 X5.7943 Y-3.3690
G01 X5.8387 Y-3.3481
G01 X5.8849 Y-3.3315
G01 X5.9325 Y-3.3196
G01 X5.9810 Y-3.3124
G01 X6.0300 Y-3.3100
G01 X6.0790 Y-3.3124
G01 X6.1275 Y-3.3196
G01 X6.1751 Y-3.3315
G01 X6.2213 Y-3.3481
G01 X6.2657 Y-3.3690
G01 X6.3078 Y-3.3943
G01 X6.3472 Y-3.4235
G01 X6.3836 Y-3.4564
G01 X6.4165 Y-3.4928
G01 X6.4457 Y-3.5322
G01 X6.4710 Y-3.5743
G01 X6.4919 Y-3.6187
G01 X6.5085 Y-3.6649
G01 X6.5204 Y-3.7125
G01 X6.5276 Y-3.7610
G01 X6.5300 Y-3.8100
G00 X6.5300 Y-3.8100
G01 F60.00
G01 Z-1.5000
G01 F120.00
G01 X6.5276 Y-3.8590
G01 X6.5204 Y-3.9075
G01 X6.5085 Y-3.9551
G01 X6.4919 Y-4.0013
G01 X6.4710 Y-4.0457
G01 X6.4457 Y-4.0878
G01 X6.4165 Y-4.1272
G01 X6.3836 Y-4.1636
G01 X6.3472 Y-4.1965
G01 X6.3078 Y-4.2257
G01 X6.2657 Y-4.2510
G01 X6.2213 Y-4.2719
G01 X6.1751 Y-4.2885
G01 X6.1275 Y-4.3004
G01 X6.0790 Y-4.3076
G01 X6.0300 Y-4.3100
G01 X5.9810 Y-4.3076
G01 X5.9325 Y-4.3004
G01 X5.8849 Y-4.2885
G01 X5.8387 Y-4.2719
G01 X5.7943 Y-4.2510
G01 X5.7522 Y-4.2257
G01 X5.7128 Y-4.1965
G01 X5.6764 Y-4.1636
G01 X5.6435 Y-4.1272
G01 X5.6143 Y-4.0878
G01 X5.5890 Y-4.0457
G01 X5.5681 Y-4.0013
G01 X5.5515 Y-3.9551
G01 X5.5396 Y-3.9075
G01 X5.5324 Y-3.8590
G01 X5.5300 Y-3.8100
G01 X5.5324 Y-3.7610
G01 X5.5396 Y-3.7125
G01 X5.5515 Y-3.6649
G01 X5.5681 Y-3.6187
G01 X5.5890 Y-3.5743
G01 X5.6143 Y-3.5322
G01 X5.6435 Y-3.4928
G01 X5.6764 Y-3.4564
G01 X5.7128 Y-3.4235
G01 X5.7522 Y-3.3943
G01 X5.7943 Y-3.3690
G01 X5.8387 Y-3.3481
G01 X5.8849 Y-3.3315
G01 X5.9325 Y-3.3196
G01 X5.9810 Y-3.3124
G01 X6.0300 Y-3.3100
G01 X6.0790 Y-3.3124
G01 X6.1275 Y-3.3196
G01 X6.1751 Y-3.3315
G01 X6.2213 Y-3.3481
G01 X6.2657 Y-3.3690
G01 X6.3078 Y-3.3943
G01 X6.3472 Y-3.4235
G01 X6.3836 Y-3.4564
G01 X6.4165 Y-3.4928
G01 X6.4457 Y-3.5322
G01 X6.4710 Y-3.5743
G01 X6.4919 Y-3.6187
G01 X6.5085 Y-3.6649
G01 X6.5204 Y-3.7125
G01 X6.5276 Y-3.7610
G01 X6.5300 Y-3.8100
G00 X6.5300 Y-3.8100
G01 F60.00
G01 Z-1.6000
G01 F120.00
G01 X6.5276 Y-3.8590
G01 X6.5204 Y-3.9075
G01 X6.5085 Y-3.9551
G01 X6.4919 Y-4.0013
G01 X6.4710 Y-4.0457
G01 X6.4457 Y-4.0878
G01 X6.4165 Y-4.1272
G01 X6.3836 Y-4.1636
G01 X6.3472 Y-4.1965
G01 X6.3078 Y-4.2257
G01 X6.2657 Y-4.2510
G01 X6.2213 Y-4.2719
G01 X6.1751 Y-4.2885
G01 X6.1275 Y-4.3004
G01 X6.0790 Y-4.3076
G01 X6.0300 Y-4.3100
G01 X5.9810 Y-4.3076
G01 X5.9325 Y-4.3004
G01 X5.8849 Y-4.2885
G01 X5.8387 Y-4.2719
G01 X5.7943 Y-4.2510
G01 X5.7522 Y-4.2257
G01 X5.7128 Y-4.1965
G01 X5.6764 Y-4.1636
G01 X5.6435 Y-4.1272
G01 X5.6143 Y-4.0878
G01 X5.5890 Y-4.0457
G01 X5.5681 Y-4.0013
G01 X5.5515 Y-3.9551
G01 X5.5396 Y-3.9075
G01 X5.5324 Y-3.8590
G01 X5.5300 Y-3.8100
G01 X5.5324 Y-3.7610
G01 X5.5396 Y-3.7125
G01 X5.5515 Y-3.6649
G01 X5.5681 Y-3.6187
G01 X5.5890 Y-3.5743
G01 X5.6143 Y-3.5322
G01 X5.6435 Y-3.4928
G01 X5.6764 Y-3.4564
G01 X5.7128 Y-3.4235
G01 X5.7522 Y-3.3943
G01 X5.7943 Y-3.3690
G01 X5.8387 Y-3.3481
G01 X5.8849 Y-3.3315
G01 X5.9325 Y-3.3196
G01 X5.9810 Y-3.3124
G01 X6.0300 Y-3.3100
G01 X6.0790 Y-3.3124
G01 X6.1275 Y-3.3196
G01 X6.1751 Y-3.3315
G01 X6.2213 Y-3.3481
G01 X6.2657 Y-3.3690
G01 X6.3078 Y-3.3943
G01 X6.3472 Y-3.4235
G01 X6.3836 Y-3.4564
G01 X6.4165 Y-3.4928
G01 X6.4457 Y-3.5322
G01 X6.4710 Y-3.5743
G01 X6.4919 Y-3.6187
G01 X6.5085 Y-3.6649
G01 X6.5204 Y-3.7125
G01 X6.5276 Y-3.7610
G01 X6.5300 Y-3.8100
G00 X6.5300 Y-3.8100
G01 F60.00
G01 Z-1.7000
G01 F120.00
G01 X6.5276 Y-3.8590
G01 X6.5204 Y-3.9075
G01 X6.5085 Y-3.9551
G01 X6.4919 Y-4.0013
G01 X6.4710 Y-4.0457
G01 X6.4457 Y-4.0878
G01 X6.4165 Y-4.1272
G01 X6.3836 Y-4.1636
G01 X6.3472 Y-4.1965
G01 X6.3078 Y-4.2257
G01 X6.2657 Y-4.2510
G01 X6.2213 Y-4.2719
G01 X6.1751 Y-4.2885
G01 X6.1275 Y-4.3004
G01 X6.0790 Y-4.3076
G01 X6.0300 Y-4.3100
G01 X5.9810 Y-4.3076
G01 X5.9325 Y-4.3004
G01 X5.8849 Y-4.2885
G01 X5.8387 Y-4.2719
G01 X5.7943 Y-4.2510
G01 X5.7522 Y-4.2257
G01 X5.7128 Y-4.1965
G01 X5.6764 Y-4.1636
G01 X5.6435 Y-4.1272
G01 X5.6143 Y-4.0878
G01 X5.5890 Y-4.0457
G01 X5.5681 Y-4.0013
G01 X5.5515 Y-3.9551
G01 X5.5396 Y-3.9075
G01 X5.5324 Y-3.8590
G01 X5.5300 Y-3.8100
G01 X5.5324 Y-3.7610
G01 X5.5396 Y-3.7125
G01 X5.5515 Y-3.6649
G01 X5.5681 Y-3.6187
G01 X5.5890 Y-3.5743
G01 X5.6143 Y-3.5322
G01 X5.6435 Y-3.4928
G01 X5.6764 Y-3.4564
G01 X5.7128 Y-3.4235
G01 X5.7522 Y-3.3943
G01 X5.7943 Y-3.3690
G01 X5.8387 Y-3.3481
G01 X5.8849 Y-3.3315
G01 X5.9325 Y-3.3196
G01 X5.9810 Y-3.3124
G01 X6.0300 Y-3.3100
G01 X6.0790 Y-3.3124
G01 X6.1275 Y-3.3196
G01 X6.1751 Y-3.3315
G01 X6.2213 Y-3.3481
G01 X6.2657 Y-3.3690
G01 X6.3078 Y-3.3943
G01 X6.3472 Y-3.4235
G01 X6.3836 Y-3.4564
G01 X6.4165 Y-3.4928
G01 X6.4457 Y-3.5322
G01 X6.4710 Y-3.5743
G01 X6.4919 Y-3.6187
G01 X6.5085 Y-3.6649
G01 X6.5204 Y-3.7125
G01 X6.5276 Y-3.7610
G01 X6.5300 Y-3.8100
G00 X6.5300 Y-3.8100
G01 F60.00
G01 Z-1.8000
G01 F120.00
G01 X6.5276 Y-3.8590
G01 X6.5204 Y-3.9075
G01 X6.5085 Y-3.9551
G01 X6.4919 Y-4.0013
G01 X6.4710 Y-4.0457
G01 X6.4457 Y-4.0878
G01 X6.4165 Y-4.1272
G01 X6.3836 Y-4.1636
G01 X6.3472 Y-4.1965
G01 X6.3078 Y-4.2257
G01 X6.2657 Y-4.2510
G01 X6.2213 Y-4.2719
G01 X6.1751 Y-4.2885
G01 X6.1275 Y-4.3004
G01 X6.0790 Y-4.3076
G01 X6.0300 Y-4.3100
G01 X5.9810 Y-4.3076
G01 X5.9325 Y-4.3004
G01 X5.8849 Y-4.2885
G01 X5.8387 Y-4.2719
G01 X5.7943 Y-4.2510
G01 X5.7522 Y-4.2257
G01 X5.7128 Y-4.1965
G01 X5.6764 Y-4.1636
G01 X5.6435 Y-4.1272
G01 X5.6143 Y-4.0878
G01 X5.5890 Y-4.0457
G01 X5.5681 Y-4.0013
G01 X5.5515 Y-3.9551
G01 X5.5396 Y-3.9075
G01 X5.5324 Y-3.8590
G01 X5.5300 Y-3.8100
G01 X5.5324 Y-3.7610
G01 X5.5396 Y-3.7125
G01 X5.5515 Y-3.6649
G01 X5.5681 Y-3.6187
G01 X5.5890 Y-3.5743
G01 X5.6143 Y-3.5322
G01 X5.6435 Y-3.4928
G01 X5.6764 Y-3.4564
G01 X5.7128 Y-3.4235
G01 X5.7522 Y-3.3943
G01 X5.7943 Y-3.3690
G01 X5.8387 Y-3.3481
G01 X5.8849 Y-3.3315
G01 X5.9325 Y-3.3196
G01 X5.9810 Y-3.3124
G01 X6.0300 Y-3.3100
G01 X6.0790 Y-3.3124
G01 X6.1275 Y-3.3196
G01 X6.1751 Y-3.3315
G01 X6.2213 Y-3.3481
G01 X6.2657 Y-3.3690
G01 X6.3078 Y-3.3943
G01 X6.3472 Y-3.4235
G01 X6.3836 Y-3.4564
G01 X6.4165 Y-3.4928
G01 X6.4457 Y-3.5322
G01 X6.4710 Y-3.5743
G01 X6.4919 Y-3.6187
G01 X6.5085 Y-3.6649
G01 X6.5204 Y-3.7125
G01 X6.5276 Y-3.7610
G01 X6.5300 Y-3.8100
G00 Z2.0000
G00 X4.9400 Y-59.0600
G01 F60.00
G01 Z-0.1000
G01 F120.00
G01 X4.9376 Y-59.1090
G01 X4.9304 Y-59.1575
G01 X4.9185 Y-59.2051
G01 X4.9019 Y-59.2513
G01 X4.8810 Y-59.2957
G01 X4.8557 Y-59.3378
G01 X4.8265 Y-59.3772
G01 X4.7936 Y-59.4136
G01 X4.7572 Y-59.4465
G01 X4.7178 Y-59.4757
G01 X4.6757 Y-59.5010
G01 X4.6313 Y-59.5219
G01 X4.5851 Y-59.5385
G01 X4.5375 Y-59.5504
G01 X4.4890 Y-59.5576
G01 X4.4400 Y-59.5600
G01 X4.3910 Y-59.5576
G01 X4.3425 Y-59.5504
G01 X4.2949 Y-59.5385
G01 X4.2487 Y-59.5219
G01 X4.2043 Y-59.5010
G01 X4.1622 Y-59.4757
G01 X4.1228 Y-59.4465
G01 X4.0864 Y-59.4136
G01 X4.0535 Y-59.3772
G01 X4.0243 Y-59.3378
G01 X3.9990 Y-59.2957
G01 X3.9781 Y-59.2513
G01 X3.9615 Y-59.2051
G01 X3.9496 Y-59.1575
G01 X3.9424 Y-59.1090
G01 X3.9400 Y-59.0600
G01 X3.9424 Y-59.0110
G01 X3.9496 Y-58.9625
G01 X3.9615 Y-58.9149
G01 X3.9781 Y-58.8687
G01 X3.9990 Y-58.8243
G01 X4.0243 Y-58.7822
G01 X4.0535 Y-58.7428
G01 X4.0864 Y-58.7064
G01 X4.1228 Y-58.6735
G01 X4.1622 Y-58.6443
G01 X4.2043 Y-58.6190
G01 X4.2487 Y-58.5981
G01 X4.2949 Y-58.5815
G01 X4.3425 Y-58.5696
G01 X4.3910 Y-58.5624
G01 X4.4400 Y-58.5600
G01 X4.4890 Y-58.5624
G01 X4.5375 Y-58.5696
G01 X4.5851 Y-58.5815
G01 X4.6313 Y-58.5981
G01 X4.6757 Y-58.6190
G01 X4.7178 Y-58.6443
G01 X4.7572 Y-58.6735
G01 X4.7936 Y-58.7064
G01 X4.8265 Y-58.7428
G01 X4.8557 Y-58.7822
G01 X4.8810 Y-58.8243
G01 X4.9019 Y-58.8687
G01 X4.9185 Y-58.9149
G01 X4.9304 Y-58.9625
G01 X4.9376 Y-59.0110
G01 X4.9400 Y-59.0600
G00 X4.9400 Y-59.0600
G01 F60.00
G01 Z-0.2000
G01 F120.00
G01 X4.9376 Y-59.1090
G01 X4.9304 Y-59.1575
G01 X4.9185 Y-59.2051
G01 X4.9019 Y-59.2513
G01 X4.8810 Y-59.2957
G01 X4.8557 Y-59.3378
G01 X4.8265 Y-59.3772
G01 X4.7936 Y-59.4136
G01 X4.7572 Y-59.4465
G01 X4.7178 Y-59.4757
G01 X4.6757 Y-59.5010
G01 X4.6313 Y-59.5219
G01 X4.5851 Y-59.5385
G01 X4.5375 Y-59.5504
G01 X4.4890 Y-59.5576
G01 X4.4400 Y-59.5600
G01 X4.3910 Y-59.5576
G01 X4.3425 Y-59.5504
G01 X4.2949 Y-59.5385
G01 X4.2487 Y-59.5219
G01 X4.2043 Y-59.5010
G01 X4.1622 Y-59.4757
G01 X4.1228 Y-59.4465
G01 X4.0864 Y-59.4136
G01 X4.0535 Y-59.3772
G01 X4.0243 Y-59.3378
G01 X3.9990 Y-59.2957
G01 X3.9781 Y-59.2513
G01 X3.9615 Y-59.2051
G01 X3.9496 Y-59.1575
G01 X3.9424 Y-59.1090
G01 X3.9400 Y-59.0600
G01 X3.9424 Y-59.0110
G01 X3.9496 Y-58.9625
G01 X3.9615 Y-58.9149
G01 X3.9781 Y-58.8687
G01 X3.9990 Y-58.8243
G01 X4.0243 Y-58.7822
G01 X4.0535 Y-58.7428
G01 X4.0864 Y-58.7064
G01 X4.1228 Y-58.6735
G01 X4.1622 Y-58.6443
G01 X4.2043 Y-58.6190
G01 X4.2487 Y-58.5981
G01 X4.2949 Y-58.5815
G01 X4.3425 Y-58.5696
G01 X4.3910 Y-58.5624
G01 X4.4400 Y-58.5600
G01 X4.4890 Y-58.5624
G01 X4.5375 Y-58.5696
G01 X4.5851 Y-58.5815
G01 X4.6313 Y-58.5981
G01 X4.6757 Y-58.6190
G01 X4.7178 Y-58.6443
G01 X4.7572 Y-58.6735
G01 X4.7936 Y-58.7064
G01 X4.8265 Y-58.7428
G01 X4.8557 Y-58.7822
G01 X4.8810 Y-58.8243
G01 X4.9019 Y-58.8687
G01 X4.9185 Y-58.9149
G01 X4.9304 Y-58.9625
G01 X4.9376 Y-59.0110
G01 X4.9400 Y-59.0600
G00 X4.9400 Y-59.0600
G01 F60.00
G01 Z-0.3000
G01 F120.00
G01 X4.9376 Y-59.1090
G01 X4.9304 Y-59.1575
G01 X4.9185 Y-59.2051
G01 X4.9019 Y-59.2513
G01 X4.8810 Y-59.2957
G01 X4.8557 Y-59.3378
G01 X4.8265 Y-59.3772
G01 X4.7936 Y-59.4136
G01 X4.7572 Y-59.4465
G01 X4.7178 Y-59.4757
G01 X4.6757 Y-59.5010
G01 X4.6313 Y-59.5219
G01 X4.5851 Y-59.5385
G01 X4.5375 Y-59.5504
G01 X4.4890 Y-59.5576
G01 X4.4400 Y-59.5600
G01 X4.3910 Y-59.5576
G01 X4.3425 Y-59.5504
G01 X4.2949 Y-59.5385
G01 X4.2487 Y-59.5219
G01 X4.2043 Y-59.5010
G01 X4.1622 Y-59.4757
G01 X4.1228 Y-59.4465
G01 X4.0864 Y-59.4136
G01 X4.0535 Y-59.3772
G01 X4.0243 Y-59.3378
G01 X3.9990 Y-59.2957
G01 X3.9781 Y-59.2513
G01 X3.9615 Y-59.2051
G01 X3.9496 Y-59.1575
G01 X3.9424 Y-59.1090
G01 X3.9400 Y-59.0600
G01 X3.9424 Y-59.0110
G01 X3.9496 Y-58.9625
G01 X3.9615 Y-58.9149
G01 X3.9781 Y-58.8687
G01 X3.9990 Y-58.8243
G01 X4.0243 Y-58.7822
G01 X4.0535 Y-58.7428
G01 X4.0864 Y-58.7064
G01 X4.1228 Y-58.6735
G01 X4.1622 Y-58.6443
G01 X4.2043 Y-58.6190
G01 X4.2487 Y-58.5981
G01 X4.2949 Y-58.5815
G01 X4.3425 Y-58.5696
G01 X4.3910 Y-58.5624
G01 X4.4400 Y-58.5600
G01 X4.4890 Y-58.5624
G01 X4.5375 Y-58.5696
G01 X4.5851 Y-58.5815
G01 X4.6313 Y-58.5981
G01 X4.6757 Y-58.6190
G01 X4.7178 Y-58.6443
G01 X4.7572 Y-58.6735
G01 X4.7936 Y-58.7064
G01 X4.8265 Y-58.7428
G01 X4.8557 Y-58.7822
G01 X4.8810 Y-58.8243
G01 X4.9019 Y-58.8687
G01 X4.9185 Y-58.9149
G01 X4.9304 Y-58.9625
G01 X4.9376 Y-59.0110
G01 X4.9400 Y-59.0600
G00 X4.9400 Y-59.0600
G01 F60.00
G01 Z-0.4000
G01 F120.00
G01 X4.9376 Y-59.1090
G01 X4.9304 Y-59.1575
G01 X4.9185 Y-59.2051
G01 X4.9019 Y-59.2513
G01 X4.8810 Y-59.2957
G01 X4.8557 Y-59.3378
G01 X4.8265 Y-59.3772
G01 X4.7936 Y-59.4136
G01 X4.7572 Y-59.4465
G01 X4.7178 Y-59.4757
G01 X4.6757 Y-59.5010
G01 X4.6313 Y-59.5219
G01 X4.5851 Y-59.5385
G01 X4.5375 Y-59.5504
G01 X4.4890 Y-59.5576
G01 X4.4400 Y-59.5600
G01 X4.3910 Y-59.5576
G01 X4.3425 Y-59.5504
G01 X4.2949 Y-59.5385
G01 X4.2487 Y-59.5219
G01 X4.2043 Y-59.5010
G01 X4.1622 Y-59.4757
G01 X4.1228 Y-59.4465
G01 X4.0864 Y-59.4136
G01 X4.0535 Y-59.3772
G01 X4.0243 Y-59.3378
G01 X3.9990 Y-59.2957
G01 X3.9781 Y-59.2513
G01 X3.9615 Y-59.2051
G01 X3.9496 Y-59.1575
G01 X3.9424 Y-59.1090
G01 X3.9400 Y-59.0600
G01 X3.9424 Y-59.0110
G01 X3.9496 Y-58.9625
G01 X3.9615 Y-58.9149
G01 X3.9781 Y-58.8687
G01 X3.9990 Y-58.8243
G01 X4.0243 Y-58.7822
G01 X4.0535 Y-58.7428
G01 X4.0864 Y-58.7064
G01 X4.1228 Y-58.6735
G01 X4.1622 Y-58.6443
G01 X4.2043 Y-58.6190
G01 X4.2487 Y-58.5981
G01 X4.2949 Y-58.5815
G01 X4.3425 Y-58.5696
G01 X4.3910 Y-58.5624
G01 X4.4400 Y-58.5600
G01 X4.4890 Y-58.5624
G01 X4.5375 Y-58.5696
G01 X4.5851 Y-58.5815
G01 X4.6313 Y-58.5981
G01 X4.6757 Y-58.6190
G01 X4.7178 Y-58.6443
G01 X4.7572 Y-58.6735
G01 X4.7936 Y-58.7064
G01 X4.8265 Y-58.7428
G01 X4.8557 Y-58.7822
G01 X4.8810 Y-58.8243
G01 X4.9019 Y-58.8687
G01 X4.9185 Y-58.9149
G01 X4.9304 Y-58.9625
G01 X4.9376 Y-59.0110
G01 X4.9400 Y-59.0600
G00 X4.9400 Y-59.0600
G01 F60.00
G01 Z-0.5000
G01 F120.00
G01 X4.9376 Y-59.1090
G01 X4.9304 Y-59.1575
G01 X4.9185 Y-59.2051
G01 X4.9019 Y-59.2513
G01 X4.8810 Y-59.2957
G01 X4.8557 Y-59.3378
G01 X4.8265 Y-59.3772
G01 X4.7936 Y-59.4136
G01 X4.7572 Y-59.4465
G01 X4.7178 Y-59.4757
G01 X4.6757 Y-59.5010
G01 X4.6313 Y-59.5219
G01 X4.5851 Y-59.5385
G01 X4.5375 Y-59.5504
G01 X4.4890 Y-59.5576
G01 X4.4400 Y-59.5600
G01 X4.3910 Y-59.5576
G01 X4.3425 Y-59.5504
G01 X4.2949 Y-59.5385
G01 X4.2487 Y-59.5219
G01 X4.2043 Y-59.5010
G01 X4.1622 Y-59.4757
G01 X4.1228 Y-59.4465
G01 X4.0864 Y-59.4136
G01 X4.0535 Y-59.3772
G01 X4.0243 Y-59.3378
G01 X3.9990 Y-59.2957
G01 X3.9781 Y-59.2513
G01 X3.9615 Y-59.2051
G01 X3.9496 Y-59.1575
G01 X3.9424 Y-59.1090
G01 X3.9400 Y-59.0600
G01 X3.9424 Y-59.0110
G01 X3.9496 Y-58.9625
G01 X3.9615 Y-58.9149
G01 X3.9781 Y-58.8687
G01 X3.9990 Y-58.8243
G01 X4.0243 Y-58.7822
G01 X4.0535 Y-58.7428
G01 X4.0864 Y-58.7064
G01 X4.1228 Y-58.6735
G01 X4.1622 Y-58.6443
G01 X4.2043 Y-58.6190
G01 X4.2487 Y-58.5981
G01 X4.2949 Y-58.5815
G01 X4.3425 Y-58.5696
G01 X4.3910 Y-58.5624
G01 X4.4400 Y-58.5600
G01 X4.4890 Y-58.5624
G01 X4.5375 Y-58.5696
G01 X4.5851 Y-58.5815
G01 X4.6313 Y-58.5981
G01 X4.6757 Y-58.6190
G01 X4.7178 Y-58.6443
G01 X4.7572 Y-58.6735
G01 X4.7936 Y-58.7064
G01 X4.8265 Y-58.7428
G01 X4.8557 Y-58.7822
G01 X4.8810 Y-58.8243
G01 X4.9019 Y-58.8687
G01 X4.9185 Y-58.9149
G01 X4.9304 Y-58.9625
G01 X4.9376 Y-59.0110
G01 X4.9400 Y-59.0600
G00 X4.9400 Y-59.0600
G01 F60.00
G01 Z-0.6000
G01 F120.00
G01 X4.9376 Y-59.1090
G01 X4.9304 Y-59.1575
G01 X4.9185 Y-59.2051
G01 X4.9019 Y-59.2513
G01 X4.8810 Y-59.2957
G01 X4.8557 Y-59.3378
G01 X4.8265 Y-59.3772
G01 X4.7936 Y-59.4136
G01 X4.7572 Y-59.4465
G01 X4.7178 Y-59.4757
G01 X4.6757 Y-59.5010
G01 X4.6313 Y-59.5219
G01 X4.5851 Y-59.5385
G01 X4.5375 Y-59.5504
G01 X4.4890 Y-59.5576
G01 X4.4400 Y-59.5600
G01 X4.3910 Y-59.5576
G01 X4.3425 Y-59.5504
G01 X4.2949 Y-59.5385
G01 X4.2487 Y-59.5219
G01 X4.2043 Y-59.5010
G01 X4.1622 Y-59.4757
G01 X4.1228 Y-59.4465
G01 X4.0864 Y-59.4136
G01 X4.0535 Y-59.3772
G01 X4.0243 Y-59.3378
G01 X3.9990 Y-59.2957
G01 X3.9781 Y-59.2513
G01 X3.9615 Y-59.2051
G01 X3.9496 Y-59.1575
G01 X3.9424 Y-59.1090
G01 X3.9400 Y-59.0600
G01 X3.9424 Y-59.0110
G01 X3.9496 Y-58.9625
G01 X3.9615 Y-58.9149
G01 X3.9781 Y-58.8687
G01 X3.9990 Y-58.8243
G01 X4.0243 Y-58.7822
G01 X4.0535 Y-58.7428
G01 X4.0864 Y-58.7064
G01 X4.1228 Y-58.6735
G01 X4.1622 Y-58.6443
G01 X4.2043 Y-58.6190
G01 X4.2487 Y-58.5981
G01 X4.2949 Y-58.5815
G01 X4.3425 Y-58.5696
G01 X4.3910 Y-58.5624
G01 X4.4400 Y-58.5600
G01 X4.4890 Y-58.5624
G01 X4.5375 Y-58.5696
G01 X4.5851 Y-58.5815
G01 X4.6313 Y-58.5981
G01 X4.6757 Y-58.6190
G01 X4.7178 Y-58.6443
G01 X4.7572 Y-58.6735
G01 X4.7936 Y-58.7064
G01 X4.8265 Y-58.7428
G01 X4.8557 Y-58.7822
G01 X4.8810 Y-58.8243
G01 X4.9019 Y-58.8687
G01 X4.9185 Y-58.9149
G01 X4.9304 Y-58.9625
G01 X4.9376 Y-59.0110
G01 X4.9400 Y-59.0600
G00 X4.9400 Y-59.0600
G01 F60.00
G01 Z-0.7000
G01 F120.00
G01 X4.9376 Y-59.1090
G01 X4.9304 Y-59.1575
G01 X4.9185 Y-59.2051
G01 X4.9019 Y-59.2513
G01 X4.8810 Y-59.2957
G01 X4.8557 Y-59.3378
G01 X4.8265 Y-59.3772
G01 X4.7936 Y-59.4136
G01 X4.7572 Y-59.4465
G01 X4.7178 Y-59.4757
G01 X4.6757 Y-59.5010
G01 X4.6313 Y-59.5219
G01 X4.5851 Y-59.5385
G01 X4.5375 Y-59.5504
G01 X4.4890 Y-59.5576
G01 X4.4400 Y-59.5600
G01 X4.3910 Y-59.5576
G01 X4.3425 Y-59.5504
G01 X4.2949 Y-59.5385
G01 X4.2487 Y-59.5219
G01 X4.2043 Y-59.5010
G01 X4.1622 Y-59.4757
G01 X4.1228 Y-59.4465
G01 X4.0864 Y-59.4136
G01 X4.0535 Y-59.3772
G01 X4.0243 Y-59.3378
G01 X3.9990 Y-59.2957
G01 X3.9781 Y-59.2513
G01 X3.9615 Y-59.2051
G01 X3.9496 Y-59.1575
G01 X3.9424 Y-59.1090
G01 X3.9400 Y-59.0600
G01 X3.9424 Y-59.0110
G01 X3.9496 Y-58.9625
G01 X3.9615 Y-58.9149
G01 X3.9781 Y-58.8687
G01 X3.9990 Y-58.8243
G01 X4.0243 Y-58.7822
G01 X4.0535 Y-58.7428
G01 X4.0864 Y-58.7064
G01 X4.1228 Y-58.6735
G01 X4.1622 Y-58.6443
G01 X4.2043 Y-58.6190
G01 X4.2487 Y-58.5981
G01 X4.2949 Y-58.5815
G01 X4.3425 Y-58.5696
G01 X4.3910 Y-58.5624
G01 X4.4400 Y-58.5600
G01 X4.4890 Y-58.5624
G01 X4.5375 Y-58.5696
G01 X4.5851 Y-58.5815
G01 X4.6313 Y-58.5981
G01 X4.6757 Y-58.6190
G01 X4.7178 Y-58.6443
G01 X4.7572 Y-58.6735
G01 X4.7936 Y-58.7064
G01 X4.8265 Y-58.7428
G01 X4.8557 Y-58.7822
G01 X4.8810 Y-58.8243
G01 X4.9019 Y-58.8687
G01 X4.9185 Y-58.9149
G01 X4.9304 Y-58.9625
G01 X4.9376 Y-59.0110
G01 X4.9400 Y-59.0600
G00 X4.9400 Y-59.0600
G01 F60.00
G01 Z-0.8000
G01 F120.00
G01 X4.9376 Y-59.1090
G01 X4.9304 Y-59.1575
G01 X4.9185 Y-59.2051
G01 X4.9019 Y-59.2513
G01 X4.8810 Y-59.2957
G01 X4.8557 Y-59.3378
G01 X4.8265 Y-59.3772
G01 X4.7936 Y-59.4136
G01 X4.7572 Y-59.4465
G01 X4.7178 Y-59.4757
G01 X4.6757 Y-59.5010
G01 X4.6313 Y-59.5219
G01 X4.5851 Y-59.5385
G01 X4.5375 Y-59.5504
G01 X4.4890 Y-59.5576
G01 X4.4400 Y-59.5600
G01 X4.3910 Y-59.5576
G01 X4.3425 Y-59.5504
G01 X4.2949 Y-59.5385
G01 X4.2487 Y-59.5219
G01 X4.2043 Y-59.5010
G01 X4.1622 Y-59.4757
G01 X4.1228 Y-59.4465
G01 X4.0864 Y-59.4136
G01 X4.0535 Y-59.3772
G01 X4.0243 Y-59.3378
G01 X3.9990 Y-59.2957
G01 X3.9781 Y-59.2513
G01 X3.9615 Y-59.2051
G01 X3.9496 Y-59.1575
G01 X3.9424 Y-59.1090
G01 X3.9400 Y-59.0600
G01 X3.9424 Y-59.0110
G01 X3.9496 Y-58.9625
G01 X3.9615 Y-58.9149
G01 X3.9781 Y-58.8687
G01 X3.9990 Y-58.8243
G01 X4.0243 Y-58.7822
G01 X4.0535 Y-58.7428
G01 X4.0864 Y-58.7064
G01 X4.1228 Y-58.6735
G01 X4.1622 Y-58.6443
G01 X4.2043 Y-58.6190
G01 X4.2487 Y-58.5981
G01 X4.2949 Y-58.5815
G01 X4.3425 Y-58.5696
G01 X4.3910 Y-58.5624
G01 X4.4400 Y-58.5600
G01 X4.4890 Y-58.5624
G01 X4.5375 Y-58.5696
G01 X4.5851 Y-58.5815
G01 X4.6313 Y-58.5981
G01 X4.6757 Y-58.6190
G01 X4.7178 Y-58.6443
G01 X4.7572 Y-58.6735
G01 X4.7936 Y-58.7064
G01 X4.8265 Y-58.7428
G01 X4.8557 Y-58.7822
G01 X4.8810 Y-58.8243
G01 X4.9019 Y-58.8687
G01 X4.9185 Y-58.9149
G01 X4.9304 Y-58.9625
G01 X4.9376 Y-59.0110
G01 X4.9400 Y-59.0600
G00 X4.9400 Y-59.0600
G01 F60.00
G01 Z-0.9000
G01 F120.00
G01 X4.9376 Y-59.1090
G01 X4.9304 Y-59.1575
G01 X4.9185 Y-59.2051
G01 X4.9019 Y-59.2513
G01 X4.8810 Y-59.2957
G01 X4.8557 Y-59.3378
G01 X4.8265 Y-59.3772
G01 X4.7936 Y-59.4136
G01 X4.7572 Y-59.4465
G01 X4.7178 Y-59.4757
G01 X4.6757 Y-59.5010
G01 X4.6313 Y-59.5219
G01 X4.5851 Y-59.5385
G01 X4.5375 Y-59.5504
G01 X4.4890 Y-59.5576
G01 X4.4400 Y-59.5600
G01 X4.3910 Y-59.5576
G01 X4.3425 Y-59.5504
G01 X4.2949 Y-59.5385
G01 X4.2487 Y-59.5219
G01 X4.2043 Y-59.5010
G01 X4.1622 Y-59.4757
G01 X4.1228 Y-59.4465
G01 X4.0864 Y-59.4136
G01 X4.0535 Y-59.3772
G01 X4.0243 Y-59.3378
G01 X3.9990 Y-59.2957
G01 X3.9781 Y-59.2513
G01 X3.9615 Y-59.2051
G01 X3.9496 Y-59.1575
G01 X3.9424 Y-59.1090
G01 X3.9400 Y-59.0600
G01 X3.9424 Y-59.0110
G01 X3.9496 Y-58.9625
G01 X3.9615 Y-58.9149
G01 X3.9781 Y-58.8687
G01 X3.9990 Y-58.8243
G01 X4.0243 Y-58.7822
G01 X4.0535 Y-58.7428
G01 X4.0864 Y-58.7064
G01 X4.1228 Y-58.6735
G01 X4.1622 Y-58.6443
G01 X4.2043 Y-58.6190
G01 X4.2487 Y-58.5981
G01 X4.2949 Y-58.5815
G01 X4.3425 Y-58.5696
G01 X4.3910 Y-58.5624
G01 X4.4400 Y-58.5600
G01 X4.4890 Y-58.5624
G01 X4.5375 Y-58.5696
G01 X4.5851 Y-58.5815
G01 X4.6313 Y-58.5981
G01 X4.6757 Y-58.6190
G01 X4.7178 Y-58.6443
G01 X4.7572 Y-58.6735
G01 X4.7936 Y-58.7064
G01 X4.8265 Y-58.7428
G01 X4.8557 Y-58.7822
G01 X4.8810 Y-58.8243
G01 X4.9019 Y-58.8687
G01 X4.9185 Y-58.9149
G01 X4.9304 Y-58.9625
G01 X4.9376 Y-59.0110
G01 X4.9400 Y-59.0600
G00 X4.9400 Y-59.0600
G01 F60.00
G01 Z-1.0000
G01 F120.00
G01 X4.9376 Y-59.1090
G01 X4.9304 Y-59.1575
G01 X4.9185 Y-59.2051
G01 X4.9019 Y-59.2513
G01 X4.8810 Y-59.2957
G01 X4.8557 Y-59.3378
G01 X4.8265 Y-59.3772
G01 X4.7936 Y-59.4136
G01 X4.7572 Y-59.4465
G01 X4.7178 Y-59.4757
G01 X4.6757 Y-59.5010
G01 X4.6313 Y-59.5219
G01 X4.5851 Y-59.5385
G01 X4.5375 Y-59.5504
G01 X4.4890 Y-59.5576
G01 X4.4400 Y-59.5600
G01 X4.3910 Y-59.5576
G01 X4.3425 Y-59.5504
G01 X4.2949 Y-59.5385
G01 X4.2487 Y-59.5219
G01 X4.2043 Y-59.5010
G01 X4.1622 Y-59.4757
G01 X4.1228 Y-59.4465
G01 X4.0864 Y-59.4136
G01 X4.0535 Y-59.3772
G01 X4.0243 Y-59.3378
G01 X3.9990 Y-59.2957
G01 X3.9781 Y-59.2513
G01 X3.9615 Y-59.2051
G01 X3.9496 Y-59.1575
G01 X3.9424 Y-59.1090
G01 X3.9400 Y-59.0600
G01 X3.9424 Y-59.0110
G01 X3.9496 Y-58.9625
G01 X3.9615 Y-58.9149
G01 X3.9781 Y-58.8687
G01 X3.9990 Y-58.8243
G01 X4.0243 Y-58.7822
G01 X4.0535 Y-58.7428
G01 X4.0864 Y-58.7064
G01 X4.1228 Y-58.6735
G01 X4.1622 Y-58.6443
G01 X4.2043 Y-58.6190
G01 X4.2487 Y-58.5981
G01 X4.2949 Y-58.5815
G01 X4.3425 Y-58.5696
G01 X4.3910 Y-58.5624
G01 X4.4400 Y-58.5600
G01 X4.4890 Y-58.5624
G01 X4.5375 Y-58.5696
G01 X4.5851 Y-58.5815
G01 X4.6313 Y-58.5981
G01 X4.6757 Y-58.6190
G01 X4.7178 Y-58.6443
G01 X4.7572 Y-58.6735
G01 X4.7936 Y-58.7064
G01 X4.8265 Y-58.7428
G01 X4.8557 Y-58.7822
G01 X4.8810 Y-58.8243
G01 X4.9019 Y-58.8687
G01 X4.9185 Y-58.9149
G01 X4.9304 Y-58.9625
G01 X4.9376 Y-59.0110
G01 X4.9400 Y-59.0600
G00 X4.9400 Y-59.0600
G01 F60.00
G01 Z-1.1000
G01 F120.00
G01 X4.9376 Y-59.1090
G01 X4.9304 Y-59.1575
G01 X4.9185 Y-59.2051
G01 X4.9019 Y-59.2513
G01 X4.8810 Y-59.2957
G01 X4.8557 Y-59.3378
G01 X4.8265 Y-59.3772
G01 X4.7936 Y-59.4136
G01 X4.7572 Y-59.4465
G01 X4.7178 Y-59.4757
G01 X4.6757 Y-59.5010
G01 X4.6313 Y-59.5219
G01 X4.5851 Y-59.5385
G01 X4.5375 Y-59.5504
G01 X4.4890 Y-59.5576
G01 X4.4400 Y-59.5600
G01 X4.3910 Y-59.5576
G01 X4.3425 Y-59.5504
G01 X4.2949 Y-59.5385
G01 X4.2487 Y-59.5219
G01 X4.2043 Y-59.5010
G01 X4.1622 Y-59.4757
G01 X4.1228 Y-59.4465
G01 X4.0864 Y-59.4136
G01 X4.0535 Y-59.3772
G01 X4.0243 Y-59.3378
G01 X3.9990 Y-59.2957
G01 X3.9781 Y-59.2513
G01 X3.9615 Y-59.2051
G01 X3.9496 Y-59.1575
G01 X3.9424 Y-59.1090
G01 X3.9400 Y-59.0600
G01 X3.9424 Y-59.0110
G01 X3.9496 Y-58.9625
G01 X3.9615 Y-58.9149
G01 X3.9781 Y-58.8687
G01 X3.9990 Y-58.8243
G01 X4.0243 Y-58.7822
G01 X4.0535 Y-58.7428
G01 X4.0864 Y-58.7064
G01 X4.1228 Y-58.6735
G01 X4.1622 Y-58.6443
G01 X4.2043 Y-58.6190
G01 X4.2487 Y-58.5981
G01 X4.2949 Y-58.5815
G01 X4.3425 Y-58.5696
G01 X4.3910 Y-58.5624
G01 X4.4400 Y-58.5600
G01 X4.4890 Y-58.5624
G01 X4.5375 Y-58.5696
G01 X4.5851 Y-58.5815
G01 X4.6313 Y-58.5981
G01 X4.6757 Y-58.6190
G01 X4.7178 Y-58.6443
G01 X4.7572 Y-58.6735
G01 X4.7936 Y-58.7064
G01 X4.8265 Y-58.7428
G01 X4.8557 Y-58.7822
G01 X4.8810 Y-58.8243
G01 X4.9019 Y-58.8687
G01 X4.9185 Y-58.9149
G01 X4.9304 Y-58.9625
G01 X4.9376 Y-59.0110
G01 X4.9400 Y-59.0600
G00 X4.9400 Y-59.0600
G01 F60.00
G01 Z-1.2000
G01 F120.00
G01 X4.9376 Y-59.1090
G01 X4.9304 Y-59.1575
G01 X4.9185 Y-59.2051
G01 X4.9019 Y-59.2513
G01 X4.8810 Y-59.2957
G01 X4.8557 Y-59.3378
G01 X4.8265 Y-59.3772
G01 X4.7936 Y-59.4136
G01 X4.7572 Y-59.4465
G01 X4.7178 Y-59.4757
G01 X4.6757 Y-59.5010
G01 X4.6313 Y-59.5219
G01 X4.5851 Y-59.5385
G01 X4.5375 Y-59.5504
G01 X4.4890 Y-59.5576
G01 X4.4400 Y-59.5600
G01 X4.3910 Y-59.5576
G01 X4.3425 Y-59.5504
G01 X4.2949 Y-59.5385
G01 X4.2487 Y-59.5219
G01 X4.2043 Y-59.5010
G01 X4.1622 Y-59.4757
G01 X4.1228 Y-59.4465
G01 X4.0864 Y-59.4136
G01 X4.0535 Y-59.3772
G01 X4.0243 Y-59.3378
G01 X3.9990 Y-59.2957
G01 X3.9781 Y-59.2513
G01 X3.9615 Y-59.2051
G01 X3.9496 Y-59.1575
G01 X3.9424 Y-59.1090
G01 X3.9400 Y-59.0600
G01 X3.9424 Y-59.0110
G01 X3.9496 Y-58.9625
G01 X3.9615 Y-58.9149
G01 X3.9781 Y-58.8687
G01 X3.9990 Y-58.8243
G01 X4.0243 Y-58.7822
G01 X4.0535 Y-58.7428
G01 X4.0864 Y-58.7064
G01 X4.1228 Y-58.6735
G01 X4.1622 Y-58.6443
G01 X4.2043 Y-58.6190
G01 X4.2487 Y-58.5981
G01 X4.2949 Y-58.5815
G01 X4.3425 Y-58.5696
G01 X4.3910 Y-58.5624
G01 X4.4400 Y-58.5600
G01 X4.4890 Y-58.5624
G01 X4.5375 Y-58.5696
G01 X4.5851 Y-58.5815
G01 X4.6313 Y-58.5981
G01 X4.6757 Y-58.6190
G01 X4.7178 Y-58.6443
G01 X4.7572 Y-58.6735
G01 X4.7936 Y-58.7064
G01 X4.8265 Y-58.7428
G01 X4.8557 Y-58.7822
G01 X4.8810 Y-58.8243
G01 X4.9019 Y-58.8687
G01 X4.9185 Y-58.9149
G01 X4.9304 Y-58.9625
G01 X4.9376 Y-59.0110
G01 X4.9400 Y-59.0600
G00 X4.9400 Y-59.0600
G01 F60.00
G01 Z-1.3000
G01 F120.00
G01 X4.9376 Y-59.1090
G01 X4.9304 Y-59.1575
G01 X4.9185 Y-59.2051
G01 X4.9019 Y-59.2513
G01 X4.8810 Y-59.2957
G01 X4.8557 Y-59.3378
G01 X4.8265 Y-59.3772
G01 X4.7936 Y-59.4136
G01 X4.7572 Y-59.4465
G01 X4.7178 Y-59.4757
G01 X4.6757 Y-59.5010
G01 X4.6313 Y-59.5219
G01 X4.5851 Y-59.5385
G01 X4.5375 Y-59.5504
G01 X4.4890 Y-59.5576
G01 X4.4400 Y-59.5600
G01 X4.3910 Y-59.5576
G01 X4.3425 Y-59.5504
G01 X4.2949 Y-59.5385
G01 X4.2487 Y-59.5219
G01 X4.2043 Y-59.5010
G01 X4.1622 Y-59.4757
G01 X4.1228 Y-59.4465
G01 X4.0864 Y-59.4136
G01 X4.0535 Y-59.3772
G01 X4.0243 Y-59.3378
G01 X3.9990 Y-59.2957
G01 X3.9781 Y-59.2513
G01 X3.9615 Y-59.2051
G01 X3.9496 Y-59.1575
G01 X3.9424 Y-59.1090
G01 X3.9400 Y-59.0600
G01 X3.9424 Y-59.0110
G01 X3.9496 Y-58.9625
G01 X3.9615 Y-58.9149
G01 X3.9781 Y-58.8687
G01 X3.9990 Y-58.8243
G01 X4.0243 Y-58.7822
G01 X4.0535 Y-58.7428
G01 X4.0864 Y-58.7064
G01 X4.1228 Y-58.6735
G01 X4.1622 Y-58.6443
G01 X4.2043 Y-58.6190
G01 X4.2487 Y-58.5981
G01 X4.2949 Y-58.5815
G01 X4.3425 Y-58.5696
G01 X4.3910 Y-58.5624
G01 X4.4400 Y-58.5600
G01 X4.4890 Y-58.5624
G01 X4.5375 Y-58.5696
G01 X4.5851 Y-58.5815
G01 X4.6313 Y-58.5981
G01 X4.6757 Y-58.6190
G01 X4.7178 Y-58.6443
G01 X4.7572 Y-58.6735
G01 X4.7936 Y-58.7064
G01 X4.8265 Y-58.7428
G01 X4.8557 Y-58.7822
G01 X4.8810 Y-58.8243
G01 X4.9019 Y-58.8687
G01 X4.9185 Y-58.9149
G01 X4.9304 Y-58.9625
G01 X4.9376 Y-59.0110
G01 X4.9400 Y-59.0600
G00 X4.9400 Y-59.0600
G01 F60.00
G01 Z-1.4000
G01 F120.00
G01 X4.9376 Y-59.1090
G01 X4.9304 Y-59.1575
G01 X4.9185 Y-59.2051
G01 X4.9019 Y-59.2513
G01 X4.8810 Y-59.2957
G01 X4.8557 Y-59.3378
G01 X4.8265 Y-59.3772
G01 X4.7936 Y-59.4136
G01 X4.7572 Y-59.4465
G01 X4.7178 Y-59.4757
G01 X4.6757 Y-59.5010
G01 X4.6313 Y-59.5219
G01 X4.5851 Y-59.5385
G01 X4.5375 Y-59.5504
G01 X4.4890 Y-59.5576
G01 X4.4400 Y-59.5600
G01 X4.3910 Y-59.5576
G01 X4.3425 Y-59.5504
G01 X4.2949 Y-59.5385
G01 X4.2487 Y-59.5219
G01 X4.2043 Y-59.5010
G01 X4.1622 Y-59.4757
G01 X4.1228 Y-59.4465
G01 X4.0864 Y-59.4136
G01 X4.0535 Y-59.3772
G01 X4.0243 Y-59.3378
G01 X3.9990 Y-59.2957
G01 X3.9781 Y-59.2513
G01 X3.9615 Y-59.2051
G01 X3.9496 Y-59.1575
G01 X3.9424 Y-59.1090
G01 X3.9400 Y-59.0600
G01 X3.9424 Y-59.0110
G01 X3.9496 Y-58.9625
G01 X3.9615 Y-58.9149
G01 X3.9781 Y-58.8687
G01 X3.9990 Y-58.8243
G01 X4.0243 Y-58.7822
G01 X4.0535 Y-58.7428
G01 X4.0864 Y-58.7064
G01 X4.1228 Y-58.6735
G01 X4.1622 Y-58.6443
G01 X4.2043 Y-58.6190
G01 X4.2487 Y-58.5981
G01 X4.2949 Y-58.5815
G01 X4.3425 Y-58.5696
G01 X4.3910 Y-58.5624
G01 X4.4400 Y-58.5600
G01 X4.4890 Y-58.5624
G01 X4.5375 Y-58.5696
G01 X4.5851 Y-58.5815
G01 X4.6313 Y-58.5981
G01 X4.6757 Y-58.6190
G01 X4.7178 Y-58.6443
G01 X4.7572 Y-58.6735
G01 X4.7936 Y-58.7064
G01 X4.8265 Y-58.7428
G01 X4.8557 Y-58.7822
G01 X4.8810 Y-58.8243
G01 X4.9019 Y-58.8687
G01 X4.9185 Y-58.9149
G01 X4.9304 Y-58.9625
G01 X4.9376 Y-59.0110
G01 X4.9400 Y-59.0600
G00 X4.9400 Y-59.0600
G01 F60.00
G01 Z-1.5000
G01 F120.00
G01 X4.9376 Y-59.1090
G01 X4.9304 Y-59.1575
G01 X4.9185 Y-59.2051
G01 X4.9019 Y-59.2513
G01 X4.8810 Y-59.2957
G01 X4.8557 Y-59.3378
G01 X4.8265 Y-59.3772
G01 X4.7936 Y-59.4136
G01 X4.7572 Y-59.4465
G01 X4.7178 Y-59.4757
G01 X4.6757 Y-59.5010
G01 X4.6313 Y-59.5219
G01 X4.5851 Y-59.5385
G01 X4.5375 Y-59.5504
G01 X4.4890 Y-59.5576
G01 X4.4400 Y-59.5600
G01 X4.3910 Y-59.5576
G01 X4.3425 Y-59.5504
G01 X4.2949 Y-59.5385
G01 X4.2487 Y-59.5219
G01 X4.2043 Y-59.5010
G01 X4.1622 Y-59.4757
G01 X4.1228 Y-59.4465
G01 X4.0864 Y-59.4136
G01 X4.0535 Y-59.3772
G01 X4.0243 Y-59.3378
G01 X3.9990 Y-59.2957
G01 X3.9781 Y-59.2513
G01 X3.9615 Y-59.2051
G01 X3.9496 Y-59.1575
G01 X3.9424 Y-59.1090
G01 X3.9400 Y-59.0600
G01 X3.9424 Y-59.0110
G01 X3.9496 Y-58.9625
G01 X3.9615 Y-58.9149
G01 X3.9781 Y-58.8687
G01 X3.9990 Y-58.8243
G01 X4.0243 Y-58.7822
G01 X4.0535 Y-58.7428
G01 X4.0864 Y-58.7064
G01 X4.1228 Y-58.6735
G01 X4.1622 Y-58.6443
G01 X4.2043 Y-58.6190
G01 X4.2487 Y-58.5981
G01 X4.2949 Y-58.5815
G01 X4.3425 Y-58.5696
G01 X4.3910 Y-58.5624
G01 X4.4400 Y-58.5600
G01 X4.4890 Y-58.5624
G01 X4.5375 Y-58.5696
G01 X4.5851 Y-58.5815
G01 X4.6313 Y-58.5981
G01 X4.6757 Y-58.6190
G01 X4.7178 Y-58.6443
G01 X4.7572 Y-58.6735
G01 X4.7936 Y-58.7064
G01 X4.8265 Y-58.7428
G01 X4.8557 Y-58.7822
G01 X4.8810 Y-58.8243
G01 X4.9019 Y-58.8687
G01 X4.9185 Y-58.9149
G01 X4.9304 Y-58.9625
G01 X4.9376 Y-59.0110
G01 X4.9400 Y-59.0600
G00 X4.9400 Y-59.0600
G01 F60.00
G01 Z-1.6000
G01 F120.00
G01 X4.9376 Y-59.1090
G01 X4.9304 Y-59.1575
G01 X4.9185 Y-59.2051
G01 X4.9019 Y-59.2513
G01 X4.8810 Y-59.2957
G01 X4.8557 Y-59.3378
G01 X4.8265 Y-59.3772
G01 X4.7936 Y-59.4136
G01 X4.7572 Y-59.4465
G01 X4.7178 Y-59.4757
G01 X4.6757 Y-59.5010
G01 X4.6313 Y-59.5219
G01 X4.5851 Y-59.5385
G01 X4.5375 Y-59.5504
G01 X4.4890 Y-59.5576
G01 X4.4400 Y-59.5600
G01 X4.3910 Y-59.5576
G01 X4.3425 Y-59.5504
G01 X4.2949 Y-59.5385
G01 X4.2487 Y-59.5219
G01 X4.2043 Y-59.5010
G01 X4.1622 Y-59.4757
G01 X4.1228 Y-59.4465
G01 X4.0864 Y-59.4136
G01 X4.0535 Y-59.3772
G01 X4.0243 Y-59.3378
G01 X3.9990 Y-59.2957
G01 X3.9781 Y-59.2513
G01 X3.9615 Y-59.2051
G01 X3.9496 Y-59.1575
G01 X3.9424 Y-59.1090
G01 X3.9400 Y-59.0600
G01 X3.9424 Y-59.0110
G01 X3.9496 Y-58.9625
G01 X3.9615 Y-58.9149
G01 X3.9781 Y-58.8687
G01 X3.9990 Y-58.8243
G01 X4.0243 Y-58.7822
G01 X4.0535 Y-58.7428
G01 X4.0864 Y-58.7064
G01 X4.1228 Y-58.6735
G01 X4.1622 Y-58.6443
G01 X4.2043 Y-58.6190
G01 X4.2487 Y-58.5981
G01 X4.2949 Y-58.5815
G01 X4.3425 Y-58.5696
G01 X4.3910 Y-58.5624
G01 X4.4400 Y-58.5600
G01 X4.4890 Y-58.5624
G01 X4.5375 Y-58.5696
G01 X4.5851 Y-58.5815
G01 X4.6313 Y-58.5981
G01 X4.6757 Y-58.6190
G01 X4.7178 Y-58.6443
G01 X4.7572 Y-58.6735
G01 X4.7936 Y-58.7064
G01 X4.8265 Y-58.7428
G01 X4.8557 Y-58.7822
G01 X4.8810 Y-58.8243
G01 X4.9019 Y-58.8687
G01 X4.9185 Y-58.9149
G01 X4.9304 Y-58.9625
G01 X4.9376 Y-59.0110
G01 X4.9400 Y-59.0600
G00 X4.9400 Y-59.0600
G01 F60.00
G01 Z-1.7000
G01 F120.00
G01 X4.9376 Y-59.1090
G01 X4.9304 Y-59.1575
G01 X4.9185 Y-59.2051
G01 X4.9019 Y-59.2513
G01 X4.8810 Y-59.2957
G01 X4.8557 Y-59.3378
G01 X4.8265 Y-59.3772
G01 X4.7936 Y-59.4136
G01 X4.7572 Y-59.4465
G01 X4.7178 Y-59.4757
G01 X4.6757 Y-59.5010
G01 X4.6313 Y-59.5219
G01 X4.5851 Y-59.5385
G01 X4.5375 Y-59.5504
G01 X4.4890 Y-59.5576
G01 X4.4400 Y-59.5600
G01 X4.3910 Y-59.5576
G01 X4.3425 Y-59.5504
G01 X4.2949 Y-59.5385
G01 X4.2487 Y-59.5219
G01 X4.2043 Y-59.5010
G01 X4.1622 Y-59.4757
G01 X4.1228 Y-59.4465
G01 X4.0864 Y-59.4136
G01 X4.0535 Y-59.3772
G01 X4.0243 Y-59.3378
G01 X3.9990 Y-59.2957
G01 X3.9781 Y-59.2513
G01 X3.9615 Y-59.2051
G01 X3.9496 Y-59.1575
G01 X3.9424 Y-59.1090
G01 X3.9400 Y-59.0600
G01 X3.9424 Y-59.0110
G01 X3.9496 Y-58.9625
G01 X3.9615 Y-58.9149
G01 X3.9781 Y-58.8687
G01 X3.9990 Y-58.8243
G01 X4.0243 Y-58.7822
G01 X4.0535 Y-58.7428
G01 X4.0864 Y-58.7064
G01 X4.1228 Y-58.6735
G01 X4.1622 Y-58.6443
G01 X4.2043 Y-58.6190
G01 X4.2487 Y-58.5981
G01 X4.2949 Y-58.5815
G01 X4.3425 Y-58.5696
G01 X4.3910 Y-58.5624
G01 X4.4400 Y-58.5600
G01 X4.4890 Y-58.5624
G01 X4.5375 Y-58.5696
G01 X4.5851 Y-58.5815
G01 X4.6313 Y-58.5981
G01 X4.6757 Y-58.6190
G01 X4.7178 Y-58.6443
G01 X4.7572 Y-58.6735
G01 X4.7936 Y-58.7064
G01 X4.8265 Y-58.7428
G01 X4.8557 Y-58.7822
G01 X4.8810 Y-58.8243
G01 X4.9019 Y-58.8687
G01 X4.9185 Y-58.9149
G01 X4.9304 Y-58.9625
G01 X4.9376 Y-59.0110
G01 X4.9400 Y-59.0600
G00 X4.9400 Y-59.0600
G01 F60.00
G01 Z-1.8000
G01 F120.00
G01 X4.9376 Y-59.1090
G01 X4.9304 Y-59.1575
G01 X4.9185 Y-59.2051
G01 X4.9019 Y-59.2513
G01 X4.8810 Y-59.2957
G01 X4.8557 Y-59.3378
G01 X4.8265 Y-59.3772
G01 X4.7936 Y-59.4136
G01 X4.7572 Y-59.4465
G01 X4.7178 Y-59.4757
G01 X4.6757 Y-59.5010
G01 X4.6313 Y-59.5219
G01 X4.5851 Y-59.5385
G01 X4.5375 Y-59.5504
G01 X4.4890 Y-59.5576
G01 X4.4400 Y-59.5600
G01 X4.3910 Y-59.5576
G01 X4.3425 Y-59.5504
G01 X4.2949 Y-59.5385
G01 X4.2487 Y-59.5219
G01 X4.2043 Y-59.5010
G01 X4.1622 Y-59.4757
G01 X4.1228 Y-59.4465
G01 X4.0864 Y-59.4136
G01 X4.0535 Y-59.3772
G01 X4.0243 Y-59.3378
G01 X3.9990 Y-59.2957
G01 X3.9781 Y-59.2513
G01 X3.9615 Y-59.2051
G01 X3.9496 Y-59.1575
G01 X3.9424 Y-59.1090
G01 X3.9400 Y-59.0600
G01 X3.9424 Y-59.0110
G01 X3.9496 Y-58.9625
G01 X3.9615 Y-58.9149
G01 X3.9781 Y-58.8687
G01 X3.9990 Y-58.8243
G01 X4.0243 Y-58.7822
G01 X4.0535 Y-58.7428
G01 X4.0864 Y-58.7064
G01 X4.1228 Y-58.6735
G01 X4.1622 Y-58.6443
G01 X4.2043 Y-58.6190
G01 X4.2487 Y-58.5981
G01 X4.2949 Y-58.5815
G01 X4.3425 Y-58.5696
G01 X4.3910 Y-58.5624
G01 X4.4400 Y-58.5600
G01 X4.4890 Y-58.5624
G01 X4.5375 Y-58.5696
G01 X4.5851 Y-58.5815
G01 X4.6313 Y-58.5981
G01 X4.6757 Y-58.6190
G01 X4.7178 Y-58.6443
G01 X4.7572 Y-58.6735
G01 X4.7936 Y-58.7064
G01 X4.8265 Y-58.7428
G01 X4.8557 Y-58.7822
G01 X4.8810 Y-58.8243
G01 X4.9019 Y-58.8687
G01 X4.9185 Y-58.9149
G01 X4.9304 Y-58.9625
G01 X4.9376 Y-59.0110
G01 X4.9400 Y-59.0600
G00 Z2.0000
G00 X71.7800 Y-31.7500
G01 F60.00
G01 Z-0.1000
G01 F120.00
G01 X71.7776 Y-31.7990
G01 X71.7704 Y-31.8475
G01 X71.7585 Y-31.8951
G01 X71.7419 Y-31.9413
G01 X71.7210 Y-31.9857
G01 X71.6957 Y-32.0278
G01 X71.6665 Y-32.0672
G01 X71.6336 Y-32.1036
G01 X71.5972 Y-32.1365
G01 X71.5578 Y-32.1657
G01 X71.5157 Y-32.1910
G01 X71.4713 Y-32.2119
G01 X71.4251 Y-32.2285
G01 X71.3775 Y-32.2404
G01 X71.3290 Y-32.2476
G01 X71.2800 Y-32.2500
G01 X71.2310 Y-32.2476
G01 X71.1825 Y-32.2404
G01 X71.1349 Y-32.2285
G01 X71.0887 Y-32.2119
G01 X71.0443 Y-32.1910
G01 X71.0022 Y-32.1657
G01 X70.9628 Y-32.1365
G01 X70.9264 Y-32.1036
G01 X70.8935 Y-32.0672
G01 X70.8643 Y-32.0278
G01 X70.8390 Y-31.9857
G01 X70.8181 Y-31.9413
G01 X70.8015 Y-31.8951
G01 X70.7896 Y-31.8475
G01 X70.7824 Y-31.7990
G01 X70.7800 Y-31.7500
G01 X70.7824 Y-31.7010
G01 X70.7896 Y-31.6525
G01 X70.8015 Y-31.6049
G01 X70.8181 Y-31.5587
G01 X70.8390 Y-31.5143
G01 X70.8643 Y-31.4722
G01 X70.8935 Y-31.4328
G01 X70.9264 Y-31.3964
G01 X70.9628 Y-31.3635
G01 X71.0022 Y-31.3343
G01 X71.0443 Y-31.3090
G01 X71.0887 Y-31.2881
G01 X71.1349 Y-31.2715
G01 X71.1825 Y-31.2596
G01 X71.2310 Y-31.2524
G01 X71.2800 Y-31.2500
G01 X71.3290 Y-31.2524
G01 X71.3775 Y-31.2596
G01 X71.4251 Y-31.2715
G01 X71.4713 Y-31.2881
G01 X71.5157 Y-31.3090
G01 X71.5578 Y-31.3343
G01 X71.5972 Y-31.3635
G01 X71.6336 Y-31.3964
G01 X71.6665 Y-31.4328
G01 X71.6957 Y-31.4722
G01 X71.7210 Y-31.5143
G01 X71.7419 Y-31.5587
G01 X71.7585 Y-31.6049
G01 X71.7704 Y-31.6525
G01 X71.7776 Y-31.7010
G01 X71.7800 Y-31.7500
G00 X71.7800 Y-31.7500
G01 F60.00
G01 Z-0.2000
G01 F120.00
G01 X71.7776 Y-31.7990
G01 X71.7704 Y-31.8475
G01 X71.7585 Y-31.8951
G01 X71.7419 Y-31.9413
G01 X71.7210 Y-31.9857
G01 X71.6957 Y-32.0278
G01 X71.6665 Y-32.0672
G01 X71.6336 Y-32.1036
G01 X71.5972 Y-32.1365
G01 X71.5578 Y-32.1657
G01 X71.5157 Y-32.1910
G01 X71.4713 Y-32.2119
G01 X71.4251 Y-32.2285
G01 X71.3775 Y-32.2404
G01 X71.3290 Y-32.2476
G01 X71.2800 Y-32.2500
G01 X71.2310 Y-32.2476
G01 X71.1825 Y-32.2404
G01 X71.1349 Y-32.2285
G01 X71.0887 Y-32.2119
G01 X71.0443 Y-32.1910
G01 X71.0022 Y-32.1657
G01 X70.9628 Y-32.1365
G01 X70.9264 Y-32.1036
G01 X70.8935 Y-32.0672
G01 X70.8643 Y-32.0278
G01 X70.8390 Y-31.9857
G01 X70.8181 Y-31.9413
G01 X70.8015 Y-31.8951
G01 X70.7896 Y-31.8475
G01 X70.7824 Y-31.7990
G01 X70.7800 Y-31.7500
G01 X70.7824 Y-31.7010
G01 X70.7896 Y-31.6525
G01 X70.8015 Y-31.6049
G01 X70.8181 Y-31.5587
G01 X70.8390 Y-31.5143
G01 X70.8643 Y-31.4722
G01 X70.8935 Y-31.4328
G01 X70.9264 Y-31.3964
G01 X70.9628 Y-31.3635
G01 X71.0022 Y-31.3343
G01 X71.0443 Y-31.3090
G01 X71.0887 Y-31.2881
G01 X71.1349 Y-31.2715
G01 X71.1825 Y-31.2596
G01 X71.2310 Y-31.2524
G01 X71.2800 Y-31.2500
G01 X71.3290 Y-31.2524
G01 X71.3775 Y-31.2596
G01 X71.4251 Y-31.2715
G01 X71.4713 Y-31.2881
G01 X71.5157 Y-31.3090
G01 X71.5578 Y-31.3343
G01 X71.5972 Y-31.3635
G01 X71.6336 Y-31.3964
G01 X71.6665 Y-31.4328
G01 X71.6957 Y-31.4722
G01 X71.7210 Y-31.5143
G01 X71.7419 Y-31.5587
G01 X71.7585 Y-31.6049
G01 X71.7704 Y-31.6525
G01 X71.7776 Y-31.7010
G01 X71.7800 Y-31.7500
G00 X71.7800 Y-31.7500
G01 F60.00
G01 Z-0.3000
G01 F120.00
G01 X71.7776 Y-31.7990
G01 X71.7704 Y-31.8475
G01 X71.7585 Y-31.8951
G01 X71.7419 Y-31.9413
G01 X71.7210 Y-31.9857
G01 X71.6957 Y-32.0278
G01 X71.6665 Y-32.0672
G01 X71.6336 Y-32.1036
G01 X71.5972 Y-32.1365
G01 X71.5578 Y-32.1657
G01 X71.5157 Y-32.1910
G01 X71.4713 Y-32.2119
G01 X71.4251 Y-32.2285
G01 X71.3775 Y-32.2404
G01 X71.3290 Y-32.2476
G01 X71.2800 Y-32.2500
G01 X71.2310 Y-32.2476
G01 X71.1825 Y-32.2404
G01 X71.1349 Y-32.2285
G01 X71.0887 Y-32.2119
G01 X71.0443 Y-32.1910
G01 X71.0022 Y-32.1657
G01 X70.9628 Y-32.1365
G01 X70.9264 Y-32.1036
G01 X70.8935 Y-32.0672
G01 X70.8643 Y-32.0278
G01 X70.8390 Y-31.9857
G01 X70.8181 Y-31.9413
G01 X70.8015 Y-31.8951
G01 X70.7896 Y-31.8475
G01 X70.7824 Y-31.7990
G01 X70.7800 Y-31.7500
G01 X70.7824 Y-31.7010
G01 X70.7896 Y-31.6525
G01 X70.8015 Y-31.6049
G01 X70.8181 Y-31.5587
G01 X70.8390 Y-31.5143
G01 X70.8643 Y-31.4722
G01 X70.8935 Y-31.4328
G01 X70.9264 Y-31.3964
G01 X70.9628 Y-31.3635
G01 X71.0022 Y-31.3343
G01 X71.0443 Y-31.3090
G01 X71.0887 Y-31.2881
G01 X71.1349 Y-31.2715
G01 X71.1825 Y-31.2596
G01 X71.2310 Y-31.2524
G01 X71.2800 Y-31.2500
G01 X71.3290 Y-31.2524
G01 X71.3775 Y-31.2596
G01 X71.4251 Y-31.2715
G01 X71.4713 Y-31.2881
G01 X71.5157 Y-31.3090
G01 X71.5578 Y-31.3343
G01 X71.5972 Y-31.3635
G01 X71.6336 Y-31.3964
G01 X71.6665 Y-31.4328
G01 X71.6957 Y-31.4722
G01 X71.7210 Y-31.5143
G01 X71.7419 Y-31.5587
G01 X71.7585 Y-31.6049
G01 X71.7704 Y-31.6525
G01 X71.7776 Y-31.7010
G01 X71.7800 Y-31.7500
G00 X71.7800 Y-31.7500
G01 F60.00
G01 Z-0.4000
G01 F120.00
G01 X71.7776 Y-31.7990
G01 X71.7704 Y-31.8475
G01 X71.7585 Y-31.8951
G01 X71.7419 Y-31.9413
G01 X71.7210 Y-31.9857
G01 X71.6957 Y-32.0278
G01 X71.6665 Y-32.0672
G01 X71.6336 Y-32.1036
G01 X71.5972 Y-32.1365
G01 X71.5578 Y-32.1657
G01 X71.5157 Y-32.1910
G01 X71.4713 Y-32.2119
G01 X71.4251 Y-32.2285
G01 X71.3775 Y-32.2404
G01 X71.3290 Y-32.2476
G01 X71.2800 Y-32.2500
G01 X71.2310 Y-32.2476
G01 X71.1825 Y-32.2404
G01 X71.1349 Y-32.2285
G01 X71.0887 Y-32.2119
G01 X71.0443 Y-32.1910
G01 X71.0022 Y-32.1657
G01 X70.9628 Y-32.1365
G01 X70.9264 Y-32.1036
G01 X70.8935 Y-32.0672
G01 X70.8643 Y-32.0278
G01 X70.8390 Y-31.9857
G01 X70.8181 Y-31.9413
G01 X70.8015 Y-31.8951
G01 X70.7896 Y-31.8475
G01 X70.7824 Y-31.7990
G01 X70.7800 Y-31.7500
G01 X70.7824 Y-31.7010
G01 X70.7896 Y-31.6525
G01 X70.8015 Y-31.6049
G01 X70.8181 Y-31.5587
G01 X70.8390 Y-31.5143
G01 X70.8643 Y-31.4722
G01 X70.8935 Y-31.4328
G01 X70.9264 Y-31.3964
G01 X70.9628 Y-31.3635
G01 X71.0022 Y-31.3343
G01 X71.0443 Y-31.3090
G01 X71.0887 Y-31.2881
G01 X71.1349 Y-31.2715
G01 X71.1825 Y-31.2596
G01 X71.2310 Y-31.2524
G01 X71.2800 Y-31.2500
G01 X71.3290 Y-31.2524
G01 X71.3775 Y-31.2596
G01 X71.4251 Y-31.2715
G01 X71.4713 Y-31.2881
G01 X71.5157 Y-31.3090
G01 X71.5578 Y-31.3343
G01 X71.5972 Y-31.3635
G01 X71.6336 Y-31.3964
G01 X71.6665 Y-31.4328
G01 X71.6957 Y-31.4722
G01 X71.7210 Y-31.5143
G01 X71.7419 Y-31.5587
G01 X71.7585 Y-31.6049
G01 X71.7704 Y-31.6525
G01 X71.7776 Y-31.7010
G01 X71.7800 Y-31.7500
G00 X71.7800 Y-31.7500
G01 F60.00
G01 Z-0.5000
G01 F120.00
G01 X71.7776 Y-31.7990
G01 X71.7704 Y-31.8475
G01 X71.7585 Y-31.8951
G01 X71.7419 Y-31.9413
G01 X71.7210 Y-31.9857
G01 X71.6957 Y-32.0278
G01 X71.6665 Y-32.0672
G01 X71.6336 Y-32.1036
G01 X71.5972 Y-32.1365
G01 X71.5578 Y-32.1657
G01 X71.5157 Y-32.1910
G01 X71.4713 Y-32.2119
G01 X71.4251 Y-32.2285
G01 X71.3775 Y-32.2404
G01 X71.3290 Y-32.2476
G01 X71.2800 Y-32.2500
G01 X71.2310 Y-32.2476
G01 X71.1825 Y-32.2404
G01 X71.1349 Y-32.2285
G01 X71.0887 Y-32.2119
G01 X71.0443 Y-32.1910
G01 X71.0022 Y-32.1657
G01 X70.9628 Y-32.1365
G01 X70.9264 Y-32.1036
G01 X70.8935 Y-32.0672
G01 X70.8643 Y-32.0278
G01 X70.8390 Y-31.9857
G01 X70.8181 Y-31.9413
G01 X70.8015 Y-31.8951
G01 X70.7896 Y-31.8475
G01 X70.7824 Y-31.7990
G01 X70.7800 Y-31.7500
G01 X70.7824 Y-31.7010
G01 X70.7896 Y-31.6525
G01 X70.8015 Y-31.6049
G01 X70.8181 Y-31.5587
G01 X70.8390 Y-31.5143
G01 X70.8643 Y-31.4722
G01 X70.8935 Y-31.4328
G01 X70.9264 Y-31.3964
G01 X70.9628 Y-31.3635
G01 X71.0022 Y-31.3343
G01 X71.0443 Y-31.3090
G01 X71.0887 Y-31.2881
G01 X71.1349 Y-31.2715
G01 X71.1825 Y-31.2596
G01 X71.2310 Y-31.2524
G01 X71.2800 Y-31.2500
G01 X71.3290 Y-31.2524
G01 X71.3775 Y-31.2596
G01 X71.4251 Y-31.2715
G01 X71.4713 Y-31.2881
G01 X71.5157 Y-31.3090
G01 X71.5578 Y-31.3343
G01 X71.5972 Y-31.3635
G01 X71.6336 Y-31.3964
G01 X71.6665 Y-31.4328
G01 X71.6957 Y-31.4722
G01 X71.7210 Y-31.5143
G01 X71.7419 Y-31.5587
G01 X71.7585 Y-31.6049
G01 X71.7704 Y-31.6525
G01 X71.7776 Y-31.7010
G01 X71.7800 Y-31.7500
G00 X71.7800 Y-31.7500
G01 F60.00
G01 Z-0.6000
G01 F120.00
G01 X71.7776 Y-31.7990
G01 X71.7704 Y-31.8475
G01 X71.7585 Y-31.8951
G01 X71.7419 Y-31.9413
G01 X71.7210 Y-31.9857
G01 X71.6957 Y-32.0278
G01 X71.6665 Y-32.0672
G01 X71.6336 Y-32.1036
G01 X71.5972 Y-32.1365
G01 X71.5578 Y-32.1657
G01 X71.5157 Y-32.1910
G01 X71.4713 Y-32.2119
G01 X71.4251 Y-32.2285
G01 X71.3775 Y-32.2404
G01 X71.3290 Y-32.2476
G01 X71.2800 Y-32.2500
G01 X71.2310 Y-32.2476
G01 X71.1825 Y-32.2404
G01 X71.1349 Y-32.2285
G01 X71.0887 Y-32.2119
G01 X71.0443 Y-32.1910
G01 X71.0022 Y-32.1657
G01 X70.9628 Y-32.1365
G01 X70.9264 Y-32.1036
G01 X70.8935 Y-32.0672
G01 X70.8643 Y-32.0278
G01 X70.8390 Y-31.9857
G01 X70.8181 Y-31.9413
G01 X70.8015 Y-31.8951
G01 X70.7896 Y-31.8475
G01 X70.7824 Y-31.7990
G01 X70.7800 Y-31.7500
G01 X70.7824 Y-31.7010
G01 X70.7896 Y-31.6525
G01 X70.8015 Y-31.6049
G01 X70.8181 Y-31.5587
G01 X70.8390 Y-31.5143
G01 X70.8643 Y-31.4722
G01 X70.8935 Y-31.4328
G01 X70.9264 Y-31.3964
G01 X70.9628 Y-31.3635
G01 X71.0022 Y-31.3343
G01 X71.0443 Y-31.3090
G01 X71.0887 Y-31.2881
G01 X71.1349 Y-31.2715
G01 X71.1825 Y-31.2596
G01 X71.2310 Y-31.2524
G01 X71.2800 Y-31.2500
G01 X71.3290 Y-31.2524
G01 X71.3775 Y-31.2596
G01 X71.4251 Y-31.2715
G01 X71.4713 Y-31.2881
G01 X71.5157 Y-31.3090
G01 X71.5578 Y-31.3343
G01 X71.5972 Y-31.3635
G01 X71.6336 Y-31.3964
G01 X71.6665 Y-31.4328
G01 X71.6957 Y-31.4722
G01 X71.7210 Y-31.5143
G01 X71.7419 Y-31.5587
G01 X71.7585 Y-31.6049
G01 X71.7704 Y-31.6525
G01 X71.7776 Y-31.7010
G01 X71.7800 Y-31.7500
G00 X71.7800 Y-31.7500
G01 F60.00
G01 Z-0.7000
G01 F120.00
G01 X71.7776 Y-31.7990
G01 X71.7704 Y-31.8475
G01 X71.7585 Y-31.8951
G01 X71.7419 Y-31.9413
G01 X71.7210 Y-31.9857
G01 X71.6957 Y-32.0278
G01 X71.6665 Y-32.0672
G01 X71.6336 Y-32.1036
G01 X71.5972 Y-32.1365
G01 X71.5578 Y-32.1657
G01 X71.5157 Y-32.1910
G01 X71.4713 Y-32.2119
G01 X71.4251 Y-32.2285
G01 X71.3775 Y-32.2404
G01 X71.3290 Y-32.2476
G01 X71.2800 Y-32.2500
G01 X71.2310 Y-32.2476
G01 X71.1825 Y-32.2404
G01 X71.1349 Y-32.2285
G01 X71.0887 Y-32.2119
G01 X71.0443 Y-32.1910
G01 X71.0022 Y-32.1657
G01 X70.9628 Y-32.1365
G01 X70.9264 Y-32.1036
G01 X70.8935 Y-32.0672
G01 X70.8643 Y-32.0278
G01 X70.8390 Y-31.9857
G01 X70.8181 Y-31.9413
G01 X70.8015 Y-31.8951
G01 X70.7896 Y-31.8475
G01 X70.7824 Y-31.7990
G01 X70.7800 Y-31.7500
G01 X70.7824 Y-31.7010
G01 X70.7896 Y-31.6525
G01 X70.8015 Y-31.6049
G01 X70.8181 Y-31.5587
G01 X70.8390 Y-31.5143
G01 X70.8643 Y-31.4722
G01 X70.8935 Y-31.4328
G01 X70.9264 Y-31.3964
G01 X70.9628 Y-31.3635
G01 X71.0022 Y-31.3343
G01 X71.0443 Y-31.3090
G01 X71.0887 Y-31.2881
G01 X71.1349 Y-31.2715
G01 X71.1825 Y-31.2596
G01 X71.2310 Y-31.2524
G01 X71.2800 Y-31.2500
G01 X71.3290 Y-31.2524
G01 X71.3775 Y-31.2596
G01 X71.4251 Y-31.2715
G01 X71.4713 Y-31.2881
G01 X71.5157 Y-31.3090
G01 X71.5578 Y-31.3343
G01 X71.5972 Y-31.3635
G01 X71.6336 Y-31.3964
G01 X71.6665 Y-31.4328
G01 X71.6957 Y-31.4722
G01 X71.7210 Y-31.5143
G01 X71.7419 Y-31.5587
G01 X71.7585 Y-31.6049
G01 X71.7704 Y-31.6525
G01 X71.7776 Y-31.7010
G01 X71.7800 Y-31.7500
G00 X71.7800 Y-31.7500
G01 F60.00
G01 Z-0.8000
G01 F120.00
G01 X71.7776 Y-31.7990
G01 X71.7704 Y-31.8475
G01 X71.7585 Y-31.8951
G01 X71.7419 Y-31.9413
G01 X71.7210 Y-31.9857
G01 X71.6957 Y-32.0278
G01 X71.6665 Y-32.0672
G01 X71.6336 Y-32.1036
G01 X71.5972 Y-32.1365
G01 X71.5578 Y-32.1657
G01 X71.5157 Y-32.1910
G01 X71.4713 Y-32.2119
G01 X71.4251 Y-32.2285
G01 X71.3775 Y-32.2404
G01 X71.3290 Y-32.2476
G01 X71.2800 Y-32.2500
G01 X71.2310 Y-32.2476
G01 X71.1825 Y-32.2404
G01 X71.1349 Y-32.2285
G01 X71.0887 Y-32.2119
G01 X71.0443 Y-32.1910
G01 X71.0022 Y-32.1657
G01 X70.9628 Y-32.1365
G01 X70.9264 Y-32.1036
G01 X70.8935 Y-32.0672
G01 X70.8643 Y-32.0278
G01 X70.8390 Y-31.9857
G01 X70.8181 Y-31.9413
G01 X70.8015 Y-31.8951
G01 X70.7896 Y-31.8475
G01 X70.7824 Y-31.7990
G01 X70.7800 Y-31.7500
G01 X70.7824 Y-31.7010
G01 X70.7896 Y-31.6525
G01 X70.8015 Y-31.6049
G01 X70.8181 Y-31.5587
G01 X70.8390 Y-31.5143
G01 X70.8643 Y-31.4722
G01 X70.8935 Y-31.4328
G01 X70.9264 Y-31.3964
G01 X70.9628 Y-31.3635
G01 X71.0022 Y-31.3343
G01 X71.0443 Y-31.3090
G01 X71.0887 Y-31.2881
G01 X71.1349 Y-31.2715
G01 X71.1825 Y-31.2596
G01 X71.2310 Y-31.2524
G01 X71.2800 Y-31.2500
G01 X71.3290 Y-31.2524
G01 X71.3775 Y-31.2596
G01 X71.4251 Y-31.2715
G01 X71.4713 Y-31.2881
G01 X71.5157 Y-31.3090
G01 X71.5578 Y-31.3343
G01 X71.5972 Y-31.3635
G01 X71.6336 Y-31.3964
G01 X71.6665 Y-31.4328
G01 X71.6957 Y-31.4722
G01 X71.7210 Y-31.5143
G01 X71.7419 Y-31.5587
G01 X71.7585 Y-31.6049
G01 X71.7704 Y-31.6525
G01 X71.7776 Y-31.7010
G01 X71.7800 Y-31.7500
G00 X71.7800 Y-31.7500
G01 F60.00
G01 Z-0.9000
G01 F120.00
G01 X71.7776 Y-31.7990
G01 X71.7704 Y-31.8475
G01 X71.7585 Y-31.8951
G01 X71.7419 Y-31.9413
G01 X71.7210 Y-31.9857
G01 X71.6957 Y-32.0278
G01 X71.6665 Y-32.0672
G01 X71.6336 Y-32.1036
G01 X71.5972 Y-32.1365
G01 X71.5578 Y-32.1657
G01 X71.5157 Y-32.1910
G01 X71.4713 Y-32.2119
G01 X71.4251 Y-32.2285
G01 X71.3775 Y-32.2404
G01 X71.3290 Y-32.2476
G01 X71.2800 Y-32.2500
G01 X71.2310 Y-32.2476
G01 X71.1825 Y-32.2404
G01 X71.1349 Y-32.2285
G01 X71.0887 Y-32.2119
G01 X71.0443 Y-32.1910
G01 X71.0022 Y-32.1657
G01 X70.9628 Y-32.1365
G01 X70.9264 Y-32.1036
G01 X70.8935 Y-32.0672
G01 X70.8643 Y-32.0278
G01 X70.8390 Y-31.9857
G01 X70.8181 Y-31.9413
G01 X70.8015 Y-31.8951
G01 X70.7896 Y-31.8475
G01 X70.7824 Y-31.7990
G01 X70.7800 Y-31.7500
G01 X70.7824 Y-31.7010
G01 X70.7896 Y-31.6525
G01 X70.8015 Y-31.6049
G01 X70.8181 Y-31.5587
G01 X70.8390 Y-31.5143
G01 X70.8643 Y-31.4722
G01 X70.8935 Y-31.4328
G01 X70.9264 Y-31.3964
G01 X70.9628 Y-31.3635
G01 X71.0022 Y-31.3343
G01 X71.0443 Y-31.3090
G01 X71.0887 Y-31.2881
G01 X71.1349 Y-31.2715
G01 X71.1825 Y-31.2596
G01 X71.2310 Y-31.2524
G01 X71.2800 Y-31.2500
G01 X71.3290 Y-31.2524
G01 X71.3775 Y-31.2596
G01 X71.4251 Y-31.2715
G01 X71.4713 Y-31.2881
G01 X71.5157 Y-31.3090
G01 X71.5578 Y-31.3343
G01 X71.5972 Y-31.3635
G01 X71.6336 Y-31.3964
G01 X71.6665 Y-31.4328
G01 X71.6957 Y-31.4722
G01 X71.7210 Y-31.5143
G01 X71.7419 Y-31.5587
G01 X71.7585 Y-31.6049
G01 X71.7704 Y-31.6525
G01 X71.7776 Y-31.7010
G01 X71.7800 Y-31.7500
G00 X71.7800 Y-31.7500
G01 F60.00
G01 Z-1.0000
G01 F120.00
G01 X71.7776 Y-31.7990
G01 X71.7704 Y-31.8475
G01 X71.7585 Y-31.8951
G01 X71.7419 Y-31.9413
G01 X71.7210 Y-31.9857
G01 X71.6957 Y-32.0278
G01 X71.6665 Y-32.0672
G01 X71.6336 Y-32.1036
G01 X71.5972 Y-32.1365
G01 X71.5578 Y-32.1657
G01 X71.5157 Y-32.1910
G01 X71.4713 Y-32.2119
G01 X71.4251 Y-32.2285
G01 X71.3775 Y-32.2404
G01 X71.3290 Y-32.2476
G01 X71.2800 Y-32.2500
G01 X71.2310 Y-32.2476
G01 X71.1825 Y-32.2404
G01 X71.1349 Y-32.2285
G01 X71.0887 Y-32.2119
G01 X71.0443 Y-32.1910
G01 X71.0022 Y-32.1657
G01 X70.9628 Y-32.1365
G01 X70.9264 Y-32.1036
G01 X70.8935 Y-32.0672
G01 X70.8643 Y-32.0278
G01 X70.8390 Y-31.9857
G01 X70.8181 Y-31.9413
G01 X70.8015 Y-31.8951
G01 X70.7896 Y-31.8475
G01 X70.7824 Y-31.7990
G01 X70.7800 Y-31.7500
G01 X70.7824 Y-31.7010
G01 X70.7896 Y-31.6525
G01 X70.8015 Y-31.6049
G01 X70.8181 Y-31.5587
G01 X70.8390 Y-31.5143
G01 X70.8643 Y-31.4722
G01 X70.8935 Y-31.4328
G01 X70.9264 Y-31.3964
G01 X70.9628 Y-31.3635
G01 X71.0022 Y-31.3343
G01 X71.0443 Y-31.3090
G01 X71.0887 Y-31.2881
G01 X71.1349 Y-31.2715
G01 X71.1825 Y-31.2596
G01 X71.2310 Y-31.2524
G01 X71.2800 Y-31.2500
G01 X71.3290 Y-31.2524
G01 X71.3775 Y-31.2596
G01 X71.4251 Y-31.2715
G01 X71.4713 Y-31.2881
G01 X71.5157 Y-31.3090
G01 X71.5578 Y-31.3343
G01 X71.5972 Y-31.3635
G01 X71.6336 Y-31.3964
G01 X71.6665 Y-31.4328
G01 X71.6957 Y-31.4722
G01 X71.7210 Y-31.5143
G01 X71.7419 Y-31.5587
G01 X71.7585 Y-31.6049
G01 X71.7704 Y-31.6525
G01 X71.7776 Y-31.7010
G01 X71.7800 Y-31.7500
G00 X71.7800 Y-31.7500
G01 F60.00
G01 Z-1.1000
G01 F120.00
G01 X71.7776 Y-31.7990
G01 X71.7704 Y-31.8475
G01 X71.7585 Y-31.8951
G01 X71.7419 Y-31.9413
G01 X71.7210 Y-31.9857
G01 X71.6957 Y-32.0278
G01 X71.6665 Y-32.0672
G01 X71.6336 Y-32.1036
G01 X71.5972 Y-32.1365
G01 X71.5578 Y-32.1657
G01 X71.5157 Y-32.1910
G01 X71.4713 Y-32.2119
G01 X71.4251 Y-32.2285
G01 X71.3775 Y-32.2404
G01 X71.3290 Y-32.2476
G01 X71.2800 Y-32.2500
G01 X71.2310 Y-32.2476
G01 X71.1825 Y-32.2404
G01 X71.1349 Y-32.2285
G01 X71.0887 Y-32.2119
G01 X71.0443 Y-32.1910
G01 X71.0022 Y-32.1657
G01 X70.9628 Y-32.1365
G01 X70.9264 Y-32.1036
G01 X70.8935 Y-32.0672
G01 X70.8643 Y-32.0278
G01 X70.8390 Y-31.9857
G01 X70.8181 Y-31.9413
G01 X70.8015 Y-31.8951
G01 X70.7896 Y-31.8475
G01 X70.7824 Y-31.7990
G01 X70.7800 Y-31.7500
G01 X70.7824 Y-31.7010
G01 X70.7896 Y-31.6525
G01 X70.8015 Y-31.6049
G01 X70.8181 Y-31.5587
G01 X70.8390 Y-31.5143
G01 X70.8643 Y-31.4722
G01 X70.8935 Y-31.4328
G01 X70.9264 Y-31.3964
G01 X70.9628 Y-31.3635
G01 X71.0022 Y-31.3343
G01 X71.0443 Y-31.3090
G01 X71.0887 Y-31.2881
G01 X71.1349 Y-31.2715
G01 X71.1825 Y-31.2596
G01 X71.2310 Y-31.2524
G01 X71.2800 Y-31.2500
G01 X71.3290 Y-31.2524
G01 X71.3775 Y-31.2596
G01 X71.4251 Y-31.2715
G01 X71.4713 Y-31.2881
G01 X71.5157 Y-31.3090
G01 X71.5578 Y-31.3343
G01 X71.5972 Y-31.3635
G01 X71.6336 Y-31.3964
G01 X71.6665 Y-31.4328
G01 X71.6957 Y-31.4722
G01 X71.7210 Y-31.5143
G01 X71.7419 Y-31.5587
G01 X71.7585 Y-31.6049
G01 X71.7704 Y-31.6525
G01 X71.7776 Y-31.7010
G01 X71.7800 Y-31.7500
G00 X71.7800 Y-31.7500
G01 F60.00
G01 Z-1.2000
G01 F120.00
G01 X71.7776 Y-31.7990
G01 X71.7704 Y-31.8475
G01 X71.7585 Y-31.8951
G01 X71.7419 Y-31.9413
G01 X71.7210 Y-31.9857
G01 X71.6957 Y-32.0278
G01 X71.6665 Y-32.0672
G01 X71.6336 Y-32.1036
G01 X71.5972 Y-32.1365
G01 X71.5578 Y-32.1657
G01 X71.5157 Y-32.1910
G01 X71.4713 Y-32.2119
G01 X71.4251 Y-32.2285
G01 X71.3775 Y-32.2404
G01 X71.3290 Y-32.2476
G01 X71.2800 Y-32.2500
G01 X71.2310 Y-32.2476
G01 X71.1825 Y-32.2404
G01 X71.1349 Y-32.2285
G01 X71.0887 Y-32.2119
G01 X71.0443 Y-32.1910
G01 X71.0022 Y-32.1657
G01 X70.9628 Y-32.1365
G01 X70.9264 Y-32.1036
G01 X70.8935 Y-32.0672
G01 X70.8643 Y-32.0278
G01 X70.8390 Y-31.9857
G01 X70.8181 Y-31.9413
G01 X70.8015 Y-31.8951
G01 X70.7896 Y-31.8475
G01 X70.7824 Y-31.7990
G01 X70.7800 Y-31.7500
G01 X70.7824 Y-31.7010
G01 X70.7896 Y-31.6525
G01 X70.8015 Y-31.6049
G01 X70.8181 Y-31.5587
G01 X70.8390 Y-31.5143
G01 X70.8643 Y-31.4722
G01 X70.8935 Y-31.4328
G01 X70.9264 Y-31.3964
G01 X70.9628 Y-31.3635
G01 X71.0022 Y-31.3343
G01 X71.0443 Y-31.3090
G01 X71.0887 Y-31.2881
G01 X71.1349 Y-31.2715
G01 X71.1825 Y-31.2596
G01 X71.2310 Y-31.2524
G01 X71.2800 Y-31.2500
G01 X71.3290 Y-31.2524
G01 X71.3775 Y-31.2596
G01 X71.4251 Y-31.2715
G01 X71.4713 Y-31.2881
G01 X71.5157 Y-31.3090
G01 X71.5578 Y-31.3343
G01 X71.5972 Y-31.3635
G01 X71.6336 Y-31.3964
G01 X71.6665 Y-31.4328
G01 X71.6957 Y-31.4722
G01 X71.7210 Y-31.5143
G01 X71.7419 Y-31.5587
G01 X71.7585 Y-31.6049
G01 X71.7704 Y-31.6525
G01 X71.7776 Y-31.7010
G01 X71.7800 Y-31.7500
G00 X71.7800 Y-31.7500
G01 F60.00
G01 Z-1.3000
G01 F120.00
G01 X71.7776 Y-31.7990
G01 X71.7704 Y-31.8475
G01 X71.7585 Y-31.8951
G01 X71.7419 Y-31.9413
G01 X71.7210 Y-31.9857
G01 X71.6957 Y-32.0278
G01 X71.6665 Y-32.0672
G01 X71.6336 Y-32.1036
G01 X71.5972 Y-32.1365
G01 X71.5578 Y-32.1657
G01 X71.5157 Y-32.1910
G01 X71.4713 Y-32.2119
G01 X71.4251 Y-32.2285
G01 X71.3775 Y-32.2404
G01 X71.3290 Y-32.2476
G01 X71.2800 Y-32.2500
G01 X71.2310 Y-32.2476
G01 X71.1825 Y-32.2404
G01 X71.1349 Y-32.2285
G01 X71.0887 Y-32.2119
G01 X71.0443 Y-32.1910
G01 X71.0022 Y-32.1657
G01 X70.9628 Y-32.1365
G01 X70.9264 Y-32.1036
G01 X70.8935 Y-32.0672
G01 X70.8643 Y-32.0278
G01 X70.8390 Y-31.9857
G01 X70.8181 Y-31.9413
G01 X70.8015 Y-31.8951
G01 X70.7896 Y-31.8475
G01 X70.7824 Y-31.7990
G01 X70.7800 Y-31.7500
G01 X70.7824 Y-31.7010
G01 X70.7896 Y-31.6525
G01 X70.8015 Y-31.6049
G01 X70.8181 Y-31.5587
G01 X70.8390 Y-31.5143
G01 X70.8643 Y-31.4722
G01 X70.8935 Y-31.4328
G01 X70.9264 Y-31.3964
G01 X70.9628 Y-31.3635
G01 X71.0022 Y-31.3343
G01 X71.0443 Y-31.3090
G01 X71.0887 Y-31.2881
G01 X71.1349 Y-31.2715
G01 X71.1825 Y-31.2596
G01 X71.2310 Y-31.2524
G01 X71.2800 Y-31.2500
G01 X71.3290 Y-31.2524
G01 X71.3775 Y-31.2596
G01 X71.4251 Y-31.2715
G01 X71.4713 Y-31.2881
G01 X71.5157 Y-31.3090
G01 X71.5578 Y-31.3343
G01 X71.5972 Y-31.3635
G01 X71.6336 Y-31.3964
G01 X71.6665 Y-31.4328
G01 X71.6957 Y-31.4722
G01 X71.7210 Y-31.5143
G01 X71.7419 Y-31.5587
G01 X71.7585 Y-31.6049
G01 X71.7704 Y-31.6525
G01 X71.7776 Y-31.7010
G01 X71.7800 Y-31.7500
G00 X71.7800 Y-31.7500
G01 F60.00
G01 Z-1.4000
G01 F120.00
G01 X71.7776 Y-31.7990
G01 X71.7704 Y-31.8475
G01 X71.7585 Y-31.8951
G01 X71.7419 Y-31.9413
G01 X71.7210 Y-31.9857
G01 X71.6957 Y-32.0278
G01 X71.6665 Y-32.0672
G01 X71.6336 Y-32.1036
G01 X71.5972 Y-32.1365
G01 X71.5578 Y-32.1657
G01 X71.5157 Y-32.1910
G01 X71.4713 Y-32.2119
G01 X71.4251 Y-32.2285
G01 X71.3775 Y-32.2404
G01 X71.3290 Y-32.2476
G01 X71.2800 Y-32.2500
G01 X71.2310 Y-32.2476
G01 X71.1825 Y-32.2404
G01 X71.1349 Y-32.2285
G01 X71.0887 Y-32.2119
G01 X71.0443 Y-32.1910
G01 X71.0022 Y-32.1657
G01 X70.9628 Y-32.1365
G01 X70.9264 Y-32.1036
G01 X70.8935 Y-32.0672
G01 X70.8643 Y-32.0278
G01 X70.8390 Y-31.9857
G01 X70.8181 Y-31.9413
G01 X70.8015 Y-31.8951
G01 X70.7896 Y-31.8475
G01 X70.7824 Y-31.7990
G01 X70.7800 Y-31.7500
G01 X70.7824 Y-31.7010
G01 X70.7896 Y-31.6525
G01 X70.8015 Y-31.6049
G01 X70.8181 Y-31.5587
G01 X70.8390 Y-31.5143
G01 X70.8643 Y-31.4722
G01 X70.8935 Y-31.4328
G01 X70.9264 Y-31.3964
G01 X70.9628 Y-31.3635
G01 X71.0022 Y-31.3343
G01 X71.0443 Y-31.3090
G01 X71.0887 Y-31.2881
G01 X71.1349 Y-31.2715
G01 X71.1825 Y-31.2596
G01 X71.2310 Y-31.2524
G01 X71.2800 Y-31.2500
G01 X71.3290 Y-31.2524
G01 X71.3775 Y-31.2596
G01 X71.4251 Y-31.2715
G01 X71.4713 Y-31.2881
G01 X71.5157 Y-31.3090
G01 X71.5578 Y-31.3343
G01 X71.5972 Y-31.3635
G01 X71.6336 Y-31.3964
G01 X71.6665 Y-31.4328
G01 X71.6957 Y-31.4722
G01 X71.7210 Y-31.5143
G01 X71.7419 Y-31.5587
G01 X71.7585 Y-31.6049
G01 X71.7704 Y-31.6525
G01 X71.7776 Y-31.7010
G01 X71.7800 Y-31.7500
G00 X71.7800 Y-31.7500
G01 F60.00
G01 Z-1.5000
G01 F120.00
G01 X71.7776 Y-31.7990
G01 X71.7704 Y-31.8475
G01 X71.7585 Y-31.8951
G01 X71.7419 Y-31.9413
G01 X71.7210 Y-31.9857
G01 X71.6957 Y-32.0278
G01 X71.6665 Y-32.0672
G01 X71.6336 Y-32.1036
G01 X71.5972 Y-32.1365
G01 X71.5578 Y-32.1657
G01 X71.5157 Y-32.1910
G01 X71.4713 Y-32.2119
G01 X71.4251 Y-32.2285
G01 X71.3775 Y-32.2404
G01 X71.3290 Y-32.2476
G01 X71.2800 Y-32.2500
G01 X71.2310 Y-32.2476
G01 X71.1825 Y-32.2404
G01 X71.1349 Y-32.2285
G01 X71.0887 Y-32.2119
G01 X71.0443 Y-32.1910
G01 X71.0022 Y-32.1657
G01 X70.9628 Y-32.1365
G01 X70.9264 Y-32.1036
G01 X70.8935 Y-32.0672
G01 X70.8643 Y-32.0278
G01 X70.8390 Y-31.9857
G01 X70.8181 Y-31.9413
G01 X70.8015 Y-31.8951
G01 X70.7896 Y-31.8475
G01 X70.7824 Y-31.7990
G01 X70.7800 Y-31.7500
G01 X70.7824 Y-31.7010
G01 X70.7896 Y-31.6525
G01 X70.8015 Y-31.6049
G01 X70.8181 Y-31.5587
G01 X70.8390 Y-31.5143
G01 X70.8643 Y-31.4722
G01 X70.8935 Y-31.4328
G01 X70.9264 Y-31.3964
G01 X70.9628 Y-31.3635
G01 X71.0022 Y-31.3343
G01 X71.0443 Y-31.3090
G01 X71.0887 Y-31.2881
G01 X71.1349 Y-31.2715
G01 X71.1825 Y-31.2596
G01 X71.2310 Y-31.2524
G01 X71.2800 Y-31.2500
G01 X71.3290 Y-31.2524
G01 X71.3775 Y-31.2596
G01 X71.4251 Y-31.2715
G01 X71.4713 Y-31.2881
G01 X71.5157 Y-31.3090
G01 X71.5578 Y-31.3343
G01 X71.5972 Y-31.3635
G01 X71.6336 Y-31.3964
G01 X71.6665 Y-31.4328
G01 X71.6957 Y-31.4722
G01 X71.7210 Y-31.5143
G01 X71.7419 Y-31.5587
G01 X71.7585 Y-31.6049
G01 X71.7704 Y-31.6525
G01 X71.7776 Y-31.7010
G01 X71.7800 Y-31.7500
G00 X71.7800 Y-31.7500
G01 F60.00
G01 Z-1.6000
G01 F120.00
G01 X71.7776 Y-31.7990
G01 X71.7704 Y-31.8475
G01 X71.7585 Y-31.8951
G01 X71.7419 Y-31.9413
G01 X71.7210 Y-31.9857
G01 X71.6957 Y-32.0278
G01 X71.6665 Y-32.0672
G01 X71.6336 Y-32.1036
G01 X71.5972 Y-32.1365
G01 X71.5578 Y-32.1657
G01 X71.5157 Y-32.1910
G01 X71.4713 Y-32.2119
G01 X71.4251 Y-32.2285
G01 X71.3775 Y-32.2404
G01 X71.3290 Y-32.2476
G01 X71.2800 Y-32.2500
G01 X71.2310 Y-32.2476
G01 X71.1825 Y-32.2404
G01 X71.1349 Y-32.2285
G01 X71.0887 Y-32.2119
G01 X71.0443 Y-32.1910
G01 X71.0022 Y-32.1657
G01 X70.9628 Y-32.1365
G01 X70.9264 Y-32.1036
G01 X70.8935 Y-32.0672
G01 X70.8643 Y-32.0278
G01 X70.8390 Y-31.9857
G01 X70.8181 Y-31.9413
G01 X70.8015 Y-31.8951
G01 X70.7896 Y-31.8475
G01 X70.7824 Y-31.7990
G01 X70.7800 Y-31.7500
G01 X70.7824 Y-31.7010
G01 X70.7896 Y-31.6525
G01 X70.8015 Y-31.6049
G01 X70.8181 Y-31.5587
G01 X70.8390 Y-31.5143
G01 X70.8643 Y-31.4722
G01 X70.8935 Y-31.4328
G01 X70.9264 Y-31.3964
G01 X70.9628 Y-31.3635
G01 X71.0022 Y-31.3343
G01 X71.0443 Y-31.3090
G01 X71.0887 Y-31.2881
G01 X71.1349 Y-31.2715
G01 X71.1825 Y-31.2596
G01 X71.2310 Y-31.2524
G01 X71.2800 Y-31.2500
G01 X71.3290 Y-31.2524
G01 X71.3775 Y-31.2596
G01 X71.4251 Y-31.2715
G01 X71.4713 Y-31.2881
G01 X71.5157 Y-31.3090
G01 X71.5578 Y-31.3343
G01 X71.5972 Y-31.3635
G01 X71.6336 Y-31.3964
G01 X71.6665 Y-31.4328
G01 X71.6957 Y-31.4722
G01 X71.7210 Y-31.5143
G01 X71.7419 Y-31.5587
G01 X71.7585 Y-31.6049
G01 X71.7704 Y-31.6525
G01 X71.7776 Y-31.7010
G01 X71.7800 Y-31.7500
G00 X71.7800 Y-31.7500
G01 F60.00
G01 Z-1.7000
G01 F120.00
G01 X71.7776 Y-31.7990
G01 X71.7704 Y-31.8475
G01 X71.7585 Y-31.8951
G01 X71.7419 Y-31.9413
G01 X71.7210 Y-31.9857
G01 X71.6957 Y-32.0278
G01 X71.6665 Y-32.0672
G01 X71.6336 Y-32.1036
G01 X71.5972 Y-32.1365
G01 X71.5578 Y-32.1657
G01 X71.5157 Y-32.1910
G01 X71.4713 Y-32.2119
G01 X71.4251 Y-32.2285
G01 X71.3775 Y-32.2404
G01 X71.3290 Y-32.2476
G01 X71.2800 Y-32.2500
G01 X71.2310 Y-32.2476
G01 X71.1825 Y-32.2404
G01 X71.1349 Y-32.2285
G01 X71.0887 Y-32.2119
G01 X71.0443 Y-32.1910
G01 X71.0022 Y-32.1657
G01 X70.9628 Y-32.1365
G01 X70.9264 Y-32.1036
G01 X70.8935 Y-32.0672
G01 X70.8643 Y-32.0278
G01 X70.8390 Y-31.9857
G01 X70.8181 Y-31.9413
G01 X70.8015 Y-31.8951
G01 X70.7896 Y-31.8475
G01 X70.7824 Y-31.7990
G01 X70.7800 Y-31.7500
G01 X70.7824 Y-31.7010
G01 X70.7896 Y-31.6525
G01 X70.8015 Y-31.6049
G01 X70.8181 Y-31.5587
G01 X70.8390 Y-31.5143
G01 X70.8643 Y-31.4722
G01 X70.8935 Y-31.4328
G01 X70.9264 Y-31.3964
G01 X70.9628 Y-31.3635
G01 X71.0022 Y-31.3343
G01 X71.0443 Y-31.3090
G01 X71.0887 Y-31.2881
G01 X71.1349 Y-31.2715
G01 X71.1825 Y-31.2596
G01 X71.2310 Y-31.2524
G01 X71.2800 Y-31.2500
G01 X71.3290 Y-31.2524
G01 X71.3775 Y-31.2596
G01 X71.4251 Y-31.2715
G01 X71.4713 Y-31.2881
G01 X71.5157 Y-31.3090
G01 X71.5578 Y-31.3343
G01 X71.5972 Y-31.3635
G01 X71.6336 Y-31.3964
G01 X71.6665 Y-31.4328
G01 X71.6957 Y-31.4722
G01 X71.7210 Y-31.5143
G01 X71.7419 Y-31.5587
G01 X71.7585 Y-31.6049
G01 X71.7704 Y-31.6525
G01 X71.7776 Y-31.7010
G01 X71.7800 Y-31.7500
G00 X71.7800 Y-31.7500
G01 F60.00
G01 Z-1.8000
G01 F120.00
G01 X71.7776 Y-31.7990
G01 X71.7704 Y-31.8475
G01 X71.7585 Y-31.8951
G01 X71.7419 Y-31.9413
G01 X71.7210 Y-31.9857
G01 X71.6957 Y-32.0278
G01 X71.6665 Y-32.0672
G01 X71.6336 Y-32.1036
G01 X71.5972 Y-32.1365
G01 X71.5578 Y-32.1657
G01 X71.5157 Y-32.1910
G01 X71.4713 Y-32.2119
G01 X71.4251 Y-32.2285
G01 X71.3775 Y-32.2404
G01 X71.3290 Y-32.2476
G01 X71.2800 Y-32.2500
G01 X71.2310 Y-32.2476
G01 X71.1825 Y-32.2404
G01 X71.1349 Y-32.2285
G01 X71.0887 Y-32.2119
G01 X71.0443 Y-32.1910
G01 X71.0022 Y-32.1657
G01 X70.9628 Y-32.1365
G01 X70.9264 Y-32.1036
G01 X70.8935 Y-32.0672
G01 X70.8643 Y-32.0278
G01 X70.8390 Y-31.9857
G01 X70.8181 Y-31.9413
G01 X70.8015 Y-31.8951
G01 X70.7896 Y-31.8475
G01 X70.7824 Y-31.7990
G01 X70.7800 Y-31.7500
G01 X70.7824 Y-31.7010
G01 X70.7896 Y-31.6525
G01 X70.8015 Y-31.6049
G01 X70.8181 Y-31.5587
G01 X70.8390 Y-31.5143
G01 X70.8643 Y-31.4722
G01 X70.8935 Y-31.4328
G01 X70.9264 Y-31.3964
G01 X70.9628 Y-31.3635
G01 X71.0022 Y-31.3343
G01 X71.0443 Y-31.3090
G01 X71.0887 Y-31.2881
G01 X71.1349 Y-31.2715
G01 X71.1825 Y-31.2596
G01 X71.2310 Y-31.2524
G01 X71.2800 Y-31.2500
G01 X71.3290 Y-31.2524
G01 X71.3775 Y-31.2596
G01 X71.4251 Y-31.2715
G01 X71.4713 Y-31.2881
G01 X71.5157 Y-31.3090
G01 X71.5578 Y-31.3343
G01 X71.5972 Y-31.3635
G01 X71.6336 Y-31.3964
G01 X71.6665 Y-31.4328
G01 X71.6957 Y-31.4722
G01 X71.7210 Y-31.5143
G01 X71.7419 Y-31.5587
G01 X71.7585 Y-31.6049
G01 X71.7704 Y-31.6525
G01 X71.7776 Y-31.7010
G01 X71.7800 Y-31.7500
G00 Z2.0000
M05
G00 Z2.0000
G00 Z30.00


